( This gcode generated by /opt/eagle-5.6.0/ulp/pcb-gcode.ulp )
( Copyright 2005 by John Johnson. See readme.txt for licensing terms. )

( This file generated from the board /home/alex/projects/thinmt/r1-8x8/hardware/main.brd )
( This file generated 9 Apr 2010 23:47:02 )

G20

G90
G00 Z0.5000 
G00 X0 Y0
M03
G04 P3.000000
G00 Z0.0200 
G00 X0.3929 Y2.1732 
G01 Z-0.0100 F10.00 
G01 X0.4018 Y2.1821 
G01 X0.4066 Y2.1937 
G01 X0.4066 Y2.2063 
G01 X0.4018 Y2.2179 
G01 X0.3929 Y2.2268 
G01 X0.3853 Y2.2299 
G01 X0.7396 Y2.2299 
G01 X0.7321 Y2.2268 
G01 X0.7232 Y2.2179 
G01 X0.7184 Y2.2063 
G01 X0.7184 Y2.1937 
G01 X0.7232 Y2.1821 
G01 X0.7321 Y2.1732 
G01 X0.7397 Y2.1701 
G01 X0.3853 Y2.1701 
G01 X0.3929 Y2.1732 
G00 Z0.0200 
G00 X0.7679 Y2.1732 
G01 Z-0.0100 F10.00 
G01 X0.7768 Y2.1821 
G01 X0.7816 Y2.1937 
G01 X0.7816 Y2.2063 
G01 X0.7768 Y2.2179 
G01 X0.7679 Y2.2268 
G01 X0.7603 Y2.2299 
G01 X1.1147 Y2.2299 
G01 X1.1071 Y2.2268 
G01 X1.0982 Y2.2179 
G01 X1.0934 Y2.2063 
G01 X1.0934 Y2.1937 
G01 X1.0982 Y2.1821 
G01 X1.1071 Y2.1732 
G01 X1.1147 Y2.1701 
G01 X0.7603 Y2.1701 
G01 X0.7679 Y2.1732 
G00 Z0.0200 
G00 X1.1429 Y2.1732 
G01 Z-0.0100 F10.00 
G01 X1.1518 Y2.1821 
G01 X1.1566 Y2.1937 
G01 X1.1566 Y2.2063 
G01 X1.1518 Y2.2179 
G01 X1.1429 Y2.2268 
G01 X1.1353 Y2.2299 
G01 X1.4518 Y2.2299 
G01 X1.4704 Y2.2114 
G01 X1.4704 Y2.2111 
G01 X1.4684 Y2.2063 
G01 X1.4684 Y2.1937 
G01 X1.4732 Y2.1821 
G01 X1.4821 Y2.1732 
G01 X1.4897 Y2.1701 
G01 X1.1353 Y2.1701 
G01 X1.1429 Y2.1732 
G00 Z0.0200 
G00 X3.4258 Y1.3253 
G01 Z-0.0100 F10.00 
G01 X3.4187 Y1.3182 
G01 X3.4149 Y1.3090 
G01 X3.4149 Y1.2990 
G01 X3.4187 Y1.2898 
G01 X3.4258 Y1.2827 
G01 X3.4324 Y1.2800 
G01 X3.4258 Y1.2773 
G01 X3.4187 Y1.2702 
G01 X3.4149 Y1.2610 
G01 X3.4149 Y1.2510 
G01 X3.4187 Y1.2418 
G01 X3.4258 Y1.2347 
G01 X3.4350 Y1.2309 
G01 X3.4450 Y1.2309 
G01 X3.4542 Y1.2347 
G01 X3.4613 Y1.2418 
G01 X3.4630 Y1.2459 
G01 X3.4759 Y1.2459 
G01 X3.4759 Y1.2349 
G01 X3.4789 Y1.2319 
G01 X3.5201 Y1.2319 
G01 X3.5138 Y1.2293 
G01 X3.5067 Y1.2222 
G01 X3.5029 Y1.2130 
G01 X3.5029 Y1.2030 
G01 X3.5067 Y1.1938 
G01 X3.5138 Y1.1867 
G01 X3.5230 Y1.1829 
G01 X3.5330 Y1.1829 
G01 X3.5371 Y1.1846 
G01 X3.5499 Y1.1718 
G01 X3.5499 Y0.9898 
G01 X3.5478 Y0.9919 
G01 X3.5194 Y0.9919 
G01 X3.5262 Y0.9947 
G01 X3.5333 Y1.0018 
G01 X3.5371 Y1.0110 
G01 X3.5371 Y1.0210 
G01 X3.5333 Y1.0302 
G01 X3.5262 Y1.0373 
G01 X3.5170 Y1.0411 
G01 X3.5070 Y1.0411 
G01 X3.5029 Y1.0394 
G01 X3.4101 Y1.1322 
G01 X3.4101 Y1.4438 
G01 X3.4255 Y1.4592 
G01 X3.4229 Y1.4530 
G01 X3.4229 Y1.4430 
G01 X3.4267 Y1.4338 
G01 X3.4338 Y1.4267 
G01 X3.4404 Y1.4240 
G01 X3.4338 Y1.4213 
G01 X3.4267 Y1.4142 
G01 X3.4229 Y1.4050 
G01 X3.4229 Y1.3950 
G01 X3.4267 Y1.3858 
G01 X3.4338 Y1.3787 
G01 X3.4377 Y1.3771 
G01 X3.4350 Y1.3771 
G01 X3.4258 Y1.3733 
G01 X3.4187 Y1.3662 
G01 X3.4149 Y1.3570 
G01 X3.4149 Y1.3470 
G01 X3.4187 Y1.3378 
G01 X3.4258 Y1.3307 
G01 X3.4324 Y1.3280 
G01 X3.4258 Y1.3253 
G00 Z0.0200 
G00 X3.5478 Y0.9581 
G01 Z-0.0100 F10.00 
G01 X3.5499 Y0.9602 
G01 X3.5499 Y0.9398 
G01 X3.5478 Y0.9419 
G01 X3.5141 Y0.9419 
G01 X3.5141 Y0.9581 
G01 X3.5478 Y0.9581 
G00 Z0.0200 
G00 X3.4491 Y2.3446 
G01 Z-0.0100 F10.00 
G01 X3.4512 Y2.3425 
G01 X3.4476 Y2.3440 
G01 X3.4491 Y2.3446 
G00 Z0.0200 
G00 X3.4299 Y2.2762 
G01 Z-0.0100 F10.00 
G01 X3.3825 Y2.2288 
G01 X3.3851 Y2.2350 
G01 X3.3851 Y2.2450 
G01 X3.3813 Y2.2542 
G01 X3.3742 Y2.2613 
G01 X3.3653 Y2.2650 
G01 X3.3648 Y2.2655 
G01 X3.3710 Y2.2629 
G01 X3.3810 Y2.2629 
G01 X3.3902 Y2.2667 
G01 X3.3973 Y2.2738 
G01 X3.4011 Y2.2830 
G01 X3.4011 Y2.2930 
G01 X3.3973 Y2.3022 
G01 X3.3902 Y2.3093 
G01 X3.3861 Y2.3110 
G01 X3.3861 Y2.3478 
G01 X3.4175 Y2.3792 
G01 X3.4149 Y2.3730 
G01 X3.4149 Y2.3630 
G01 X3.4187 Y2.3538 
G01 X3.4258 Y2.3467 
G01 X3.4324 Y2.3440 
G01 X3.4258 Y2.3413 
G01 X3.4187 Y2.3342 
G01 X3.4149 Y2.3250 
G01 X3.4149 Y2.3150 
G01 X3.4187 Y2.3058 
G01 X3.4258 Y2.2987 
G01 X3.4299 Y2.2970 
G01 X3.4299 Y2.2762 
G00 Z0.0200 
G00 X2.6202 Y1.7301 
G01 Z-0.0100 F10.00 
G01 X2.6118 Y1.7301 
G01 X2.5638 Y1.6821 
G01 X2.4842 Y1.6821 
G01 X2.4581 Y1.7082 
G01 X2.4581 Y1.7158 
G01 X2.5482 Y1.8059 
G01 X2.5977 Y1.8059 
G01 X2.5995 Y1.8051 
G01 X2.6000 Y1.8053 
G01 X2.6071 Y1.7982 
G01 X2.6187 Y1.7934 
G01 X2.6313 Y1.7934 
G01 X2.6379 Y1.7961 
G01 X2.5638 Y1.7221 
G01 X2.5430 Y1.7221 
G01 X2.5413 Y1.7262 
G01 X2.5342 Y1.7333 
G01 X2.5250 Y1.7371 
G01 X2.5150 Y1.7371 
G01 X2.5058 Y1.7333 
G01 X2.4987 Y1.7262 
G01 X2.4949 Y1.7170 
G01 X2.4949 Y1.7070 
G01 X2.4987 Y1.6978 
G01 X2.5058 Y1.6907 
G01 X2.5150 Y1.6869 
G01 X2.5250 Y1.6869 
G01 X2.5342 Y1.6907 
G01 X2.5413 Y1.6978 
G01 X2.5430 Y1.7019 
G01 X2.5722 Y1.7019 
G01 X2.5781 Y1.7078 
G01 X3.0501 Y2.1798 
G01 X3.0501 Y2.1882 
G01 X3.0501 Y2.2438 
G01 X3.0869 Y2.2806 
G01 X3.0910 Y2.2789 
G01 X3.1010 Y2.2789 
G01 X3.1102 Y2.2827 
G01 X3.1173 Y2.2898 
G01 X3.1179 Y2.2913 
G01 X3.1179 Y2.2838 
G01 X3.1179 Y2.2787 
G01 X3.0967 Y2.2787 
G01 X3.0937 Y2.2757 
G01 X3.0937 Y2.2243 
G01 X3.0967 Y2.2213 
G01 X3.1324 Y2.2213 
G01 X3.1339 Y2.2228 
G01 X3.1339 Y1.9022 
G01 X3.1324 Y1.9037 
G01 X3.1114 Y1.9037 
G01 X3.1111 Y1.9043 
G01 X3.1094 Y1.9048 
G01 X3.1082 Y1.9061 
G01 X3.1056 Y1.9061 
G01 X3.1032 Y1.9069 
G01 X3.1016 Y1.9061 
G01 X3.0362 Y1.9061 
G01 X3.0338 Y1.9085 
G01 X3.0338 Y1.9088 
G01 X3.0316 Y1.9108 
G01 X3.0316 Y1.9536 
G01 X3.0286 Y1.9566 
G01 X2.9714 Y1.9566 
G01 X2.9684 Y1.9536 
G01 X2.9684 Y1.9141 
G01 X2.9402 Y1.9141 
G01 X2.9318 Y1.9141 
G01 X2.8171 Y1.7994 
G01 X2.8130 Y1.8011 
G01 X2.8030 Y1.8011 
G01 X2.7938 Y1.7973 
G01 X2.7867 Y1.7902 
G01 X2.7829 Y1.7810 
G01 X2.7829 Y1.7710 
G01 X2.7867 Y1.7618 
G01 X2.7938 Y1.7547 
G01 X2.8030 Y1.7509 
G01 X2.8130 Y1.7509 
G01 X2.8222 Y1.7547 
G01 X2.8293 Y1.7618 
G01 X2.8331 Y1.7710 
G01 X2.8331 Y1.7810 
G01 X2.8314 Y1.7851 
G01 X2.9402 Y1.8939 
G01 X2.9709 Y1.8939 
G01 X2.9714 Y1.8934 
G01 X3.0203 Y1.8934 
G01 X3.0219 Y1.8918 
G01 X3.0219 Y1.8918 
G01 X3.0278 Y1.8859 
G01 X3.0937 Y1.8859 
G01 X3.0937 Y1.8493 
G01 X3.0967 Y1.8463 
G01 X3.1324 Y1.8463 
G01 X3.1339 Y1.8478 
G01 X3.1339 Y1.7270 
G01 X3.1298 Y1.7253 
G01 X3.1227 Y1.7182 
G01 X3.1189 Y1.7090 
G01 X3.1189 Y1.7063 
G01 X3.1173 Y1.7102 
G01 X3.1102 Y1.7173 
G01 X3.1010 Y1.7211 
G01 X3.0910 Y1.7211 
G01 X3.0818 Y1.7173 
G01 X3.0747 Y1.7102 
G01 X3.0730 Y1.7061 
G01 X2.9802 Y1.7061 
G01 X2.9734 Y1.7061 
G01 X2.9771 Y1.7150 
G01 X2.9771 Y1.7250 
G01 X2.9733 Y1.7342 
G01 X2.9662 Y1.7413 
G01 X2.9570 Y1.7451 
G01 X2.9470 Y1.7451 
G01 X2.9378 Y1.7413 
G01 X2.9307 Y1.7342 
G01 X2.9290 Y1.7301 
G01 X2.6202 Y1.7301 
G00 Z0.0200 
G00 X3.0316 Y1.8187 
G01 Z-0.0100 F10.00 
G01 X3.0316 Y1.8313 
G01 X3.0268 Y1.8429 
G01 X3.0179 Y1.8518 
G01 X3.0063 Y1.8566 
G01 X2.9937 Y1.8566 
G01 X2.9821 Y1.8518 
G01 X2.9732 Y1.8429 
G01 X2.9684 Y1.8313 
G01 X2.9684 Y1.8187 
G01 X2.9732 Y1.8071 
G01 X2.9821 Y1.7982 
G01 X2.9937 Y1.7934 
G01 X3.0063 Y1.7934 
G01 X3.0179 Y1.7982 
G01 X3.0268 Y1.8071 
G01 X3.0316 Y1.8187 
G00 Z0.0200 
G00 X2.9718 Y1.7579 
G01 Z-0.0100 F10.00 
G01 X2.9802 Y1.7579 
G01 X3.0250 Y1.7579 
G01 X3.0267 Y1.7538 
G01 X3.0338 Y1.7467 
G01 X3.0430 Y1.7429 
G01 X3.0530 Y1.7429 
G01 X3.0622 Y1.7467 
G01 X3.0693 Y1.7538 
G01 X3.0731 Y1.7630 
G01 X3.0731 Y1.7730 
G01 X3.0693 Y1.7822 
G01 X3.0622 Y1.7893 
G01 X3.0530 Y1.7931 
G01 X3.0430 Y1.7931 
G01 X3.0338 Y1.7893 
G01 X3.0267 Y1.7822 
G01 X3.0250 Y1.7781 
G01 X2.9847 Y1.7781 
G01 X2.9851 Y1.7790 
G01 X2.9851 Y1.7890 
G01 X2.9813 Y1.7982 
G01 X2.9742 Y1.8053 
G01 X2.9650 Y1.8091 
G01 X2.9550 Y1.8091 
G01 X2.9458 Y1.8053 
G01 X2.9387 Y1.7982 
G01 X2.9349 Y1.7890 
G01 X2.9349 Y1.7790 
G01 X2.9387 Y1.7698 
G01 X2.9458 Y1.7627 
G01 X2.9550 Y1.7589 
G01 X2.9650 Y1.7589 
G01 X2.9691 Y1.7606 
G01 X2.9718 Y1.7579 
G00 Z0.0200 
G00 X3.3211 Y1.8319 
G01 Z-0.0100 F10.00 
G01 X3.3241 Y1.8349 
G01 X3.3241 Y1.8651 
G01 X3.3211 Y1.8681 
G01 X3.2369 Y1.8681 
G01 X3.2349 Y1.8661 
G01 X3.2063 Y1.8661 
G01 X3.2063 Y1.9007 
G01 X3.2033 Y1.9037 
G01 X3.1836 Y1.9037 
G01 X3.1835 Y1.9039 
G01 X3.1816 Y1.9047 
G01 X3.1781 Y1.9082 
G01 X3.1781 Y2.0118 
G01 X3.1855 Y2.0192 
G01 X3.1829 Y2.0130 
G01 X3.1829 Y2.0030 
G01 X3.1867 Y1.9938 
G01 X3.1938 Y1.9867 
G01 X3.2030 Y1.9829 
G01 X3.2130 Y1.9829 
G01 X3.2222 Y1.9867 
G01 X3.2293 Y1.9938 
G01 X3.2310 Y1.9979 
G01 X3.2339 Y1.9979 
G01 X3.2339 Y1.9849 
G01 X3.2369 Y1.9819 
G01 X3.3196 Y1.9819 
G01 X3.3066 Y1.9689 
G01 X3.3039 Y1.9681 
G01 X3.2369 Y1.9681 
G01 X3.2339 Y1.9651 
G01 X3.2339 Y1.9349 
G01 X3.2369 Y1.9319 
G01 X3.3211 Y1.9319 
G01 X3.3241 Y1.9349 
G01 X3.3241 Y1.9578 
G01 X3.3429 Y1.9766 
G01 X3.3470 Y1.9749 
G01 X3.3570 Y1.9749 
G01 X3.3662 Y1.9787 
G01 X3.3733 Y1.9858 
G01 X3.3771 Y1.9950 
G01 X3.3771 Y2.0050 
G01 X3.3745 Y2.0112 
G01 X3.3819 Y2.0038 
G01 X3.3819 Y1.9882 
G01 X3.3558 Y1.9621 
G01 X3.3558 Y1.9621 
G01 X3.3499 Y1.9562 
G01 X3.3499 Y1.9562 
G01 X3.3158 Y1.9221 
G01 X3.3142 Y1.9221 
G01 X3.3125 Y1.9229 
G01 X3.3102 Y1.9221 
G01 X3.3078 Y1.9221 
G01 X3.3064 Y1.9207 
G01 X3.2992 Y1.9181 
G01 X3.2369 Y1.9181 
G01 X3.2339 Y1.9151 
G01 X3.2339 Y1.8849 
G01 X3.2369 Y1.8819 
G01 X3.3211 Y1.8819 
G01 X3.3241 Y1.8849 
G01 X3.3241 Y1.9019 
G01 X3.3242 Y1.9019 
G01 X3.3619 Y1.9397 
G01 X3.3627 Y1.9378 
G01 X3.3698 Y1.9307 
G01 X3.3790 Y1.9269 
G01 X3.3890 Y1.9269 
G01 X3.3952 Y1.9295 
G01 X3.3318 Y1.8661 
G01 X3.3259 Y1.8602 
G01 X3.3259 Y1.8362 
G01 X3.3078 Y1.8181 
G01 X3.2550 Y1.8181 
G01 X3.2533 Y1.8222 
G01 X3.2462 Y1.8293 
G01 X3.2398 Y1.8319 
G01 X3.3211 Y1.8319 
G00 Z0.0200 
G00 X3.4933 Y1.8222 
G01 Z-0.0100 F10.00 
G01 X3.4862 Y1.8293 
G01 X3.4798 Y1.8319 
G01 X3.5099 Y1.8319 
G01 X3.5099 Y1.8310 
G01 X3.5058 Y1.8293 
G01 X3.4987 Y1.8222 
G01 X3.4960 Y1.8156 
G01 X3.4933 Y1.8222 
G00 Z0.0200 
G00 X3.2474 Y2.8251 
G01 Z-0.0100 F10.00 
G01 X3.2495 Y2.8272 
G01 X3.2480 Y2.8236 
G01 X3.2474 Y2.8251 
G00 Z0.0200 
G00 X3.2682 Y2.8459 
G01 Z-0.0100 F10.00 
G01 X3.2758 Y2.8459 
G01 X3.2832 Y2.8385 
G01 X3.2770 Y2.8411 
G01 X3.2670 Y2.8411 
G01 X3.2608 Y2.8385 
G01 X3.2682 Y2.8459 
G00 Z0.0200 
G00 X0.7184 Y0.8286 
G01 Z-0.0100 F10.00 
G01 X0.7184 Y0.8101 
G01 X0.4066 Y0.8101 
G01 X0.4066 Y0.8286 
G01 X0.4053 Y0.8299 
G01 X0.7197 Y0.8299 
G01 X0.7184 Y0.8286 
G00 Z0.0200 
G00 X1.0934 Y0.8286 
G01 Z-0.0100 F10.00 
G01 X1.0934 Y0.8101 
G01 X0.7816 Y0.8101 
G01 X0.7816 Y0.8286 
G01 X0.7803 Y0.8299 
G01 X1.0947 Y0.8299 
G01 X1.0934 Y0.8286 
G00 Z0.0200 
G00 X1.4684 Y0.8286 
G01 Z-0.0100 F10.00 
G01 X1.4684 Y0.8101 
G01 X1.1566 Y0.8101 
G01 X1.1566 Y0.8286 
G01 X1.1553 Y0.8299 
G01 X1.4697 Y0.8299 
G01 X1.4684 Y0.8286 
G00 Z0.0200 
G00 X1.8434 Y0.8286 
G01 Z-0.0100 F10.00 
G01 X1.8434 Y0.8101 
G01 X1.5316 Y0.8101 
G01 X1.5316 Y0.8286 
G01 X1.5303 Y0.8299 
G01 X1.8447 Y0.8299 
G01 X1.8434 Y0.8286 
G00 Z0.0200 
G00 X2.2184 Y0.8286 
G01 Z-0.0100 F10.00 
G01 X2.2184 Y0.8101 
G01 X1.9066 Y0.8101 
G01 X1.9066 Y0.8286 
G01 X1.9053 Y0.8299 
G01 X2.2197 Y0.8299 
G01 X2.2184 Y0.8286 
G00 Z0.0200 
G00 X3.5478 Y0.6581 
G01 Z-0.0100 F10.00 
G01 X3.5499 Y0.6602 
G01 X3.5499 Y0.6398 
G01 X3.5478 Y0.6419 
G01 X3.4569 Y0.6419 
G01 X3.4540 Y0.6389 
G01 X3.4540 Y0.6341 
G01 X3.4230 Y0.6341 
G01 X3.4213 Y0.6382 
G01 X3.4142 Y0.6453 
G01 X3.4050 Y0.6491 
G01 X3.3950 Y0.6491 
G01 X3.3888 Y0.6465 
G01 X3.3962 Y0.6539 
G01 X3.4614 Y0.6539 
G01 X3.4628 Y0.6531 
G01 X3.4654 Y0.6539 
G01 X3.4682 Y0.6539 
G01 X3.4693 Y0.6550 
G01 X3.4800 Y0.6581 
G01 X3.5478 Y0.6581 
G00 Z0.0200 
G00 X3.0575 Y1.2608 
G01 Z-0.0100 F10.00 
G01 X3.0554 Y1.2629 
G01 X3.0560 Y1.2644 
G01 X3.0575 Y1.2608 
G00 Z0.0200 
G00 X0.3577 Y0.4566 
G01 Z-0.0100 F10.00 
G01 X0.3568 Y0.4575 
G01 X0.3589 Y0.4566 
G01 X0.3577 Y0.4566 
G00 Z0.0200 
G00 X0.4571 Y1.3550 
G01 Z-0.0100 F10.00 
G01 X0.4571 Y1.3650 
G01 X0.4545 Y1.3712 
G01 X0.4657 Y1.3600 
G01 X0.4545 Y1.3488 
G01 X0.4571 Y1.3550 
G00 Z0.0200 
G00 X3.0299 Y2.1897 
G01 Z-0.0100 F10.00 
G01 X3.0299 Y2.1882 
G01 X3.0289 Y2.1871 
G01 X3.0299 Y2.1897 
G00 Z0.0200 
G00 X3.1259 Y2.3002 
G01 Z-0.0100 F10.00 
G01 X3.1185 Y2.2928 
G01 X3.1211 Y2.2990 
G01 X3.1211 Y2.3090 
G01 X3.1185 Y2.3152 
G01 X3.1259 Y2.3078 
G01 X3.1259 Y2.3002 
G00 Z0.0200 
G00 X3.4759 Y2.6376 
G01 Z-0.0100 F10.00 
G01 X3.4759 Y2.6099 
G01 X3.4789 Y2.6069 
G01 X3.5179 Y2.6069 
G01 X3.5179 Y2.5931 
G01 X3.4789 Y2.5931 
G01 X3.4759 Y2.5901 
G01 X3.4759 Y2.5861 
G01 X3.4710 Y2.5861 
G01 X3.4693 Y2.5902 
G01 X3.4622 Y2.5973 
G01 X3.4530 Y2.6011 
G01 X3.4430 Y2.6011 
G01 X3.4368 Y2.5985 
G01 X3.4759 Y2.6376 
G00 Z0.0200 
G00 X2.5419 Y1.4998 
G01 Z-0.0100 F10.00 
G01 X2.5478 Y1.4939 
G01 X2.7878 Y1.4939 
G01 X2.7962 Y1.4939 
G01 X2.8202 Y1.5179 
G01 X2.8438 Y1.5179 
G01 X2.8512 Y1.5105 
G01 X2.8450 Y1.5131 
G01 X2.8350 Y1.5131 
G01 X2.8258 Y1.5093 
G01 X2.8187 Y1.5022 
G01 X2.8170 Y1.4981 
G01 X2.8122 Y1.4981 
G01 X2.8038 Y1.4981 
G01 X2.7238 Y1.4181 
G01 X0.8122 Y1.4181 
G01 X0.7845 Y1.4458 
G01 X0.7835 Y1.4479 
G01 X0.7816 Y1.4486 
G01 X0.7816 Y1.4487 
G01 X0.7816 Y1.4563 
G01 X0.7768 Y1.4679 
G01 X0.7679 Y1.4768 
G01 X0.7563 Y1.4816 
G01 X0.7437 Y1.4816 
G01 X0.7321 Y1.4768 
G01 X0.7232 Y1.4679 
G01 X0.7184 Y1.4563 
G01 X0.7184 Y1.4437 
G01 X0.7232 Y1.4321 
G01 X0.7321 Y1.4232 
G01 X0.7437 Y1.4184 
G01 X0.7563 Y1.4184 
G01 X0.7679 Y1.4232 
G01 X0.7732 Y1.4285 
G01 X0.8038 Y1.3979 
G01 X0.8122 Y1.3979 
G01 X2.7322 Y1.3979 
G01 X2.7381 Y1.4038 
G01 X2.8122 Y1.4779 
G01 X2.8170 Y1.4779 
G01 X2.8187 Y1.4738 
G01 X2.8258 Y1.4667 
G01 X2.8350 Y1.4629 
G01 X2.8450 Y1.4629 
G01 X2.8542 Y1.4667 
G01 X2.8613 Y1.4738 
G01 X2.8651 Y1.4830 
G01 X2.8651 Y1.4930 
G01 X2.8625 Y1.4992 
G01 X2.9116 Y1.4501 
G01 X2.9078 Y1.4501 
G01 X2.8438 Y1.3861 
G01 X2.8070 Y1.3861 
G01 X2.8053 Y1.3902 
G01 X2.7982 Y1.3973 
G01 X2.7890 Y1.4011 
G01 X2.7790 Y1.4011 
G01 X2.7698 Y1.3973 
G01 X2.7627 Y1.3902 
G01 X2.7589 Y1.3810 
G01 X2.7589 Y1.3710 
G01 X2.7593 Y1.3701 
G01 X0.7482 Y1.3701 
G01 X0.3381 Y1.7802 
G01 X0.3381 Y1.8842 
G01 X0.3322 Y1.8901 
G01 X0.2122 Y2.0101 
G01 X0.2051 Y2.0101 
G01 X0.2051 Y2.0571 
G01 X0.2021 Y2.0601 
G01 X0.1381 Y2.0601 
G01 X0.1381 Y2.0682 
G01 X0.1381 Y2.1482 
G01 X0.1322 Y2.1541 
G01 X0.1301 Y2.1562 
G01 X0.1301 Y2.2442 
G01 X0.1242 Y2.2501 
G01 X0.0981 Y2.2762 
G01 X0.0981 Y2.2933 
G01 X0.0988 Y2.2946 
G01 X0.0988 Y2.2948 
G01 X0.0999 Y2.2952 
G01 X0.1097 Y2.3051 
G01 X0.1151 Y2.3180 
G01 X0.1151 Y2.3320 
G01 X0.1097 Y2.3449 
G01 X0.0999 Y2.3547 
G01 X0.0870 Y2.3601 
G01 X0.0730 Y2.3601 
G01 X0.0601 Y2.3547 
G01 X0.0502 Y2.3449 
G01 X0.0449 Y2.3320 
G01 X0.0449 Y2.3180 
G01 X0.0502 Y2.3051 
G01 X0.0601 Y2.2952 
G01 X0.0730 Y2.2899 
G01 X0.0779 Y2.2899 
G01 X0.0779 Y2.2762 
G01 X0.0779 Y2.2678 
G01 X0.1099 Y2.2358 
G01 X0.1099 Y2.1562 
G01 X0.1099 Y2.1478 
G01 X0.1179 Y2.1398 
G01 X0.1179 Y2.0682 
G01 X0.1158 Y2.0661 
G01 X0.1099 Y2.0602 
G01 X0.1099 Y1.9962 
G01 X0.1099 Y1.9878 
G01 X0.1579 Y1.9398 
G01 X0.1638 Y1.9339 
G01 X0.2278 Y1.9339 
G01 X0.2939 Y1.8678 
G01 X0.2939 Y1.7558 
G01 X0.2998 Y1.7499 
G01 X0.3070 Y1.7427 
G01 X0.3053 Y1.7410 
G01 X0.3014 Y1.7318 
G01 X0.3014 Y1.7218 
G01 X0.3053 Y1.7126 
G01 X0.3123 Y1.7055 
G01 X0.3215 Y1.7017 
G01 X0.3315 Y1.7017 
G01 X0.3408 Y1.7055 
G01 X0.3478 Y1.7126 
G01 X0.3516 Y1.7218 
G01 X0.3516 Y1.7318 
G01 X0.3478 Y1.7410 
G01 X0.3408 Y1.7481 
G01 X0.3315 Y1.7519 
G01 X0.3271 Y1.7519 
G01 X0.3258 Y1.7524 
G01 X0.3141 Y1.7642 
G01 X0.3141 Y1.8762 
G01 X0.3082 Y1.8821 
G01 X0.3082 Y1.8821 
G01 X0.2362 Y1.9541 
G01 X0.2278 Y1.9541 
G01 X0.1722 Y1.9541 
G01 X0.1301 Y1.9962 
G01 X0.1301 Y2.0518 
G01 X0.1349 Y2.0566 
G01 X0.1349 Y1.9929 
G01 X0.1379 Y1.9899 
G01 X0.1917 Y1.9899 
G01 X0.1955 Y1.9897 
G01 X0.1958 Y1.9899 
G01 X0.2021 Y1.9899 
G01 X0.2038 Y1.9899 
G01 X0.3179 Y1.8758 
G01 X0.3179 Y1.7802 
G01 X0.3179 Y1.7718 
G01 X0.7339 Y1.3558 
G01 X0.7398 Y1.3499 
G01 X2.7736 Y1.3499 
G01 X2.7752 Y1.3491 
G01 X2.7776 Y1.3499 
G01 X2.7802 Y1.3499 
G01 X2.7812 Y1.3509 
G01 X2.7890 Y1.3509 
G01 X2.7982 Y1.3547 
G01 X2.8053 Y1.3618 
G01 X2.8070 Y1.3659 
G01 X2.8522 Y1.3659 
G01 X2.8581 Y1.3718 
G01 X2.9162 Y1.4299 
G01 X2.9318 Y1.4299 
G01 X2.9402 Y1.4299 
G01 X2.9740 Y1.4299 
G01 X2.9760 Y1.4291 
G01 X2.9762 Y1.4291 
G01 X2.9821 Y1.4232 
G01 X2.9937 Y1.4184 
G01 X3.0063 Y1.4184 
G01 X3.0179 Y1.4232 
G01 X3.0268 Y1.4321 
G01 X3.0316 Y1.4437 
G01 X3.0316 Y1.4563 
G01 X3.0268 Y1.4679 
G01 X3.0179 Y1.4768 
G01 X3.0063 Y1.4816 
G01 X2.9937 Y1.4816 
G01 X2.9821 Y1.4768 
G01 X2.9732 Y1.4679 
G01 X2.9684 Y1.4563 
G01 X2.9684 Y1.4501 
G01 X2.9402 Y1.4501 
G01 X2.8522 Y1.5381 
G01 X2.8438 Y1.5381 
G01 X2.8118 Y1.5381 
G01 X2.8059 Y1.5322 
G01 X2.7878 Y1.5141 
G01 X2.5562 Y1.5141 
G01 X2.4730 Y1.5973 
G01 X2.4705 Y1.6032 
G01 X2.5078 Y1.5659 
G01 X2.5162 Y1.5659 
G01 X2.5934 Y1.5659 
G01 X2.5934 Y1.5214 
G01 X2.5964 Y1.5184 
G01 X2.6536 Y1.5184 
G01 X2.6566 Y1.5214 
G01 X2.6566 Y1.5419 
G01 X2.9684 Y1.5419 
G01 X2.9684 Y1.5214 
G01 X2.9714 Y1.5184 
G01 X3.0193 Y1.5184 
G01 X3.0278 Y1.5099 
G01 X3.0362 Y1.5099 
G01 X3.0937 Y1.5099 
G01 X3.0937 Y1.4743 
G01 X3.0967 Y1.4713 
G01 X3.1324 Y1.4713 
G01 X3.1354 Y1.4743 
G01 X3.1354 Y1.5257 
G01 X3.1324 Y1.5287 
G01 X3.1100 Y1.5287 
G01 X3.1094 Y1.5289 
G01 X3.1082 Y1.5301 
G01 X3.1055 Y1.5301 
G01 X3.1030 Y1.5309 
G01 X3.1015 Y1.5301 
G01 X3.0362 Y1.5301 
G01 X3.0339 Y1.5324 
G01 X3.0339 Y1.5326 
G01 X3.0316 Y1.5347 
G01 X3.0316 Y1.5786 
G01 X3.0286 Y1.5816 
G01 X2.9714 Y1.5816 
G01 X2.9684 Y1.5786 
G01 X2.9684 Y1.5621 
G01 X2.6566 Y1.5621 
G01 X2.6566 Y1.5786 
G01 X2.6536 Y1.5816 
G01 X2.6087 Y1.5816 
G01 X2.6072 Y1.5830 
G01 X2.6044 Y1.5860 
G01 X2.6043 Y1.5860 
G01 X2.6042 Y1.5861 
G01 X2.6001 Y1.5861 
G01 X2.5960 Y1.5862 
G01 X2.5959 Y1.5861 
G01 X2.5162 Y1.5861 
G01 X2.4661 Y1.6362 
G01 X2.4602 Y1.6421 
G01 X2.3322 Y1.6421 
G01 X2.3238 Y1.6421 
G01 X2.2675 Y1.5857 
G01 X2.2670 Y1.5857 
G01 X2.2646 Y1.5828 
G01 X2.2633 Y1.5816 
G01 X2.2214 Y1.5816 
G01 X2.2184 Y1.5786 
G01 X2.2184 Y1.5621 
G01 X1.9066 Y1.5621 
G01 X1.9066 Y1.5786 
G01 X1.9036 Y1.5816 
G01 X1.8464 Y1.5816 
G01 X1.8434 Y1.5786 
G01 X1.8434 Y1.5621 
G01 X1.5316 Y1.5621 
G01 X1.5316 Y1.5786 
G01 X1.5286 Y1.5816 
G01 X1.4714 Y1.5816 
G01 X1.4684 Y1.5786 
G01 X1.4684 Y1.5621 
G01 X1.1566 Y1.5621 
G01 X1.1566 Y1.5786 
G01 X1.1536 Y1.5816 
G01 X1.0964 Y1.5816 
G01 X1.0934 Y1.5786 
G01 X1.0934 Y1.5621 
G01 X0.7816 Y1.5621 
G01 X0.7816 Y1.5786 
G01 X0.7786 Y1.5816 
G01 X0.7214 Y1.5816 
G01 X0.7184 Y1.5786 
G01 X0.7184 Y1.5214 
G01 X0.7214 Y1.5184 
G01 X0.7786 Y1.5184 
G01 X0.7816 Y1.5214 
G01 X0.7816 Y1.5419 
G01 X1.0934 Y1.5419 
G01 X1.0934 Y1.5214 
G01 X1.0964 Y1.5184 
G01 X1.1536 Y1.5184 
G01 X1.1566 Y1.5214 
G01 X1.1566 Y1.5419 
G01 X1.4684 Y1.5419 
G01 X1.4684 Y1.5214 
G01 X1.4714 Y1.5184 
G01 X1.5286 Y1.5184 
G01 X1.5316 Y1.5214 
G01 X1.5316 Y1.5419 
G01 X1.8434 Y1.5419 
G01 X1.8434 Y1.5214 
G01 X1.8464 Y1.5184 
G01 X1.9036 Y1.5184 
G01 X1.9066 Y1.5214 
G01 X1.9066 Y1.5419 
G01 X2.2184 Y1.5419 
G01 X2.2184 Y1.5214 
G01 X2.2214 Y1.5184 
G01 X2.2786 Y1.5184 
G01 X2.2816 Y1.5214 
G01 X2.2816 Y1.5713 
G01 X2.3322 Y1.6219 
G01 X2.4518 Y1.6219 
G01 X2.4592 Y1.6145 
G01 X2.4530 Y1.6171 
G01 X2.4430 Y1.6171 
G01 X2.4338 Y1.6133 
G01 X2.4267 Y1.6062 
G01 X2.4229 Y1.5970 
G01 X2.4229 Y1.5870 
G01 X2.4267 Y1.5778 
G01 X2.4338 Y1.5707 
G01 X2.4430 Y1.5669 
G01 X2.4530 Y1.5669 
G01 X2.4622 Y1.5707 
G01 X2.4666 Y1.5751 
G01 X2.5419 Y1.4998 
G00 Z0.0200 
G00 X3.1061 Y2.8358 
G01 Z-0.0100 F10.00 
G01 X3.1061 Y2.8442 
G01 X3.0225 Y2.9278 
G01 X3.0268 Y2.9321 
G01 X3.0316 Y2.9437 
G01 X3.0316 Y2.9563 
G01 X3.0268 Y2.9679 
G01 X3.0179 Y2.9768 
G01 X3.0063 Y2.9816 
G01 X2.9937 Y2.9816 
G01 X2.9821 Y2.9768 
G01 X2.9732 Y2.9679 
G01 X2.9684 Y2.9563 
G01 X2.9684 Y2.9437 
G01 X2.9732 Y2.9321 
G01 X2.9821 Y2.9232 
G01 X2.9937 Y2.9184 
G01 X3.0033 Y2.9184 
G01 X3.0859 Y2.8358 
G01 X3.0859 Y2.7110 
G01 X3.0818 Y2.7093 
G01 X3.0747 Y2.7022 
G01 X3.0709 Y2.6930 
G01 X3.0709 Y2.6830 
G01 X3.0747 Y2.6738 
G01 X3.0818 Y2.6667 
G01 X3.0910 Y2.6629 
G01 X3.1010 Y2.6629 
G01 X3.1102 Y2.6667 
G01 X3.1173 Y2.6738 
G01 X3.1211 Y2.6830 
G01 X3.1211 Y2.6930 
G01 X3.1173 Y2.7022 
G01 X3.1102 Y2.7093 
G01 X3.1061 Y2.7110 
G01 X3.1061 Y2.8358 
G00 Z0.0200 
G00 X3.3882 Y1.8581 
G01 Z-0.0100 F10.00 
G01 X3.3798 Y1.8581 
G01 X3.3131 Y1.7914 
G01 X3.3090 Y1.7931 
G01 X3.2990 Y1.7931 
G01 X3.2898 Y1.7893 
G01 X3.2827 Y1.7822 
G01 X3.2789 Y1.7730 
G01 X3.2789 Y1.7630 
G01 X3.2827 Y1.7538 
G01 X3.2898 Y1.7467 
G01 X3.2990 Y1.7429 
G01 X3.3090 Y1.7429 
G01 X3.3182 Y1.7467 
G01 X3.3253 Y1.7538 
G01 X3.3291 Y1.7630 
G01 X3.3291 Y1.7730 
G01 X3.3274 Y1.7771 
G01 X3.3882 Y1.8379 
G01 X3.4010 Y1.8379 
G01 X3.4027 Y1.8338 
G01 X3.4098 Y1.8267 
G01 X3.4190 Y1.8229 
G01 X3.4290 Y1.8229 
G01 X3.4382 Y1.8267 
G01 X3.4453 Y1.8338 
G01 X3.4491 Y1.8430 
G01 X3.4491 Y1.8530 
G01 X3.4453 Y1.8622 
G01 X3.4382 Y1.8693 
G01 X3.4290 Y1.8731 
G01 X3.4190 Y1.8731 
G01 X3.4098 Y1.8693 
G01 X3.4027 Y1.8622 
G01 X3.4010 Y1.8581 
G01 X3.3882 Y1.8581 
G00 Z0.0200 
G00 X2.6501 Y0.7482 
G01 Z-0.0100 F10.00 
G01 X2.6501 Y0.7482 
G01 X2.6442 Y0.7541 
G01 X0.4842 Y0.7541 
G01 X0.4758 Y0.7541 
G01 X0.3851 Y0.6634 
G01 X0.3810 Y0.6651 
G01 X0.3710 Y0.6651 
G01 X0.3618 Y0.6613 
G01 X0.3547 Y0.6542 
G01 X0.3509 Y0.6450 
G01 X0.3509 Y0.6350 
G01 X0.3547 Y0.6258 
G01 X0.3618 Y0.6187 
G01 X0.3710 Y0.6149 
G01 X0.3810 Y0.6149 
G01 X0.3902 Y0.6187 
G01 X0.3973 Y0.6258 
G01 X0.4011 Y0.6350 
G01 X0.4011 Y0.6450 
G01 X0.3994 Y0.6491 
G01 X0.4842 Y0.7339 
G01 X2.6358 Y0.7339 
G01 X2.7286 Y0.6411 
G01 X2.7269 Y0.6370 
G01 X2.7269 Y0.6270 
G01 X2.7307 Y0.6178 
G01 X2.7378 Y0.6107 
G01 X2.7470 Y0.6069 
G01 X2.7570 Y0.6069 
G01 X2.7662 Y0.6107 
G01 X2.7733 Y0.6178 
G01 X2.7771 Y0.6270 
G01 X2.7771 Y0.6370 
G01 X2.7733 Y0.6462 
G01 X2.7662 Y0.6533 
G01 X2.7570 Y0.6571 
G01 X2.7470 Y0.6571 
G01 X2.7429 Y0.6554 
G01 X2.6501 Y0.7482 
G00 Z0.0200 
G00 X2.4282 Y0.9061 
G01 Z-0.0100 F10.00 
G01 X2.3781 Y0.9562 
G01 X2.3722 Y0.9621 
G01 X2.2150 Y0.9621 
G01 X2.2133 Y0.9662 
G01 X2.2062 Y0.9733 
G01 X2.1970 Y0.9771 
G01 X2.1870 Y0.9771 
G01 X2.1778 Y0.9733 
G01 X2.1707 Y0.9662 
G01 X2.1669 Y0.9570 
G01 X2.1669 Y0.9470 
G01 X2.1707 Y0.9378 
G01 X2.1778 Y0.9307 
G01 X2.1870 Y0.9269 
G01 X2.1970 Y0.9269 
G01 X2.2062 Y0.9307 
G01 X2.2133 Y0.9378 
G01 X2.2150 Y0.9419 
G01 X2.3638 Y0.9419 
G01 X2.4198 Y0.8859 
G01 X2.4282 Y0.8859 
G01 X3.0890 Y0.8859 
G01 X3.0907 Y0.8818 
G01 X3.0978 Y0.8747 
G01 X3.1070 Y0.8709 
G01 X3.1170 Y0.8709 
G01 X3.1262 Y0.8747 
G01 X3.1333 Y0.8818 
G01 X3.1371 Y0.8910 
G01 X3.1371 Y0.9010 
G01 X3.1333 Y0.9102 
G01 X3.1262 Y0.9173 
G01 X3.1170 Y0.9211 
G01 X3.1070 Y0.9211 
G01 X3.0978 Y0.9173 
G01 X3.0907 Y0.9102 
G01 X3.0890 Y0.9061 
G01 X2.4282 Y0.9061 
G00 Z0.0200 
G00 X0.2922 Y0.9621 
G01 Z-0.0100 F10.00 
G01 X0.1140 Y1.1403 
G01 X0.1151 Y1.1430 
G01 X0.1151 Y1.1570 
G01 X0.1097 Y1.1699 
G01 X0.0999 Y1.1797 
G01 X0.0870 Y1.1851 
G01 X0.0730 Y1.1851 
G01 X0.0601 Y1.1797 
G01 X0.0502 Y1.1699 
G01 X0.0449 Y1.1570 
G01 X0.0449 Y1.1430 
G01 X0.0502 Y1.1301 
G01 X0.0601 Y1.1202 
G01 X0.0730 Y1.1149 
G01 X0.0870 Y1.1149 
G01 X0.0999 Y1.1202 
G01 X0.1027 Y1.1230 
G01 X0.2838 Y0.9419 
G01 X0.2922 Y0.9419 
G01 X1.9050 Y0.9419 
G01 X1.9067 Y0.9378 
G01 X1.9138 Y0.9307 
G01 X1.9230 Y0.9269 
G01 X1.9330 Y0.9269 
G01 X1.9422 Y0.9307 
G01 X1.9493 Y0.9378 
G01 X1.9531 Y0.9470 
G01 X1.9531 Y0.9570 
G01 X1.9493 Y0.9662 
G01 X1.9422 Y0.9733 
G01 X1.9330 Y0.9771 
G01 X1.9230 Y0.9771 
G01 X1.9138 Y0.9733 
G01 X1.9067 Y0.9662 
G01 X1.9050 Y0.9621 
G01 X0.2922 Y0.9621 
G00 Z0.0200 
G00 X2.7562 Y2.6501 
G01 Z-0.0100 F10.00 
G01 X2.7478 Y2.6501 
G01 X2.5078 Y2.4101 
G01 X2.1670 Y2.4101 
G01 X2.1653 Y2.4142 
G01 X2.1582 Y2.4213 
G01 X2.1490 Y2.4251 
G01 X2.1390 Y2.4251 
G01 X2.1298 Y2.4213 
G01 X2.1227 Y2.4142 
G01 X2.1189 Y2.4050 
G01 X2.1189 Y2.3950 
G01 X2.1227 Y2.3858 
G01 X2.1298 Y2.3787 
G01 X2.1390 Y2.3749 
G01 X2.1490 Y2.3749 
G01 X2.1582 Y2.3787 
G01 X2.1653 Y2.3858 
G01 X2.1670 Y2.3899 
G01 X2.5162 Y2.3899 
G01 X2.5221 Y2.3958 
G01 X2.7562 Y2.6299 
G01 X2.8090 Y2.6299 
G01 X2.8107 Y2.6258 
G01 X2.8178 Y2.6187 
G01 X2.8270 Y2.6149 
G01 X2.8370 Y2.6149 
G01 X2.8462 Y2.6187 
G01 X2.8533 Y2.6258 
G01 X2.8571 Y2.6350 
G01 X2.8571 Y2.6450 
G01 X2.8533 Y2.6542 
G01 X2.8462 Y2.6613 
G01 X2.8370 Y2.6651 
G01 X2.8270 Y2.6651 
G01 X2.8178 Y2.6613 
G01 X2.8107 Y2.6542 
G01 X2.8090 Y2.6501 
G01 X2.7562 Y2.6501 
G00 Z0.0200 
G00 X3.2970 Y2.8859 
G01 Z-0.0100 F10.00 
G01 X3.2987 Y2.8818 
G01 X3.3058 Y2.8747 
G01 X3.3150 Y2.8709 
G01 X3.3250 Y2.8709 
G01 X3.3342 Y2.8747 
G01 X3.3413 Y2.8818 
G01 X3.3451 Y2.8910 
G01 X3.3451 Y2.9010 
G01 X3.3425 Y2.9072 
G01 X3.3499 Y2.8998 
G01 X3.3499 Y2.6842 
G01 X3.3088 Y2.6431 
G01 X3.2369 Y2.6431 
G01 X3.2339 Y2.6401 
G01 X3.2339 Y2.6099 
G01 X3.2369 Y2.6069 
G01 X3.3211 Y2.6069 
G01 X3.3241 Y2.6099 
G01 X3.3241 Y2.6298 
G01 X3.3701 Y2.6758 
G01 X3.3701 Y2.6842 
G01 X3.3701 Y2.9082 
G01 X3.3642 Y2.9141 
G01 X3.2282 Y3.0501 
G01 X3.2198 Y3.0501 
G01 X3.1558 Y3.0501 
G01 X3.1499 Y3.0442 
G01 X3.1419 Y3.0362 
G01 X3.1419 Y3.0278 
G01 X3.1419 Y2.9802 
G01 X3.1158 Y2.9541 
G01 X3.0870 Y2.9541 
G01 X3.0853 Y2.9582 
G01 X3.0782 Y2.9653 
G01 X3.0690 Y2.9691 
G01 X3.0590 Y2.9691 
G01 X3.0498 Y2.9653 
G01 X3.0427 Y2.9582 
G01 X3.0389 Y2.9490 
G01 X3.0389 Y2.9390 
G01 X3.0427 Y2.9298 
G01 X3.0498 Y2.9227 
G01 X3.0590 Y2.9189 
G01 X3.0690 Y2.9189 
G01 X3.0782 Y2.9227 
G01 X3.0853 Y2.9298 
G01 X3.0870 Y2.9339 
G01 X3.1158 Y2.9339 
G01 X3.1242 Y2.9339 
G01 X3.1562 Y2.9659 
G01 X3.1621 Y2.9718 
G01 X3.1621 Y3.0278 
G01 X3.1642 Y3.0299 
G01 X3.2198 Y3.0299 
G01 X3.3312 Y2.9185 
G01 X3.3250 Y2.9211 
G01 X3.3150 Y2.9211 
G01 X3.3058 Y2.9173 
G01 X3.2987 Y2.9102 
G01 X3.2970 Y2.9061 
G01 X3.2150 Y2.9061 
G01 X3.2133 Y2.9102 
G01 X3.2062 Y2.9173 
G01 X3.1970 Y2.9211 
G01 X3.1870 Y2.9211 
G01 X3.1778 Y2.9173 
G01 X3.1707 Y2.9102 
G01 X3.1669 Y2.9010 
G01 X3.1669 Y2.8910 
G01 X3.1707 Y2.8818 
G01 X3.1778 Y2.8747 
G01 X3.1870 Y2.8709 
G01 X3.1970 Y2.8709 
G01 X3.2062 Y2.8747 
G01 X3.2133 Y2.8818 
G01 X3.2150 Y2.8859 
G01 X3.2970 Y2.8859 
G00 Z0.0200 
G00 X2.8059 Y2.1990 
G01 Z-0.0100 F10.00 
G01 X2.8018 Y2.1973 
G01 X2.7947 Y2.1902 
G01 X2.7909 Y2.1810 
G01 X2.7909 Y2.1710 
G01 X2.7947 Y2.1618 
G01 X2.8018 Y2.1547 
G01 X2.8110 Y2.1509 
G01 X2.8210 Y2.1509 
G01 X2.8302 Y2.1547 
G01 X2.8373 Y2.1618 
G01 X2.8411 Y2.1710 
G01 X2.8411 Y2.1810 
G01 X2.8373 Y2.1902 
G01 X2.8302 Y2.1973 
G01 X2.8261 Y2.1990 
G01 X2.8261 Y2.2410 
G01 X2.8302 Y2.2427 
G01 X2.8373 Y2.2498 
G01 X2.8411 Y2.2590 
G01 X2.8411 Y2.2690 
G01 X2.8373 Y2.2782 
G01 X2.8302 Y2.2853 
G01 X2.8210 Y2.2891 
G01 X2.8110 Y2.2891 
G01 X2.8018 Y2.2853 
G01 X2.7947 Y2.2782 
G01 X2.7909 Y2.2690 
G01 X2.7909 Y2.2590 
G01 X2.7947 Y2.2498 
G01 X2.8018 Y2.2427 
G01 X2.8059 Y2.2410 
G01 X2.8059 Y2.1990 
G00 Z0.0200 
G00 X0.5750 Y1.2501 
G01 Z-0.0100 F10.00 
G01 X0.5733 Y1.2542 
G01 X0.5662 Y1.2613 
G01 X0.5570 Y1.2651 
G01 X0.5470 Y1.2651 
G01 X0.5378 Y1.2613 
G01 X0.5307 Y1.2542 
G01 X0.5269 Y1.2450 
G01 X0.5269 Y1.2350 
G01 X0.5307 Y1.2258 
G01 X0.5378 Y1.2187 
G01 X0.5470 Y1.2149 
G01 X0.5570 Y1.2149 
G01 X0.5662 Y1.2187 
G01 X0.5733 Y1.2258 
G01 X0.5750 Y1.2299 
G01 X2.4970 Y1.2299 
G01 X2.4987 Y1.2258 
G01 X2.5058 Y1.2187 
G01 X2.5150 Y1.2149 
G01 X2.5250 Y1.2149 
G01 X2.5342 Y1.2187 
G01 X2.5413 Y1.2258 
G01 X2.5451 Y1.2350 
G01 X2.5451 Y1.2450 
G01 X2.5413 Y1.2542 
G01 X2.5342 Y1.2613 
G01 X2.5250 Y1.2651 
G01 X2.5150 Y1.2651 
G01 X2.5058 Y1.2613 
G01 X2.4987 Y1.2542 
G01 X2.4970 Y1.2501 
G01 X0.5750 Y1.2501 
G00 Z0.0200 
G00 X0.7816 Y2.9437 
G01 Z-0.0100 F10.00 
G01 X0.7816 Y2.9563 
G01 X0.7768 Y2.9679 
G01 X0.7679 Y2.9768 
G01 X0.7563 Y2.9816 
G01 X0.7437 Y2.9816 
G01 X0.7321 Y2.9768 
G01 X0.7232 Y2.9679 
G01 X0.7184 Y2.9563 
G01 X0.7184 Y2.9437 
G01 X0.7232 Y2.9321 
G01 X0.7321 Y2.9232 
G01 X0.7437 Y2.9184 
G01 X0.7563 Y2.9184 
G01 X0.7679 Y2.9232 
G01 X0.7768 Y2.9321 
G01 X0.7816 Y2.9437 
G00 Z0.0200 
G00 X1.1566 Y2.9437 
G01 Z-0.0100 F10.00 
G01 X1.1566 Y2.9563 
G01 X1.1518 Y2.9679 
G01 X1.1429 Y2.9768 
G01 X1.1313 Y2.9816 
G01 X1.1187 Y2.9816 
G01 X1.1071 Y2.9768 
G01 X1.0982 Y2.9679 
G01 X1.0934 Y2.9563 
G01 X1.0934 Y2.9437 
G01 X1.0982 Y2.9321 
G01 X1.1071 Y2.9232 
G01 X1.1187 Y2.9184 
G01 X1.1313 Y2.9184 
G01 X1.1429 Y2.9232 
G01 X1.1518 Y2.9321 
G01 X1.1566 Y2.9437 
G00 Z0.0200 
G00 X1.5316 Y2.9437 
G01 Z-0.0100 F10.00 
G01 X1.5316 Y2.9563 
G01 X1.5268 Y2.9679 
G01 X1.5179 Y2.9768 
G01 X1.5063 Y2.9816 
G01 X1.4937 Y2.9816 
G01 X1.4821 Y2.9768 
G01 X1.4732 Y2.9679 
G01 X1.4684 Y2.9563 
G01 X1.4684 Y2.9437 
G01 X1.4732 Y2.9321 
G01 X1.4821 Y2.9232 
G01 X1.4937 Y2.9184 
G01 X1.5063 Y2.9184 
G01 X1.5179 Y2.9232 
G01 X1.5268 Y2.9321 
G01 X1.5316 Y2.9437 
G00 Z0.0200 
G00 X1.9066 Y2.9437 
G01 Z-0.0100 F10.00 
G01 X1.9066 Y2.9563 
G01 X1.9018 Y2.9679 
G01 X1.8929 Y2.9768 
G01 X1.8813 Y2.9816 
G01 X1.8687 Y2.9816 
G01 X1.8571 Y2.9768 
G01 X1.8482 Y2.9679 
G01 X1.8434 Y2.9563 
G01 X1.8434 Y2.9437 
G01 X1.8482 Y2.9321 
G01 X1.8571 Y2.9232 
G01 X1.8687 Y2.9184 
G01 X1.8813 Y2.9184 
G01 X1.8929 Y2.9232 
G01 X1.9018 Y2.9321 
G01 X1.9066 Y2.9437 
G00 Z0.0200 
G00 X2.6566 Y2.9437 
G01 Z-0.0100 F10.00 
G01 X2.6566 Y2.9563 
G01 X2.6518 Y2.9679 
G01 X2.6429 Y2.9768 
G01 X2.6313 Y2.9816 
G01 X2.6187 Y2.9816 
G01 X2.6071 Y2.9768 
G01 X2.5982 Y2.9679 
G01 X2.5934 Y2.9563 
G01 X2.5934 Y2.9437 
G01 X2.5982 Y2.9321 
G01 X2.6071 Y2.9232 
G01 X2.6187 Y2.9184 
G01 X2.6313 Y2.9184 
G01 X2.6429 Y2.9232 
G01 X2.6518 Y2.9321 
G01 X2.6566 Y2.9437 
G00 Z0.0200 
G00 X0.7816 Y2.5687 
G01 Z-0.0100 F10.00 
G01 X0.7816 Y2.5813 
G01 X0.7768 Y2.5929 
G01 X0.7679 Y2.6018 
G01 X0.7563 Y2.6066 
G01 X0.7437 Y2.6066 
G01 X0.7321 Y2.6018 
G01 X0.7232 Y2.5929 
G01 X0.7184 Y2.5813 
G01 X0.7184 Y2.5687 
G01 X0.7232 Y2.5571 
G01 X0.7321 Y2.5482 
G01 X0.7437 Y2.5434 
G01 X0.7563 Y2.5434 
G01 X0.7679 Y2.5482 
G01 X0.7768 Y2.5571 
G01 X0.7816 Y2.5687 
G00 Z0.0200 
G00 X1.5316 Y2.5687 
G01 Z-0.0100 F10.00 
G01 X1.5316 Y2.5813 
G01 X1.5268 Y2.5929 
G01 X1.5179 Y2.6018 
G01 X1.5063 Y2.6066 
G01 X1.4937 Y2.6066 
G01 X1.4821 Y2.6018 
G01 X1.4732 Y2.5929 
G01 X1.4684 Y2.5813 
G01 X1.4684 Y2.5687 
G01 X1.4732 Y2.5571 
G01 X1.4821 Y2.5482 
G01 X1.4937 Y2.5434 
G01 X1.5063 Y2.5434 
G01 X1.5179 Y2.5482 
G01 X1.5268 Y2.5571 
G01 X1.5316 Y2.5687 
G00 Z0.0200 
G00 X2.2816 Y2.5687 
G01 Z-0.0100 F10.00 
G01 X2.2816 Y2.5813 
G01 X2.2768 Y2.5929 
G01 X2.2679 Y2.6018 
G01 X2.2563 Y2.6066 
G01 X2.2437 Y2.6066 
G01 X2.2321 Y2.6018 
G01 X2.2232 Y2.5929 
G01 X2.2184 Y2.5813 
G01 X2.2184 Y2.5687 
G01 X2.2232 Y2.5571 
G01 X2.2321 Y2.5482 
G01 X2.2437 Y2.5434 
G01 X2.2563 Y2.5434 
G01 X2.2679 Y2.5482 
G01 X2.2768 Y2.5571 
G01 X2.2816 Y2.5687 
G00 Z0.0200 
G00 X2.6566 Y2.5687 
G01 Z-0.0100 F10.00 
G01 X2.6566 Y2.5813 
G01 X2.6518 Y2.5929 
G01 X2.6429 Y2.6018 
G01 X2.6313 Y2.6066 
G01 X2.6187 Y2.6066 
G01 X2.6071 Y2.6018 
G01 X2.5982 Y2.5929 
G01 X2.5934 Y2.5813 
G01 X2.5934 Y2.5687 
G01 X2.5982 Y2.5571 
G01 X2.6071 Y2.5482 
G01 X2.6187 Y2.5434 
G01 X2.6313 Y2.5434 
G01 X2.6429 Y2.5482 
G01 X2.6518 Y2.5571 
G01 X2.6566 Y2.5687 
G00 Z0.0200 
G00 X3.0316 Y2.5687 
G01 Z-0.0100 F10.00 
G01 X3.0316 Y2.5813 
G01 X3.0268 Y2.5929 
G01 X3.0179 Y2.6018 
G01 X3.0063 Y2.6066 
G01 X2.9937 Y2.6066 
G01 X2.9821 Y2.6018 
G01 X2.9732 Y2.5929 
G01 X2.9684 Y2.5813 
G01 X2.9684 Y2.5687 
G01 X2.9732 Y2.5571 
G01 X2.9821 Y2.5482 
G01 X2.9923 Y2.5440 
G01 X2.9858 Y2.5413 
G01 X2.9787 Y2.5342 
G01 X2.9749 Y2.5250 
G01 X2.9749 Y2.5150 
G01 X2.9766 Y2.5109 
G01 X2.9291 Y2.4634 
G01 X2.9250 Y2.4651 
G01 X2.9150 Y2.4651 
G01 X2.9058 Y2.4613 
G01 X2.8987 Y2.4542 
G01 X2.8949 Y2.4450 
G01 X2.8949 Y2.4350 
G01 X2.8987 Y2.4258 
G01 X2.9058 Y2.4187 
G01 X2.9150 Y2.4149 
G01 X2.9250 Y2.4149 
G01 X2.9342 Y2.4187 
G01 X2.9413 Y2.4258 
G01 X2.9451 Y2.4350 
G01 X2.9451 Y2.4450 
G01 X2.9434 Y2.4491 
G01 X2.9909 Y2.4966 
G01 X2.9950 Y2.4949 
G01 X3.0050 Y2.4949 
G01 X3.0142 Y2.4987 
G01 X3.0213 Y2.5058 
G01 X3.0251 Y2.5150 
G01 X3.0251 Y2.5250 
G01 X3.0213 Y2.5342 
G01 X3.0142 Y2.5413 
G01 X3.0077 Y2.5440 
G01 X3.0179 Y2.5482 
G01 X3.0268 Y2.5571 
G01 X3.0316 Y2.5687 
G00 Z0.0200 
G00 X2.2816 Y2.1937 
G01 Z-0.0100 F10.00 
G01 X2.2816 Y2.2063 
G01 X2.2768 Y2.2179 
G01 X2.2679 Y2.2268 
G01 X2.2563 Y2.2316 
G01 X2.2437 Y2.2316 
G01 X2.2321 Y2.2268 
G01 X2.2232 Y2.2179 
G01 X2.2184 Y2.2063 
G01 X2.2184 Y2.2008 
G01 X2.2170 Y2.2004 
G01 X2.2158 Y2.1981 
G01 X2.1878 Y2.1701 
G01 X1.8853 Y2.1701 
G01 X1.8929 Y2.1732 
G01 X1.9018 Y2.1821 
G01 X1.9066 Y2.1937 
G01 X1.9066 Y2.2063 
G01 X1.9018 Y2.2179 
G01 X1.8929 Y2.2268 
G01 X1.8813 Y2.2316 
G01 X1.8687 Y2.2316 
G01 X1.8571 Y2.2268 
G01 X1.8482 Y2.2179 
G01 X1.8434 Y2.2063 
G01 X1.8434 Y2.1937 
G01 X1.8482 Y2.1821 
G01 X1.8571 Y2.1732 
G01 X1.8647 Y2.1701 
G01 X1.5103 Y2.1701 
G01 X1.5179 Y2.1732 
G01 X1.5268 Y2.1821 
G01 X1.5316 Y2.1937 
G01 X1.5316 Y2.2063 
G01 X1.5268 Y2.2179 
G01 X1.5179 Y2.2268 
G01 X1.5063 Y2.2316 
G01 X1.4937 Y2.2316 
G01 X1.4831 Y2.2272 
G01 X1.4602 Y2.2501 
G01 X1.4518 Y2.2501 
G01 X0.3642 Y2.2501 
G01 X0.2025 Y2.4118 
G01 X0.2051 Y2.4180 
G01 X0.2051 Y2.4320 
G01 X0.1997 Y2.4449 
G01 X0.1899 Y2.4547 
G01 X0.1770 Y2.4601 
G01 X0.1630 Y2.4601 
G01 X0.1501 Y2.4547 
G01 X0.1402 Y2.4449 
G01 X0.1349 Y2.4320 
G01 X0.1349 Y2.4180 
G01 X0.1402 Y2.4051 
G01 X0.1501 Y2.3952 
G01 X0.1630 Y2.3899 
G01 X0.1770 Y2.3899 
G01 X0.1899 Y2.3952 
G01 X0.1902 Y2.3955 
G01 X0.3499 Y2.2358 
G01 X0.3558 Y2.2299 
G01 X0.3646 Y2.2299 
G01 X0.3571 Y2.2268 
G01 X0.3482 Y2.2179 
G01 X0.3434 Y2.2063 
G01 X0.3434 Y2.1937 
G01 X0.3482 Y2.1821 
G01 X0.3571 Y2.1732 
G01 X0.3647 Y2.1701 
G01 X0.3562 Y2.1701 
G01 X0.3274 Y2.1989 
G01 X0.3291 Y2.2030 
G01 X0.3291 Y2.2130 
G01 X0.3253 Y2.2222 
G01 X0.3182 Y2.2293 
G01 X0.3090 Y2.2331 
G01 X0.2990 Y2.2331 
G01 X0.2898 Y2.2293 
G01 X0.2827 Y2.2222 
G01 X0.2789 Y2.2130 
G01 X0.2789 Y2.2030 
G01 X0.2827 Y2.1938 
G01 X0.2898 Y2.1867 
G01 X0.2990 Y2.1829 
G01 X0.3090 Y2.1829 
G01 X0.3131 Y2.1846 
G01 X0.3419 Y2.1558 
G01 X0.3478 Y2.1499 
G01 X2.1878 Y2.1499 
G01 X2.1962 Y2.1499 
G01 X2.2258 Y2.1795 
G01 X2.2321 Y2.1732 
G01 X2.2437 Y2.1684 
G01 X2.2563 Y2.1684 
G01 X2.2679 Y2.1732 
G01 X2.2768 Y2.1821 
G01 X2.2816 Y2.1937 
G00 Z0.0200 
G00 X0.4066 Y1.8187 
G01 Z-0.0100 F10.00 
G01 X0.4066 Y1.8313 
G01 X0.4018 Y1.8429 
G01 X0.3929 Y1.8518 
G01 X0.3813 Y1.8566 
G01 X0.3687 Y1.8566 
G01 X0.3571 Y1.8518 
G01 X0.3482 Y1.8429 
G01 X0.3434 Y1.8313 
G01 X0.3434 Y1.8187 
G01 X0.3482 Y1.8071 
G01 X0.3571 Y1.7982 
G01 X0.3687 Y1.7934 
G01 X0.3813 Y1.7934 
G01 X0.3929 Y1.7982 
G01 X0.4018 Y1.8071 
G01 X0.4066 Y1.8187 
G00 Z0.0200 
G00 X0.7816 Y1.8964 
G01 Z-0.0100 F10.00 
G01 X0.7816 Y1.9179 
G01 X1.0934 Y1.9179 
G01 X1.0934 Y1.8964 
G01 X1.0964 Y1.8934 
G01 X1.1536 Y1.8934 
G01 X1.1566 Y1.8964 
G01 X1.1566 Y1.9179 
G01 X1.4684 Y1.9179 
G01 X1.4684 Y1.8964 
G01 X1.4714 Y1.8934 
G01 X1.5286 Y1.8934 
G01 X1.5316 Y1.8964 
G01 X1.5316 Y1.9179 
G01 X1.8434 Y1.9179 
G01 X1.8434 Y1.8964 
G01 X1.8464 Y1.8934 
G01 X1.9036 Y1.8934 
G01 X1.9066 Y1.8964 
G01 X1.9066 Y1.9179 
G01 X2.2184 Y1.9179 
G01 X2.2184 Y1.8964 
G01 X2.2214 Y1.8934 
G01 X2.2786 Y1.8934 
G01 X2.2816 Y1.8964 
G01 X2.2816 Y1.9179 
G01 X2.5934 Y1.9179 
G01 X2.5934 Y1.8964 
G01 X2.5964 Y1.8934 
G01 X2.6536 Y1.8934 
G01 X2.6566 Y1.8964 
G01 X2.6566 Y1.9536 
G01 X2.6536 Y1.9566 
G01 X2.5964 Y1.9566 
G01 X2.5934 Y1.9536 
G01 X2.5934 Y1.9381 
G01 X2.2816 Y1.9381 
G01 X2.2816 Y1.9536 
G01 X2.2786 Y1.9566 
G01 X2.2214 Y1.9566 
G01 X2.2184 Y1.9536 
G01 X2.2184 Y1.9381 
G01 X1.9066 Y1.9381 
G01 X1.9066 Y1.9536 
G01 X1.9036 Y1.9566 
G01 X1.8464 Y1.9566 
G01 X1.8434 Y1.9536 
G01 X1.8434 Y1.9381 
G01 X1.5316 Y1.9381 
G01 X1.5316 Y1.9536 
G01 X1.5286 Y1.9566 
G01 X1.4714 Y1.9566 
G01 X1.4684 Y1.9536 
G01 X1.4684 Y1.9381 
G01 X1.1566 Y1.9381 
G01 X1.1566 Y1.9536 
G01 X1.1536 Y1.9566 
G01 X1.0964 Y1.9566 
G01 X1.0934 Y1.9536 
G01 X1.0934 Y1.9381 
G01 X0.7816 Y1.9381 
G01 X0.7816 Y1.9536 
G01 X0.7786 Y1.9566 
G01 X0.7214 Y1.9566 
G01 X0.7184 Y1.9536 
G01 X0.7184 Y1.9381 
G01 X0.4066 Y1.9381 
G01 X0.4066 Y1.9536 
G01 X0.4036 Y1.9566 
G01 X0.3537 Y1.9566 
G01 X0.3221 Y1.9882 
G01 X0.3221 Y2.1482 
G01 X0.3162 Y2.1541 
G01 X0.1882 Y2.2821 
G01 X0.1798 Y2.2821 
G01 X0.1722 Y2.2821 
G01 X0.1461 Y2.3082 
G01 X0.1461 Y2.3152 
G01 X0.1502 Y2.3051 
G01 X0.1601 Y2.2952 
G01 X0.1730 Y2.2899 
G01 X0.1870 Y2.2899 
G01 X0.1999 Y2.2952 
G01 X0.2097 Y2.3051 
G01 X0.2151 Y2.3180 
G01 X0.2151 Y2.3320 
G01 X0.2097 Y2.3449 
G01 X0.1999 Y2.3547 
G01 X0.1870 Y2.3601 
G01 X0.1730 Y2.3601 
G01 X0.1601 Y2.3547 
G01 X0.1502 Y2.3449 
G01 X0.1461 Y2.3348 
G01 X0.1461 Y2.3482 
G01 X0.1402 Y2.3541 
G01 X0.0944 Y2.3998 
G01 X0.0997 Y2.4051 
G01 X0.1051 Y2.4180 
G01 X0.1051 Y2.4320 
G01 X0.0997 Y2.4449 
G01 X0.0899 Y2.4547 
G01 X0.0770 Y2.4601 
G01 X0.0630 Y2.4601 
G01 X0.0501 Y2.4547 
G01 X0.0402 Y2.4449 
G01 X0.0349 Y2.4320 
G01 X0.0349 Y2.4180 
G01 X0.0402 Y2.4051 
G01 X0.0501 Y2.3952 
G01 X0.0630 Y2.3899 
G01 X0.0758 Y2.3899 
G01 X0.1259 Y2.3398 
G01 X0.1259 Y2.3082 
G01 X0.1259 Y2.2998 
G01 X0.1579 Y2.2678 
G01 X0.1638 Y2.2619 
G01 X0.1798 Y2.2619 
G01 X0.1849 Y2.2568 
G01 X0.1770 Y2.2601 
G01 X0.1630 Y2.2601 
G01 X0.1501 Y2.2547 
G01 X0.1402 Y2.2449 
G01 X0.1349 Y2.2320 
G01 X0.1349 Y2.2180 
G01 X0.1402 Y2.2051 
G01 X0.1501 Y2.1952 
G01 X0.1630 Y2.1899 
G01 X0.1770 Y2.1899 
G01 X0.1899 Y2.1952 
G01 X0.1997 Y2.2051 
G01 X0.2051 Y2.2180 
G01 X0.2051 Y2.2320 
G01 X0.2018 Y2.2399 
G01 X0.3019 Y2.1398 
G01 X0.3019 Y1.9882 
G01 X0.3019 Y1.9798 
G01 X0.3423 Y1.9394 
G01 X0.3423 Y1.9389 
G01 X0.3434 Y1.9380 
G01 X0.3434 Y1.8964 
G01 X0.3464 Y1.8934 
G01 X0.4036 Y1.8934 
G01 X0.4066 Y1.8964 
G01 X0.4066 Y1.9179 
G01 X0.7184 Y1.9179 
G01 X0.7184 Y1.8964 
G01 X0.7214 Y1.8934 
G01 X0.7786 Y1.8934 
G01 X0.7816 Y1.8964 
G00 Z0.0200 
G00 X0.7816 Y1.8187 
G01 Z-0.0100 F10.00 
G01 X0.7816 Y1.8313 
G01 X0.7768 Y1.8429 
G01 X0.7679 Y1.8518 
G01 X0.7563 Y1.8566 
G01 X0.7437 Y1.8566 
G01 X0.7321 Y1.8518 
G01 X0.7232 Y1.8429 
G01 X0.7184 Y1.8313 
G01 X0.7184 Y1.8187 
G01 X0.7232 Y1.8071 
G01 X0.7321 Y1.7982 
G01 X0.7437 Y1.7934 
G01 X0.7563 Y1.7934 
G01 X0.7679 Y1.7982 
G01 X0.7768 Y1.8071 
G01 X0.7816 Y1.8187 
G00 Z0.0200 
G00 X1.1566 Y1.8187 
G01 Z-0.0100 F10.00 
G01 X1.1566 Y1.8313 
G01 X1.1518 Y1.8429 
G01 X1.1429 Y1.8518 
G01 X1.1313 Y1.8566 
G01 X1.1187 Y1.8566 
G01 X1.1071 Y1.8518 
G01 X1.0982 Y1.8429 
G01 X1.0934 Y1.8313 
G01 X1.0934 Y1.8187 
G01 X1.0982 Y1.8071 
G01 X1.1071 Y1.7982 
G01 X1.1187 Y1.7934 
G01 X1.1313 Y1.7934 
G01 X1.1429 Y1.7982 
G01 X1.1518 Y1.8071 
G01 X1.1566 Y1.8187 
G00 Z0.0200 
G00 X0.4066 Y1.5214 
G01 Z-0.0100 F10.00 
G01 X0.4066 Y1.5786 
G01 X0.4036 Y1.5816 
G01 X0.3464 Y1.5816 
G01 X0.3434 Y1.5786 
G01 X0.3434 Y1.5214 
G01 X0.3464 Y1.5184 
G01 X0.4036 Y1.5184 
G01 X0.4066 Y1.5214 
G00 Z0.0200 
G00 X1.1566 Y1.4437 
G01 Z-0.0100 F10.00 
G01 X1.1566 Y1.4563 
G01 X1.1518 Y1.4679 
G01 X1.1429 Y1.4768 
G01 X1.1313 Y1.4816 
G01 X1.1187 Y1.4816 
G01 X1.1071 Y1.4768 
G01 X1.0982 Y1.4679 
G01 X1.0934 Y1.4563 
G01 X1.0934 Y1.4437 
G01 X1.0982 Y1.4321 
G01 X1.1071 Y1.4232 
G01 X1.1187 Y1.4184 
G01 X1.1313 Y1.4184 
G01 X1.1429 Y1.4232 
G01 X1.1518 Y1.4321 
G01 X1.1566 Y1.4437 
G00 Z0.0200 
G00 X1.5316 Y1.4437 
G01 Z-0.0100 F10.00 
G01 X1.5316 Y1.4563 
G01 X1.5268 Y1.4679 
G01 X1.5179 Y1.4768 
G01 X1.5063 Y1.4816 
G01 X1.4937 Y1.4816 
G01 X1.4821 Y1.4768 
G01 X1.4732 Y1.4679 
G01 X1.4684 Y1.4563 
G01 X1.4684 Y1.4437 
G01 X1.4732 Y1.4321 
G01 X1.4821 Y1.4232 
G01 X1.4937 Y1.4184 
G01 X1.5063 Y1.4184 
G01 X1.5179 Y1.4232 
G01 X1.5268 Y1.4321 
G01 X1.5316 Y1.4437 
G00 Z0.0200 
G00 X1.9066 Y1.4437 
G01 Z-0.0100 F10.00 
G01 X1.9066 Y1.4563 
G01 X1.9018 Y1.4679 
G01 X1.8929 Y1.4768 
G01 X1.8813 Y1.4816 
G01 X1.8687 Y1.4816 
G01 X1.8571 Y1.4768 
G01 X1.8482 Y1.4679 
G01 X1.8434 Y1.4563 
G01 X1.8434 Y1.4437 
G01 X1.8482 Y1.4321 
G01 X1.8571 Y1.4232 
G01 X1.8687 Y1.4184 
G01 X1.8813 Y1.4184 
G01 X1.8929 Y1.4232 
G01 X1.9018 Y1.4321 
G01 X1.9066 Y1.4437 
G00 Z0.0200 
G00 X2.2816 Y1.4437 
G01 Z-0.0100 F10.00 
G01 X2.2816 Y1.4563 
G01 X2.2768 Y1.4679 
G01 X2.2679 Y1.4768 
G01 X2.2563 Y1.4816 
G01 X2.2437 Y1.4816 
G01 X2.2321 Y1.4768 
G01 X2.2232 Y1.4679 
G01 X2.2184 Y1.4563 
G01 X2.2184 Y1.4437 
G01 X2.2232 Y1.4321 
G01 X2.2321 Y1.4232 
G01 X2.2437 Y1.4184 
G01 X2.2563 Y1.4184 
G01 X2.2679 Y1.4232 
G01 X2.2768 Y1.4321 
G01 X2.2816 Y1.4437 
G00 Z0.0200 
G00 X2.6566 Y1.4437 
G01 Z-0.0100 F10.00 
G01 X2.6566 Y1.4563 
G01 X2.6518 Y1.4679 
G01 X2.6429 Y1.4768 
G01 X2.6313 Y1.4816 
G01 X2.6187 Y1.4816 
G01 X2.6071 Y1.4768 
G01 X2.5982 Y1.4679 
G01 X2.5934 Y1.4563 
G01 X2.5934 Y1.4437 
G01 X2.5982 Y1.4321 
G01 X2.6071 Y1.4232 
G01 X2.6187 Y1.4184 
G01 X2.6313 Y1.4184 
G01 X2.6429 Y1.4232 
G01 X2.6518 Y1.4321 
G01 X2.6566 Y1.4437 
G00 Z0.0200 
G00 X0.7816 Y1.0687 
G01 Z-0.0100 F10.00 
G01 X0.7816 Y1.0813 
G01 X0.7768 Y1.0929 
G01 X0.7679 Y1.1018 
G01 X0.7563 Y1.1066 
G01 X0.7437 Y1.1066 
G01 X0.7321 Y1.1018 
G01 X0.7232 Y1.0929 
G01 X0.7184 Y1.0813 
G01 X0.7184 Y1.0687 
G01 X0.7232 Y1.0571 
G01 X0.7321 Y1.0482 
G01 X0.7437 Y1.0434 
G01 X0.7563 Y1.0434 
G01 X0.7679 Y1.0482 
G01 X0.7768 Y1.0571 
G01 X0.7816 Y1.0687 
G00 Z0.0200 
G00 X1.1566 Y1.0687 
G01 Z-0.0100 F10.00 
G01 X1.1566 Y1.0813 
G01 X1.1518 Y1.0929 
G01 X1.1429 Y1.1018 
G01 X1.1313 Y1.1066 
G01 X1.1187 Y1.1066 
G01 X1.1071 Y1.1018 
G01 X1.0982 Y1.0929 
G01 X1.0934 Y1.0813 
G01 X1.0934 Y1.0687 
G01 X1.0982 Y1.0571 
G01 X1.1071 Y1.0482 
G01 X1.1187 Y1.0434 
G01 X1.1313 Y1.0434 
G01 X1.1429 Y1.0482 
G01 X1.1518 Y1.0571 
G01 X1.1566 Y1.0687 
G00 Z0.0200 
G00 X1.5316 Y1.0687 
G01 Z-0.0100 F10.00 
G01 X1.5316 Y1.0813 
G01 X1.5268 Y1.0929 
G01 X1.5179 Y1.1018 
G01 X1.5063 Y1.1066 
G01 X1.4937 Y1.1066 
G01 X1.4821 Y1.1018 
G01 X1.4732 Y1.0929 
G01 X1.4684 Y1.0813 
G01 X1.4684 Y1.0687 
G01 X1.4732 Y1.0571 
G01 X1.4821 Y1.0482 
G01 X1.4937 Y1.0434 
G01 X1.5063 Y1.0434 
G01 X1.5179 Y1.0482 
G01 X1.5268 Y1.0571 
G01 X1.5316 Y1.0687 
G00 Z0.0200 
G00 X1.9066 Y1.1464 
G01 Z-0.0100 F10.00 
G01 X1.9066 Y1.1659 
G01 X2.2184 Y1.1659 
G01 X2.2184 Y1.1464 
G01 X2.2214 Y1.1434 
G01 X2.2786 Y1.1434 
G01 X2.2816 Y1.1464 
G01 X2.2816 Y1.1953 
G01 X2.2922 Y1.2059 
G01 X2.3398 Y1.2059 
G01 X2.3472 Y1.1985 
G01 X2.3410 Y1.2011 
G01 X2.3310 Y1.2011 
G01 X2.3218 Y1.1973 
G01 X2.3147 Y1.1902 
G01 X2.3109 Y1.1810 
G01 X2.3109 Y1.1710 
G01 X2.3126 Y1.1669 
G01 X2.2758 Y1.1301 
G01 X0.4884 Y1.1301 
G01 X0.4854 Y1.1331 
G01 X0.4746 Y1.1331 
G01 X0.4669 Y1.1254 
G01 X0.4669 Y1.0451 
G01 X0.3866 Y1.0451 
G01 X0.3836 Y1.0421 
G01 X0.3402 Y1.0421 
G01 X0.1301 Y1.2522 
G01 X0.1301 Y1.2998 
G01 X0.1301 Y1.3082 
G01 X0.1089 Y1.3293 
G01 X0.1097 Y1.3301 
G01 X0.1151 Y1.3430 
G01 X0.1151 Y1.3570 
G01 X0.1097 Y1.3699 
G01 X0.0999 Y1.3797 
G01 X0.0870 Y1.3851 
G01 X0.0730 Y1.3851 
G01 X0.0601 Y1.3797 
G01 X0.0502 Y1.3699 
G01 X0.0449 Y1.3570 
G01 X0.0449 Y1.3430 
G01 X0.0502 Y1.3301 
G01 X0.0601 Y1.3202 
G01 X0.0730 Y1.3149 
G01 X0.0870 Y1.3149 
G01 X0.0925 Y1.3172 
G01 X0.1099 Y1.2998 
G01 X0.1099 Y1.2438 
G01 X0.1158 Y1.2379 
G01 X0.3318 Y1.0219 
G01 X0.3402 Y1.0219 
G01 X0.3836 Y1.0219 
G01 X0.3866 Y1.0189 
G01 X0.4746 Y1.0189 
G01 X0.4854 Y1.0189 
G01 X0.4931 Y1.0266 
G01 X0.4931 Y1.1099 
G01 X2.2842 Y1.1099 
G01 X2.2901 Y1.1158 
G01 X2.3269 Y1.1526 
G01 X2.3310 Y1.1509 
G01 X2.3410 Y1.1509 
G01 X2.3502 Y1.1547 
G01 X2.3573 Y1.1618 
G01 X2.3611 Y1.1710 
G01 X2.3611 Y1.1810 
G01 X2.3574 Y1.1899 
G01 X2.3642 Y1.1899 
G01 X2.5934 Y1.1899 
G01 X2.5934 Y1.1464 
G01 X2.5964 Y1.1434 
G01 X2.6536 Y1.1434 
G01 X2.6566 Y1.1464 
G01 X2.6566 Y1.1659 
G01 X2.9684 Y1.1659 
G01 X2.9684 Y1.1464 
G01 X2.9714 Y1.1434 
G01 X3.0183 Y1.1434 
G01 X3.0278 Y1.1339 
G01 X3.0362 Y1.1339 
G01 X3.0937 Y1.1339 
G01 X3.0937 Y1.0993 
G01 X3.0967 Y1.0963 
G01 X3.1019 Y1.0963 
G01 X3.1019 Y1.0150 
G01 X3.0978 Y1.0133 
G01 X3.0907 Y1.0062 
G01 X3.0869 Y0.9970 
G01 X3.0869 Y0.9870 
G01 X3.0907 Y0.9778 
G01 X3.0978 Y0.9707 
G01 X3.1070 Y0.9669 
G01 X3.1170 Y0.9669 
G01 X3.1262 Y0.9707 
G01 X3.1333 Y0.9778 
G01 X3.1371 Y0.9870 
G01 X3.1371 Y0.9970 
G01 X3.1333 Y1.0062 
G01 X3.1262 Y1.0133 
G01 X3.1221 Y1.0150 
G01 X3.1221 Y1.0963 
G01 X3.1324 Y1.0963 
G01 X3.1354 Y1.0993 
G01 X3.1354 Y1.1507 
G01 X3.1324 Y1.1537 
G01 X3.1086 Y1.1537 
G01 X3.1082 Y1.1541 
G01 X3.1054 Y1.1541 
G01 X3.1027 Y1.1549 
G01 X3.1014 Y1.1541 
G01 X3.0362 Y1.1541 
G01 X3.0340 Y1.1563 
G01 X3.0340 Y1.1564 
G01 X3.0316 Y1.1587 
G01 X3.0316 Y1.2036 
G01 X3.0286 Y1.2066 
G01 X2.9714 Y1.2066 
G01 X2.9684 Y1.2036 
G01 X2.9684 Y1.1861 
G01 X2.6566 Y1.1861 
G01 X2.6566 Y1.2036 
G01 X2.6536 Y1.2066 
G01 X2.6077 Y1.2066 
G01 X2.6042 Y1.2101 
G01 X2.5958 Y1.2101 
G01 X2.3642 Y1.2101 
G01 X2.3541 Y1.2202 
G01 X2.3482 Y1.2261 
G01 X2.2922 Y1.2261 
G01 X2.2838 Y1.2261 
G01 X2.2676 Y1.2098 
G01 X2.2672 Y1.2098 
G01 X2.2646 Y1.2069 
G01 X2.2643 Y1.2066 
G01 X2.2214 Y1.2066 
G01 X2.2184 Y1.2036 
G01 X2.2184 Y1.1861 
G01 X1.9066 Y1.1861 
G01 X1.9066 Y1.2036 
G01 X1.9036 Y1.2066 
G01 X1.8464 Y1.2066 
G01 X1.8434 Y1.2036 
G01 X1.8434 Y1.1861 
G01 X1.5316 Y1.1861 
G01 X1.5316 Y1.2036 
G01 X1.5286 Y1.2066 
G01 X1.4714 Y1.2066 
G01 X1.4684 Y1.2036 
G01 X1.4684 Y1.1861 
G01 X1.1566 Y1.1861 
G01 X1.1566 Y1.2036 
G01 X1.1536 Y1.2066 
G01 X1.0964 Y1.2066 
G01 X1.0934 Y1.2036 
G01 X1.0934 Y1.1861 
G01 X0.7816 Y1.1861 
G01 X0.7816 Y1.2036 
G01 X0.7786 Y1.2066 
G01 X0.7214 Y1.2066 
G01 X0.7184 Y1.2036 
G01 X0.7184 Y1.1861 
G01 X0.4066 Y1.1861 
G01 X0.4066 Y1.2036 
G01 X0.4036 Y1.2066 
G01 X0.3464 Y1.2066 
G01 X0.3434 Y1.2036 
G01 X0.3434 Y1.1464 
G01 X0.3464 Y1.1434 
G01 X0.4036 Y1.1434 
G01 X0.4066 Y1.1464 
G01 X0.4066 Y1.1659 
G01 X0.7184 Y1.1659 
G01 X0.7184 Y1.1464 
G01 X0.7214 Y1.1434 
G01 X0.7786 Y1.1434 
G01 X0.7816 Y1.1464 
G01 X0.7816 Y1.1659 
G01 X1.0934 Y1.1659 
G01 X1.0934 Y1.1464 
G01 X1.0964 Y1.1434 
G01 X1.1536 Y1.1434 
G01 X1.1566 Y1.1464 
G01 X1.1566 Y1.1659 
G01 X1.4684 Y1.1659 
G01 X1.4684 Y1.1464 
G01 X1.4714 Y1.1434 
G01 X1.5286 Y1.1434 
G01 X1.5316 Y1.1464 
G01 X1.5316 Y1.1659 
G01 X1.8434 Y1.1659 
G01 X1.8434 Y1.1464 
G01 X1.8464 Y1.1434 
G01 X1.9036 Y1.1434 
G01 X1.9066 Y1.1464 
G00 Z0.0200 
G00 X1.9066 Y1.0687 
G01 Z-0.0100 F10.00 
G01 X1.9066 Y1.0813 
G01 X1.9018 Y1.0929 
G01 X1.8929 Y1.1018 
G01 X1.8813 Y1.1066 
G01 X1.8687 Y1.1066 
G01 X1.8571 Y1.1018 
G01 X1.8482 Y1.0929 
G01 X1.8434 Y1.0813 
G01 X1.8434 Y1.0687 
G01 X1.8482 Y1.0571 
G01 X1.8571 Y1.0482 
G01 X1.8687 Y1.0434 
G01 X1.8813 Y1.0434 
G01 X1.8929 Y1.0482 
G01 X1.9018 Y1.0571 
G01 X1.9066 Y1.0687 
G00 Z0.0200 
G00 X2.6566 Y1.0687 
G01 Z-0.0100 F10.00 
G01 X2.6566 Y1.0813 
G01 X2.6518 Y1.0929 
G01 X2.6429 Y1.1018 
G01 X2.6313 Y1.1066 
G01 X2.6187 Y1.1066 
G01 X2.6071 Y1.1018 
G01 X2.5982 Y1.0929 
G01 X2.5934 Y1.0813 
G01 X2.5934 Y1.0687 
G01 X2.5982 Y1.0571 
G01 X2.6071 Y1.0482 
G01 X2.6187 Y1.0434 
G01 X2.6313 Y1.0434 
G01 X2.6429 Y1.0482 
G01 X2.6518 Y1.0571 
G01 X2.6566 Y1.0687 
G00 Z0.0200 
G00 X3.0316 Y1.0687 
G01 Z-0.0100 F10.00 
G01 X3.0316 Y1.0813 
G01 X3.0268 Y1.0929 
G01 X3.0179 Y1.1018 
G01 X3.0063 Y1.1066 
G01 X2.9937 Y1.1066 
G01 X2.9821 Y1.1018 
G01 X2.9732 Y1.0929 
G01 X2.9684 Y1.0813 
G01 X2.9684 Y1.0687 
G01 X2.9732 Y1.0571 
G01 X2.9821 Y1.0482 
G01 X2.9937 Y1.0434 
G01 X3.0063 Y1.0434 
G01 X3.0179 Y1.0482 
G01 X3.0268 Y1.0571 
G01 X3.0316 Y1.0687 
G00 Z0.0200 
G00 X0.4066 Y0.6937 
G01 Z-0.0100 F10.00 
G01 X0.4066 Y0.7063 
G01 X0.4018 Y0.7179 
G01 X0.3929 Y0.7268 
G01 X0.3813 Y0.7316 
G01 X0.3687 Y0.7316 
G01 X0.3571 Y0.7268 
G01 X0.3482 Y0.7179 
G01 X0.3434 Y0.7063 
G01 X0.3434 Y0.6937 
G01 X0.3482 Y0.6821 
G01 X0.3571 Y0.6732 
G01 X0.3687 Y0.6684 
G01 X0.3813 Y0.6684 
G01 X0.3929 Y0.6732 
G01 X0.4018 Y0.6821 
G01 X0.4066 Y0.6937 
G00 Z0.0200 
G00 X0.7816 Y0.6937 
G01 Z-0.0100 F10.00 
G01 X0.7816 Y0.7063 
G01 X0.7768 Y0.7179 
G01 X0.7679 Y0.7268 
G01 X0.7563 Y0.7316 
G01 X0.7437 Y0.7316 
G01 X0.7321 Y0.7268 
G01 X0.7232 Y0.7179 
G01 X0.7184 Y0.7063 
G01 X0.7184 Y0.6937 
G01 X0.7232 Y0.6821 
G01 X0.7321 Y0.6732 
G01 X0.7437 Y0.6684 
G01 X0.7563 Y0.6684 
G01 X0.7679 Y0.6732 
G01 X0.7768 Y0.6821 
G01 X0.7816 Y0.6937 
G00 Z0.0200 
G00 X1.1566 Y0.6937 
G01 Z-0.0100 F10.00 
G01 X1.1566 Y0.7063 
G01 X1.1518 Y0.7179 
G01 X1.1429 Y0.7268 
G01 X1.1313 Y0.7316 
G01 X1.1187 Y0.7316 
G01 X1.1071 Y0.7268 
G01 X1.0982 Y0.7179 
G01 X1.0934 Y0.7063 
G01 X1.0934 Y0.6937 
G01 X1.0982 Y0.6821 
G01 X1.1071 Y0.6732 
G01 X1.1187 Y0.6684 
G01 X1.1313 Y0.6684 
G01 X1.1429 Y0.6732 
G01 X1.1518 Y0.6821 
G01 X1.1566 Y0.6937 
G00 Z0.0200 
G00 X1.5316 Y0.6937 
G01 Z-0.0100 F10.00 
G01 X1.5316 Y0.7063 
G01 X1.5268 Y0.7179 
G01 X1.5179 Y0.7268 
G01 X1.5063 Y0.7316 
G01 X1.4937 Y0.7316 
G01 X1.4821 Y0.7268 
G01 X1.4732 Y0.7179 
G01 X1.4684 Y0.7063 
G01 X1.4684 Y0.6937 
G01 X1.4732 Y0.6821 
G01 X1.4821 Y0.6732 
G01 X1.4937 Y0.6684 
G01 X1.5063 Y0.6684 
G01 X1.5179 Y0.6732 
G01 X1.5268 Y0.6821 
G01 X1.5316 Y0.6937 
G00 Z0.0200 
G00 X1.9066 Y0.6937 
G01 Z-0.0100 F10.00 
G01 X1.9066 Y0.7063 
G01 X1.9018 Y0.7179 
G01 X1.8929 Y0.7268 
G01 X1.8813 Y0.7316 
G01 X1.8687 Y0.7316 
G01 X1.8571 Y0.7268 
G01 X1.8482 Y0.7179 
G01 X1.8434 Y0.7063 
G01 X1.8434 Y0.6937 
G01 X1.8482 Y0.6821 
G01 X1.8571 Y0.6732 
G01 X1.8687 Y0.6684 
G01 X1.8813 Y0.6684 
G01 X1.8929 Y0.6732 
G01 X1.9018 Y0.6821 
G01 X1.9066 Y0.6937 
G00 Z0.0200 
G00 X2.2816 Y0.6937 
G01 Z-0.0100 F10.00 
G01 X2.2816 Y0.7063 
G01 X2.2768 Y0.7179 
G01 X2.2679 Y0.7268 
G01 X2.2563 Y0.7316 
G01 X2.2437 Y0.7316 
G01 X2.2321 Y0.7268 
G01 X2.2232 Y0.7179 
G01 X2.2184 Y0.7063 
G01 X2.2184 Y0.6937 
G01 X2.2232 Y0.6821 
G01 X2.2321 Y0.6732 
G01 X2.2437 Y0.6684 
G01 X2.2563 Y0.6684 
G01 X2.2679 Y0.6732 
G01 X2.2768 Y0.6821 
G01 X2.2816 Y0.6937 
G00 Z0.0200 
G00 X2.6566 Y0.6937 
G01 Z-0.0100 F10.00 
G01 X2.6566 Y0.7063 
G01 X2.6518 Y0.7179 
G01 X2.6429 Y0.7268 
G01 X2.6313 Y0.7316 
G01 X2.6187 Y0.7316 
G01 X2.6071 Y0.7268 
G01 X2.5982 Y0.7179 
G01 X2.5934 Y0.7063 
G01 X2.5934 Y0.6937 
G01 X2.5982 Y0.6821 
G01 X2.6071 Y0.6732 
G01 X2.6187 Y0.6684 
G01 X2.6313 Y0.6684 
G01 X2.6355 Y0.6702 
G01 X2.6619 Y0.6438 
G01 X2.6619 Y0.4042 
G01 X2.6566 Y0.3989 
G01 X2.6566 Y0.4536 
G01 X2.6536 Y0.4566 
G01 X2.5964 Y0.4566 
G01 X2.5934 Y0.4536 
G01 X2.5934 Y0.4341 
G01 X2.2816 Y0.4341 
G01 X2.2816 Y0.4536 
G01 X2.2786 Y0.4566 
G01 X2.2214 Y0.4566 
G01 X2.2184 Y0.4536 
G01 X2.2184 Y0.4341 
G01 X1.9066 Y0.4341 
G01 X1.9066 Y0.4536 
G01 X1.9036 Y0.4566 
G01 X1.8464 Y0.4566 
G01 X1.8434 Y0.4536 
G01 X1.8434 Y0.4341 
G01 X1.5316 Y0.4341 
G01 X1.5316 Y0.4536 
G01 X1.5286 Y0.4566 
G01 X1.4714 Y0.4566 
G01 X1.4684 Y0.4536 
G01 X1.4684 Y0.4341 
G01 X1.1566 Y0.4341 
G01 X1.1566 Y0.4536 
G01 X1.1536 Y0.4566 
G01 X1.0964 Y0.4566 
G01 X1.0934 Y0.4536 
G01 X1.0934 Y0.4341 
G01 X0.7816 Y0.4341 
G01 X0.7816 Y0.4536 
G01 X0.7786 Y0.4566 
G01 X0.7214 Y0.4566 
G01 X0.7184 Y0.4536 
G01 X0.7184 Y0.4341 
G01 X0.4066 Y0.4341 
G01 X0.4066 Y0.4536 
G01 X0.4036 Y0.4566 
G01 X0.3771 Y0.4566 
G01 X0.3822 Y0.4587 
G01 X0.3893 Y0.4658 
G01 X0.3931 Y0.4750 
G01 X0.3931 Y0.4828 
G01 X0.4762 Y0.5659 
G01 X2.3723 Y0.5659 
G01 X2.3726 Y0.5652 
G01 X2.3796 Y0.5581 
G01 X2.3889 Y0.5543 
G01 X2.3989 Y0.5543 
G01 X2.4081 Y0.5581 
G01 X2.4151 Y0.5652 
G01 X2.4190 Y0.5744 
G01 X2.4190 Y0.5844 
G01 X2.4151 Y0.5936 
G01 X2.4081 Y0.6007 
G01 X2.3989 Y0.6045 
G01 X2.3889 Y0.6045 
G01 X2.3796 Y0.6007 
G01 X2.3726 Y0.5936 
G01 X2.3695 Y0.5861 
G01 X0.4762 Y0.5861 
G01 X0.4678 Y0.5861 
G01 X0.3826 Y0.5009 
G01 X0.3822 Y0.5013 
G01 X0.3730 Y0.5051 
G01 X0.3630 Y0.5051 
G01 X0.3538 Y0.5013 
G01 X0.3467 Y0.4942 
G01 X0.3429 Y0.4850 
G01 X0.3429 Y0.4750 
G01 X0.3455 Y0.4688 
G01 X0.3381 Y0.4762 
G01 X0.3381 Y0.7130 
G01 X0.3422 Y0.7147 
G01 X0.3493 Y0.7218 
G01 X0.3531 Y0.7310 
G01 X0.3531 Y0.7410 
G01 X0.3493 Y0.7502 
G01 X0.3422 Y0.7573 
G01 X0.3330 Y0.7611 
G01 X0.3230 Y0.7611 
G01 X0.3138 Y0.7573 
G01 X0.3067 Y0.7502 
G01 X0.3029 Y0.7410 
G01 X0.3029 Y0.7310 
G01 X0.3067 Y0.7218 
G01 X0.3138 Y0.7147 
G01 X0.3179 Y0.7130 
G01 X0.3179 Y0.4762 
G01 X0.3179 Y0.4678 
G01 X0.3434 Y0.4423 
G01 X0.3434 Y0.3964 
G01 X0.3464 Y0.3934 
G01 X0.4036 Y0.3934 
G01 X0.4066 Y0.3964 
G01 X0.4066 Y0.4139 
G01 X0.7184 Y0.4139 
G01 X0.7184 Y0.3964 
G01 X0.7214 Y0.3934 
G01 X0.7786 Y0.3934 
G01 X0.7816 Y0.3964 
G01 X0.7816 Y0.4139 
G01 X1.0934 Y0.4139 
G01 X1.0934 Y0.3964 
G01 X1.0964 Y0.3934 
G01 X1.1536 Y0.3934 
G01 X1.1566 Y0.3964 
G01 X1.1566 Y0.4139 
G01 X1.4684 Y0.4139 
G01 X1.4684 Y0.3964 
G01 X1.4714 Y0.3934 
G01 X1.5286 Y0.3934 
G01 X1.5316 Y0.3964 
G01 X1.5316 Y0.4139 
G01 X1.8434 Y0.4139 
G01 X1.8434 Y0.3964 
G01 X1.8464 Y0.3934 
G01 X1.9036 Y0.3934 
G01 X1.9066 Y0.3964 
G01 X1.9066 Y0.4139 
G01 X2.2184 Y0.4139 
G01 X2.2184 Y0.3964 
G01 X2.2214 Y0.3934 
G01 X2.2786 Y0.3934 
G01 X2.2816 Y0.3964 
G01 X2.2816 Y0.4139 
G01 X2.5934 Y0.4139 
G01 X2.5934 Y0.3964 
G01 X2.5964 Y0.3934 
G01 X2.6511 Y0.3934 
G01 X2.6299 Y0.3722 
G01 X2.6299 Y0.3638 
G01 X2.6299 Y0.3566 
G01 X2.6187 Y0.3566 
G01 X2.6071 Y0.3518 
G01 X2.5982 Y0.3429 
G01 X2.5934 Y0.3313 
G01 X2.5934 Y0.3187 
G01 X2.5982 Y0.3071 
G01 X2.6071 Y0.2982 
G01 X2.6187 Y0.2934 
G01 X2.6313 Y0.2934 
G01 X2.6429 Y0.2982 
G01 X2.6518 Y0.3071 
G01 X2.6566 Y0.3187 
G01 X2.6566 Y0.3313 
G01 X2.6518 Y0.3429 
G01 X2.6501 Y0.3446 
G01 X2.6501 Y0.3638 
G01 X2.6762 Y0.3899 
G01 X2.6821 Y0.3958 
G01 X2.6821 Y0.6438 
G01 X2.6821 Y0.6522 
G01 X2.6519 Y0.6824 
G01 X2.6566 Y0.6937 
G00 Z0.0200 
G00 X0.4066 Y0.3187 
G01 Z-0.0100 F10.00 
G01 X0.4066 Y0.3313 
G01 X0.4018 Y0.3429 
G01 X0.3929 Y0.3518 
G01 X0.3813 Y0.3566 
G01 X0.3687 Y0.3566 
G01 X0.3571 Y0.3518 
G01 X0.3482 Y0.3429 
G01 X0.3434 Y0.3313 
G01 X0.3434 Y0.3187 
G01 X0.3482 Y0.3071 
G01 X0.3571 Y0.2982 
G01 X0.3687 Y0.2934 
G01 X0.3813 Y0.2934 
G01 X0.3929 Y0.2982 
G01 X0.4018 Y0.3071 
G01 X0.4066 Y0.3187 
G00 Z0.0200 
G00 X0.7816 Y0.3187 
G01 Z-0.0100 F10.00 
G01 X0.7816 Y0.3313 
G01 X0.7768 Y0.3429 
G01 X0.7679 Y0.3518 
G01 X0.7563 Y0.3566 
G01 X0.7437 Y0.3566 
G01 X0.7321 Y0.3518 
G01 X0.7232 Y0.3429 
G01 X0.7184 Y0.3313 
G01 X0.7184 Y0.3187 
G01 X0.7232 Y0.3071 
G01 X0.7321 Y0.2982 
G01 X0.7437 Y0.2934 
G01 X0.7563 Y0.2934 
G01 X0.7679 Y0.2982 
G01 X0.7768 Y0.3071 
G01 X0.7816 Y0.3187 
G00 Z0.0200 
G00 X1.1566 Y0.3187 
G01 Z-0.0100 F10.00 
G01 X1.1566 Y0.3313 
G01 X1.1557 Y0.3334 
G01 X1.1802 Y0.3579 
G01 X2.2598 Y0.3579 
G01 X2.2646 Y0.3532 
G01 X2.2563 Y0.3566 
G01 X2.2437 Y0.3566 
G01 X2.2321 Y0.3518 
G01 X2.2232 Y0.3429 
G01 X2.2184 Y0.3313 
G01 X2.2184 Y0.3187 
G01 X2.2232 Y0.3071 
G01 X2.2321 Y0.2982 
G01 X2.2437 Y0.2934 
G01 X2.2563 Y0.2934 
G01 X2.2679 Y0.2982 
G01 X2.2768 Y0.3071 
G01 X2.2816 Y0.3187 
G01 X2.2816 Y0.3313 
G01 X2.2782 Y0.3396 
G01 X2.2918 Y0.3259 
G01 X2.3002 Y0.3259 
G01 X2.3791 Y0.3259 
G01 X2.3817 Y0.3196 
G01 X2.3888 Y0.3125 
G01 X2.3980 Y0.3087 
G01 X2.4080 Y0.3087 
G01 X2.4172 Y0.3125 
G01 X2.4242 Y0.3196 
G01 X2.4281 Y0.3288 
G01 X2.4281 Y0.3388 
G01 X2.4242 Y0.3480 
G01 X2.4172 Y0.3551 
G01 X2.4080 Y0.3589 
G01 X2.3980 Y0.3589 
G01 X2.3888 Y0.3551 
G01 X2.3817 Y0.3480 
G01 X2.3811 Y0.3465 
G01 X2.3810 Y0.3465 
G01 X2.3805 Y0.3461 
G01 X2.3002 Y0.3461 
G01 X2.2741 Y0.3722 
G01 X2.2682 Y0.3781 
G01 X1.1718 Y0.3781 
G01 X1.1659 Y0.3722 
G01 X1.1659 Y0.3722 
G01 X1.1442 Y0.3505 
G01 X1.1429 Y0.3518 
G01 X1.1313 Y0.3566 
G01 X1.1187 Y0.3566 
G01 X1.1071 Y0.3518 
G01 X1.0982 Y0.3429 
G01 X1.0934 Y0.3313 
G01 X1.0934 Y0.3187 
G01 X1.0982 Y0.3071 
G01 X1.1071 Y0.2982 
G01 X1.1187 Y0.2934 
G01 X1.1313 Y0.2934 
G01 X1.1429 Y0.2982 
G01 X1.1518 Y0.3071 
G01 X1.1566 Y0.3187 
G00 Z0.0200 
G00 X1.5316 Y0.3187 
G01 Z-0.0100 F10.00 
G01 X1.5316 Y0.3313 
G01 X1.5268 Y0.3429 
G01 X1.5179 Y0.3518 
G01 X1.5063 Y0.3566 
G01 X1.4937 Y0.3566 
G01 X1.4821 Y0.3518 
G01 X1.4732 Y0.3429 
G01 X1.4684 Y0.3313 
G01 X1.4684 Y0.3187 
G01 X1.4732 Y0.3071 
G01 X1.4821 Y0.2982 
G01 X1.4937 Y0.2934 
G01 X1.5063 Y0.2934 
G01 X1.5179 Y0.2982 
G01 X1.5268 Y0.3071 
G01 X1.5316 Y0.3187 
G00 Z0.0200 
G00 X1.9066 Y0.3187 
G01 Z-0.0100 F10.00 
G01 X1.9066 Y0.3313 
G01 X1.9018 Y0.3429 
G01 X1.8929 Y0.3518 
G01 X1.8813 Y0.3566 
G01 X1.8687 Y0.3566 
G01 X1.8571 Y0.3518 
G01 X1.8482 Y0.3429 
G01 X1.8434 Y0.3313 
G01 X1.8434 Y0.3187 
G01 X1.8482 Y0.3071 
G01 X1.8571 Y0.2982 
G01 X1.8687 Y0.2934 
G01 X1.8813 Y0.2934 
G01 X1.8929 Y0.2982 
G01 X1.9018 Y0.3071 
G01 X1.9066 Y0.3187 
G00 Z0.0200 
G00 X0.0349 Y2.0571 
G01 Z-0.0100 F10.00 
G01 X0.0349 Y1.9929 
G01 X0.0379 Y1.9899 
G01 X0.1021 Y1.9899 
G01 X0.1051 Y1.9929 
G01 X0.1051 Y2.0571 
G01 X0.1021 Y2.0601 
G01 X0.0379 Y2.0601 
G01 X0.0349 Y2.0571 
G00 Z0.0200 
G00 X0.1151 Y2.1180 
G01 Z-0.0100 F10.00 
G01 X0.1151 Y2.1320 
G01 X0.1097 Y2.1449 
G01 X0.0999 Y2.1547 
G01 X0.0870 Y2.1601 
G01 X0.0730 Y2.1601 
G01 X0.0601 Y2.1547 
G01 X0.0502 Y2.1449 
G01 X0.0449 Y2.1320 
G01 X0.0449 Y2.1180 
G01 X0.0502 Y2.1051 
G01 X0.0601 Y2.0952 
G01 X0.0730 Y2.0899 
G01 X0.0870 Y2.0899 
G01 X0.0999 Y2.0952 
G01 X0.1097 Y2.1051 
G01 X0.1151 Y2.1180 
G00 Z0.0200 
G00 X0.1051 Y2.2180 
G01 Z-0.0100 F10.00 
G01 X0.1051 Y2.2320 
G01 X0.0997 Y2.2449 
G01 X0.0899 Y2.2547 
G01 X0.0770 Y2.2601 
G01 X0.0630 Y2.2601 
G01 X0.0501 Y2.2547 
G01 X0.0402 Y2.2449 
G01 X0.0349 Y2.2320 
G01 X0.0349 Y2.2180 
G01 X0.0402 Y2.2051 
G01 X0.0501 Y2.1952 
G01 X0.0630 Y2.1899 
G01 X0.0770 Y2.1899 
G01 X0.0899 Y2.1952 
G01 X0.0997 Y2.2051 
G01 X0.1051 Y2.2180 
G00 Z0.0200 
G00 X0.1051 Y2.6180 
G01 Z-0.0100 F10.00 
G01 X0.1051 Y2.6320 
G01 X0.0997 Y2.6449 
G01 X0.0899 Y2.6547 
G01 X0.0770 Y2.6601 
G01 X0.0630 Y2.6601 
G01 X0.0501 Y2.6547 
G01 X0.0402 Y2.6449 
G01 X0.0349 Y2.6320 
G01 X0.0349 Y2.6180 
G01 X0.0402 Y2.6051 
G01 X0.0501 Y2.5952 
G01 X0.0630 Y2.5899 
G01 X0.0770 Y2.5899 
G01 X0.0899 Y2.5952 
G01 X0.0997 Y2.6051 
G01 X0.1051 Y2.6180 
G00 Z0.0200 
G00 X0.1051 Y1.2570 
G01 Z-0.0100 F10.00 
G01 X0.0997 Y1.2699 
G01 X0.0899 Y1.2797 
G01 X0.0770 Y1.2851 
G01 X0.0630 Y1.2851 
G01 X0.0501 Y1.2797 
G01 X0.0402 Y1.2699 
G01 X0.0349 Y1.2570 
G01 X0.0349 Y1.2430 
G01 X0.0402 Y1.2301 
G01 X0.0501 Y1.2202 
G01 X0.0630 Y1.2149 
G01 X0.0770 Y1.2149 
G01 X0.0899 Y1.2202 
G01 X0.0957 Y1.2260 
G01 X0.3179 Y1.0038 
G01 X0.3179 Y1.0038 
G01 X0.3238 Y0.9979 
G01 X2.2442 Y0.9979 
G01 X2.2501 Y1.0038 
G01 X2.3269 Y1.0806 
G01 X2.3310 Y1.0789 
G01 X2.3410 Y1.0789 
G01 X2.3502 Y1.0827 
G01 X2.3573 Y1.0898 
G01 X2.3611 Y1.0990 
G01 X2.3611 Y1.1090 
G01 X2.3573 Y1.1182 
G01 X2.3502 Y1.1253 
G01 X2.3410 Y1.1291 
G01 X2.3310 Y1.1291 
G01 X2.3218 Y1.1253 
G01 X2.3147 Y1.1182 
G01 X2.3109 Y1.1090 
G01 X2.3109 Y1.0990 
G01 X2.3126 Y1.0949 
G01 X2.2782 Y1.0604 
G01 X2.2816 Y1.0687 
G01 X2.2816 Y1.0813 
G01 X2.2768 Y1.0929 
G01 X2.2679 Y1.1018 
G01 X2.2563 Y1.1066 
G01 X2.2437 Y1.1066 
G01 X2.2321 Y1.1018 
G01 X2.2232 Y1.0929 
G01 X2.2184 Y1.0813 
G01 X2.2184 Y1.0687 
G01 X2.2232 Y1.0571 
G01 X2.2321 Y1.0482 
G01 X2.2437 Y1.0434 
G01 X2.2563 Y1.0434 
G01 X2.2646 Y1.0468 
G01 X2.2358 Y1.0181 
G01 X0.3322 Y1.0181 
G01 X0.1051 Y1.2452 
G01 X0.1051 Y1.2570 
G00 Z0.0200 
G00 X0.1051 Y1.0430 
G01 Z-0.0100 F10.00 
G01 X0.1051 Y1.0570 
G01 X0.0997 Y1.0699 
G01 X0.0899 Y1.0797 
G01 X0.0770 Y1.0851 
G01 X0.0630 Y1.0851 
G01 X0.0501 Y1.0797 
G01 X0.0402 Y1.0699 
G01 X0.0349 Y1.0570 
G01 X0.0349 Y1.0430 
G01 X0.0402 Y1.0301 
G01 X0.0501 Y1.0202 
G01 X0.0630 Y1.0149 
G01 X0.0770 Y1.0149 
G01 X0.0899 Y1.0202 
G01 X0.0997 Y1.0301 
G01 X0.1051 Y1.0430 
G00 Z0.0200 
G00 X0.1151 Y0.9430 
G01 Z-0.0100 F10.00 
G01 X0.1151 Y0.9570 
G01 X0.1097 Y0.9699 
G01 X0.0999 Y0.9797 
G01 X0.0870 Y0.9851 
G01 X0.0730 Y0.9851 
G01 X0.0601 Y0.9797 
G01 X0.0502 Y0.9699 
G01 X0.0449 Y0.9570 
G01 X0.0449 Y0.9430 
G01 X0.0502 Y0.9301 
G01 X0.0601 Y0.9202 
G01 X0.0730 Y0.9149 
G01 X0.0870 Y0.9149 
G01 X0.0999 Y0.9202 
G01 X0.1097 Y0.9301 
G01 X0.1151 Y0.9430 
G00 Z0.0200 
G00 X0.1151 Y0.7430 
G01 Z-0.0100 F10.00 
G01 X0.1151 Y0.7570 
G01 X0.1097 Y0.7699 
G01 X0.0999 Y0.7797 
G01 X0.0870 Y0.7851 
G01 X0.0730 Y0.7851 
G01 X0.0601 Y0.7797 
G01 X0.0502 Y0.7699 
G01 X0.0449 Y0.7570 
G01 X0.0449 Y0.7430 
G01 X0.0502 Y0.7301 
G01 X0.0601 Y0.7202 
G01 X0.0730 Y0.7149 
G01 X0.0870 Y0.7149 
G01 X0.0999 Y0.7202 
G01 X0.1097 Y0.7301 
G01 X0.1151 Y0.7430 
G00 Z0.0200 
G00 X3.3431 Y0.9581 
G01 Z-0.0100 F10.00 
G01 X3.3460 Y0.9611 
G01 X3.3460 Y0.9889 
G01 X3.3431 Y0.9919 
G01 X3.2522 Y0.9919 
G01 X3.2492 Y0.9889 
G01 X3.2492 Y0.9759 
G01 X3.2483 Y0.9745 
G01 X3.2331 Y0.9594 
G01 X3.2290 Y0.9611 
G01 X3.2190 Y0.9611 
G01 X3.2098 Y0.9573 
G01 X3.2027 Y0.9502 
G01 X3.1989 Y0.9410 
G01 X3.1989 Y0.9310 
G01 X3.2027 Y0.9218 
G01 X3.2098 Y0.9147 
G01 X3.2190 Y0.9109 
G01 X3.2290 Y0.9109 
G01 X3.2382 Y0.9147 
G01 X3.2453 Y0.9218 
G01 X3.2491 Y0.9310 
G01 X3.2491 Y0.9410 
G01 X3.2474 Y0.9451 
G01 X3.2604 Y0.9581 
G01 X3.3431 Y0.9581 
G00 Z0.0200 
G00 X3.2522 Y0.7081 
G01 Z-0.0100 F10.00 
G01 X3.3431 Y0.7081 
G01 X3.3460 Y0.7111 
G01 X3.3460 Y0.7179 
G01 X3.3530 Y0.7179 
G01 X3.3547 Y0.7138 
G01 X3.3618 Y0.7067 
G01 X3.3710 Y0.7029 
G01 X3.3810 Y0.7029 
G01 X3.3902 Y0.7067 
G01 X3.3973 Y0.7138 
G01 X3.4011 Y0.7230 
G01 X3.4011 Y0.7330 
G01 X3.3973 Y0.7422 
G01 X3.3902 Y0.7493 
G01 X3.3810 Y0.7531 
G01 X3.3710 Y0.7531 
G01 X3.3618 Y0.7493 
G01 X3.3547 Y0.7422 
G01 X3.3530 Y0.7381 
G01 X3.3460 Y0.7381 
G01 X3.3460 Y0.7389 
G01 X3.3431 Y0.7419 
G01 X3.2522 Y0.7419 
G01 X3.2492 Y0.7389 
G01 X3.2492 Y0.7111 
G01 X3.2522 Y0.7081 
G00 Z0.0200 
G00 X3.3749 Y0.6290 
G01 Z-0.0100 F10.00 
G01 X3.3749 Y0.6190 
G01 X3.3787 Y0.6098 
G01 X3.3858 Y0.6027 
G01 X3.3950 Y0.5989 
G01 X3.4050 Y0.5989 
G01 X3.4142 Y0.6027 
G01 X3.4213 Y0.6098 
G01 X3.4230 Y0.6139 
G01 X3.4540 Y0.6139 
G01 X3.4540 Y0.6111 
G01 X3.4569 Y0.6081 
G01 X3.5458 Y0.6081 
G01 X3.4598 Y0.5221 
G01 X3.2842 Y0.5221 
G01 X3.2758 Y0.5221 
G01 X3.2331 Y0.4794 
G01 X3.2290 Y0.4811 
G01 X3.2190 Y0.4811 
G01 X3.2098 Y0.4773 
G01 X3.2027 Y0.4702 
G01 X3.1989 Y0.4610 
G01 X3.1989 Y0.4510 
G01 X3.2027 Y0.4418 
G01 X3.2098 Y0.4347 
G01 X3.2190 Y0.4309 
G01 X3.2290 Y0.4309 
G01 X3.2382 Y0.4347 
G01 X3.2453 Y0.4418 
G01 X3.2491 Y0.4510 
G01 X3.2491 Y0.4610 
G01 X3.2474 Y0.4651 
G01 X3.2842 Y0.5019 
G01 X3.4682 Y0.5019 
G01 X3.4741 Y0.5078 
G01 X3.5701 Y0.6038 
G01 X3.5701 Y0.6122 
G01 X3.5701 Y0.7082 
G01 X3.5642 Y0.7141 
G01 X3.5516 Y0.7267 
G01 X3.5508 Y0.7277 
G01 X3.5508 Y0.7389 
G01 X3.5478 Y0.7419 
G01 X3.4569 Y0.7419 
G01 X3.4540 Y0.7389 
G01 X3.4540 Y0.7111 
G01 X3.4569 Y0.7081 
G01 X3.5416 Y0.7081 
G01 X3.5499 Y0.6998 
G01 X3.5499 Y0.6898 
G01 X3.5478 Y0.6919 
G01 X3.4569 Y0.6919 
G01 X3.4540 Y0.6889 
G01 X3.4540 Y0.6741 
G01 X3.3962 Y0.6741 
G01 X3.3878 Y0.6741 
G01 X3.3558 Y0.6421 
G01 X3.3499 Y0.6362 
G01 X3.3499 Y0.6122 
G01 X3.3211 Y0.5834 
G01 X3.3170 Y0.5851 
G01 X3.3070 Y0.5851 
G01 X3.2978 Y0.5813 
G01 X3.2907 Y0.5742 
G01 X3.2869 Y0.5650 
G01 X3.2869 Y0.5550 
G01 X3.2907 Y0.5458 
G01 X3.2978 Y0.5387 
G01 X3.3070 Y0.5349 
G01 X3.3170 Y0.5349 
G01 X3.3262 Y0.5387 
G01 X3.3333 Y0.5458 
G01 X3.3371 Y0.5550 
G01 X3.3371 Y0.5650 
G01 X3.3354 Y0.5691 
G01 X3.3701 Y0.6038 
G01 X3.3701 Y0.6122 
G01 X3.3701 Y0.6278 
G01 X3.3775 Y0.6352 
G01 X3.3749 Y0.6290 
G00 Z0.0200 
G00 X0.2151 Y2.1180 
G01 Z-0.0100 F10.00 
G01 X0.2151 Y2.1320 
G01 X0.2097 Y2.1449 
G01 X0.1999 Y2.1547 
G01 X0.1870 Y2.1601 
G01 X0.1730 Y2.1601 
G01 X0.1601 Y2.1547 
G01 X0.1502 Y2.1449 
G01 X0.1449 Y2.1320 
G01 X0.1449 Y2.1180 
G01 X0.1502 Y2.1051 
G01 X0.1601 Y2.0952 
G01 X0.1730 Y2.0899 
G01 X0.1870 Y2.0899 
G01 X0.1999 Y2.0952 
G01 X0.2097 Y2.1051 
G01 X0.2151 Y2.1180 
G00 Z0.0200 
G00 X0.2097 Y2.5449 
G01 Z-0.0100 F10.00 
G01 X0.1999 Y2.5547 
G01 X0.1870 Y2.5601 
G01 X0.1730 Y2.5601 
G01 X0.1601 Y2.5547 
G01 X0.1502 Y2.5449 
G01 X0.1449 Y2.5320 
G01 X0.1449 Y2.5180 
G01 X0.1502 Y2.5051 
G01 X0.1601 Y2.4952 
G01 X0.1730 Y2.4899 
G01 X0.1870 Y2.4899 
G01 X0.1999 Y2.4952 
G01 X0.2097 Y2.5051 
G01 X0.2150 Y2.5179 
G01 X1.0678 Y2.5179 
G01 X1.0762 Y2.5179 
G01 X1.1068 Y2.5485 
G01 X1.1071 Y2.5482 
G01 X1.1187 Y2.5434 
G01 X1.1313 Y2.5434 
G01 X1.1429 Y2.5482 
G01 X1.1518 Y2.5571 
G01 X1.1566 Y2.5687 
G01 X1.1566 Y2.5813 
G01 X1.1518 Y2.5929 
G01 X1.1429 Y2.6018 
G01 X1.1313 Y2.6066 
G01 X1.1187 Y2.6066 
G01 X1.1071 Y2.6018 
G01 X1.0982 Y2.5929 
G01 X1.0934 Y2.5813 
G01 X1.0934 Y2.5687 
G01 X1.0947 Y2.5656 
G01 X1.0946 Y2.5648 
G01 X1.0678 Y2.5381 
G01 X0.2126 Y2.5381 
G01 X0.2097 Y2.5449 
G00 Z0.0200 
G00 X0.2051 Y2.6180 
G01 Z-0.0100 F10.00 
G01 X0.2051 Y2.6320 
G01 X0.1997 Y2.6449 
G01 X0.1899 Y2.6547 
G01 X0.1770 Y2.6601 
G01 X0.1630 Y2.6601 
G01 X0.1501 Y2.6547 
G01 X0.1402 Y2.6449 
G01 X0.1349 Y2.6320 
G01 X0.1349 Y2.6180 
G01 X0.1402 Y2.6051 
G01 X0.1501 Y2.5952 
G01 X0.1630 Y2.5899 
G01 X0.1770 Y2.5899 
G01 X0.1899 Y2.5952 
G01 X0.1997 Y2.6051 
G01 X0.2051 Y2.6180 
G00 Z0.0200 
G00 X0.4066 Y2.9437 
G01 Z-0.0100 F10.00 
G01 X0.4066 Y2.9563 
G01 X0.4018 Y2.9679 
G01 X0.3929 Y2.9768 
G01 X0.3813 Y2.9816 
G01 X0.3687 Y2.9816 
G01 X0.3571 Y2.9768 
G01 X0.3482 Y2.9679 
G01 X0.3434 Y2.9563 
G01 X0.3434 Y2.9437 
G01 X0.3482 Y2.9321 
G01 X0.3490 Y2.9313 
G01 X0.1778 Y2.7601 
G01 X0.1730 Y2.7601 
G01 X0.1601 Y2.7547 
G01 X0.1502 Y2.7449 
G01 X0.1449 Y2.7320 
G01 X0.1449 Y2.7180 
G01 X0.1502 Y2.7051 
G01 X0.1601 Y2.6952 
G01 X0.1730 Y2.6899 
G01 X0.1870 Y2.6899 
G01 X0.1999 Y2.6952 
G01 X0.2097 Y2.7051 
G01 X0.2118 Y2.7100 
G01 X0.3434 Y2.5783 
G01 X0.3434 Y2.5687 
G01 X0.3482 Y2.5571 
G01 X0.3571 Y2.5482 
G01 X0.3687 Y2.5434 
G01 X0.3813 Y2.5434 
G01 X0.3929 Y2.5482 
G01 X0.4018 Y2.5571 
G01 X0.4066 Y2.5687 
G01 X0.4066 Y2.5813 
G01 X0.4024 Y2.5913 
G01 X0.4166 Y2.5771 
G01 X0.4149 Y2.5730 
G01 X0.4149 Y2.5630 
G01 X0.4187 Y2.5538 
G01 X0.4258 Y2.5467 
G01 X0.4350 Y2.5429 
G01 X0.4450 Y2.5429 
G01 X0.4542 Y2.5467 
G01 X0.4613 Y2.5538 
G01 X0.4651 Y2.5630 
G01 X0.4651 Y2.5730 
G01 X0.4613 Y2.5822 
G01 X0.4542 Y2.5893 
G01 X0.4450 Y2.5931 
G01 X0.4350 Y2.5931 
G01 X0.4309 Y2.5914 
G01 X0.3861 Y2.6362 
G01 X0.3802 Y2.6421 
G01 X0.3482 Y2.6421 
G01 X0.3469 Y2.6434 
G01 X0.4036 Y2.6434 
G01 X0.4066 Y2.6464 
G01 X0.4066 Y2.6699 
G01 X0.7184 Y2.6699 
G01 X0.7184 Y2.6464 
G01 X0.7214 Y2.6434 
G01 X0.7786 Y2.6434 
G01 X0.7816 Y2.6464 
G01 X0.7816 Y2.6699 
G01 X1.0934 Y2.6699 
G01 X1.0934 Y2.6464 
G01 X1.0964 Y2.6434 
G01 X1.1536 Y2.6434 
G01 X1.1566 Y2.6464 
G01 X1.1566 Y2.6699 
G01 X1.4684 Y2.6699 
G01 X1.4684 Y2.6464 
G01 X1.4714 Y2.6434 
G01 X1.5286 Y2.6434 
G01 X1.5316 Y2.6464 
G01 X1.5316 Y2.6699 
G01 X1.8434 Y2.6699 
G01 X1.8434 Y2.6464 
G01 X1.8464 Y2.6434 
G01 X1.9036 Y2.6434 
G01 X1.9066 Y2.6464 
G01 X1.9066 Y2.6699 
G01 X2.2184 Y2.6699 
G01 X2.2184 Y2.6464 
G01 X2.2214 Y2.6434 
G01 X2.2786 Y2.6434 
G01 X2.2816 Y2.6464 
G01 X2.2816 Y2.6699 
G01 X2.5934 Y2.6699 
G01 X2.5934 Y2.6464 
G01 X2.5964 Y2.6434 
G01 X2.6536 Y2.6434 
G01 X2.6566 Y2.6464 
G01 X2.6566 Y2.6699 
G01 X2.9684 Y2.6699 
G01 X2.9684 Y2.6464 
G01 X2.9714 Y2.6434 
G01 X3.0223 Y2.6434 
G01 X3.0278 Y2.6379 
G01 X3.0362 Y2.6379 
G01 X3.0937 Y2.6379 
G01 X3.0937 Y2.5993 
G01 X3.0967 Y2.5963 
G01 X3.1288 Y2.5963 
G01 X3.1227 Y2.5902 
G01 X3.1189 Y2.5810 
G01 X3.1189 Y2.5710 
G01 X3.1227 Y2.5618 
G01 X3.1298 Y2.5547 
G01 X3.1390 Y2.5509 
G01 X3.1490 Y2.5509 
G01 X3.1582 Y2.5547 
G01 X3.1653 Y2.5618 
G01 X3.1691 Y2.5710 
G01 X3.1691 Y2.5810 
G01 X3.1674 Y2.5851 
G01 X3.1786 Y2.5963 
G01 X3.2033 Y2.5963 
G01 X3.2063 Y2.5993 
G01 X3.2063 Y2.6507 
G01 X3.2033 Y2.6537 
G01 X3.1861 Y2.6537 
G01 X3.1861 Y2.6758 
G01 X3.1861 Y2.6842 
G01 X3.1808 Y2.6895 
G01 X3.1870 Y2.6869 
G01 X3.1970 Y2.6869 
G01 X3.2062 Y2.6907 
G01 X3.2133 Y2.6978 
G01 X3.2150 Y2.7019 
G01 X3.2278 Y2.7019 
G01 X3.2362 Y2.7019 
G01 X3.2412 Y2.7069 
G01 X3.3211 Y2.7069 
G01 X3.3241 Y2.7099 
G01 X3.3241 Y2.7401 
G01 X3.3211 Y2.7431 
G01 X3.2369 Y2.7431 
G01 X3.2339 Y2.7401 
G01 X3.2339 Y2.7286 
G01 X3.2324 Y2.7267 
G01 X3.2278 Y2.7221 
G01 X3.2150 Y2.7221 
G01 X3.2133 Y2.7262 
G01 X3.2062 Y2.7333 
G01 X3.1970 Y2.7371 
G01 X3.1870 Y2.7371 
G01 X3.1778 Y2.7333 
G01 X3.1707 Y2.7262 
G01 X3.1669 Y2.7170 
G01 X3.1669 Y2.7070 
G01 X3.1695 Y2.7008 
G01 X3.1621 Y2.7082 
G01 X3.1621 Y2.9398 
G01 X3.1936 Y2.9713 
G01 X3.2033 Y2.9713 
G01 X3.2063 Y2.9743 
G01 X3.2063 Y3.0257 
G01 X3.2033 Y3.0287 
G01 X3.1676 Y3.0287 
G01 X3.1646 Y3.0257 
G01 X3.1646 Y2.9743 
G01 X3.1663 Y2.9726 
G01 X3.1419 Y2.9482 
G01 X3.1419 Y2.9398 
G01 X3.1419 Y2.6998 
G01 X3.1478 Y2.6939 
G01 X3.1659 Y2.6758 
G01 X3.1659 Y2.6520 
G01 X3.1646 Y2.6507 
G01 X3.1646 Y2.6109 
G01 X3.1531 Y2.5994 
G01 X3.1490 Y2.6011 
G01 X3.1390 Y2.6011 
G01 X3.1354 Y2.5996 
G01 X3.1354 Y2.6507 
G01 X3.1324 Y2.6537 
G01 X3.1126 Y2.6537 
G01 X3.1124 Y2.6539 
G01 X3.1114 Y2.6560 
G01 X3.1096 Y2.6567 
G01 X3.1082 Y2.6581 
G01 X3.1058 Y2.6581 
G01 X3.1036 Y2.6589 
G01 X3.1018 Y2.6581 
G01 X3.0362 Y2.6581 
G01 X3.0336 Y2.6607 
G01 X3.0335 Y2.6613 
G01 X3.0316 Y2.6629 
G01 X3.0316 Y2.7036 
G01 X3.0286 Y2.7066 
G01 X2.9714 Y2.7066 
G01 X2.9684 Y2.7036 
G01 X2.9684 Y2.6901 
G01 X2.6566 Y2.6901 
G01 X2.6566 Y2.7036 
G01 X2.6536 Y2.7066 
G01 X2.5964 Y2.7066 
G01 X2.5934 Y2.7036 
G01 X2.5934 Y2.6901 
G01 X2.2816 Y2.6901 
G01 X2.2816 Y2.7036 
G01 X2.2786 Y2.7066 
G01 X2.2214 Y2.7066 
G01 X2.2184 Y2.7036 
G01 X2.2184 Y2.6901 
G01 X1.9066 Y2.6901 
G01 X1.9066 Y2.7036 
G01 X1.9036 Y2.7066 
G01 X1.8464 Y2.7066 
G01 X1.8434 Y2.7036 
G01 X1.8434 Y2.6901 
G01 X1.5316 Y2.6901 
G01 X1.5316 Y2.7036 
G01 X1.5286 Y2.7066 
G01 X1.4714 Y2.7066 
G01 X1.4684 Y2.7036 
G01 X1.4684 Y2.6901 
G01 X1.1566 Y2.6901 
G01 X1.1566 Y2.7036 
G01 X1.1536 Y2.7066 
G01 X1.0964 Y2.7066 
G01 X1.0934 Y2.7036 
G01 X1.0934 Y2.6901 
G01 X0.7816 Y2.6901 
G01 X0.7816 Y2.7036 
G01 X0.7786 Y2.7066 
G01 X0.7214 Y2.7066 
G01 X0.7184 Y2.7036 
G01 X0.7184 Y2.6901 
G01 X0.4066 Y2.6901 
G01 X0.4066 Y2.7036 
G01 X0.4036 Y2.7066 
G01 X0.3464 Y2.7066 
G01 X0.3434 Y2.7036 
G01 X0.3434 Y2.6469 
G01 X0.3381 Y2.6522 
G01 X0.3381 Y2.6998 
G01 X0.6362 Y2.9979 
G01 X3.0438 Y2.9979 
G01 X3.0522 Y2.9979 
G01 X3.0549 Y3.0006 
G01 X3.0590 Y2.9989 
G01 X3.0690 Y2.9989 
G01 X3.0782 Y3.0027 
G01 X3.0853 Y3.0098 
G01 X3.0891 Y3.0190 
G01 X3.0891 Y3.0290 
G01 X3.0865 Y3.0352 
G01 X3.0939 Y3.0278 
G01 X3.0939 Y3.0259 
G01 X3.0937 Y3.0257 
G01 X3.0937 Y3.0161 
G01 X3.0933 Y3.0139 
G01 X3.0937 Y3.0132 
G01 X3.0937 Y2.9743 
G01 X3.0967 Y2.9713 
G01 X3.1324 Y2.9713 
G01 X3.1354 Y2.9743 
G01 X3.1354 Y3.0257 
G01 X3.1324 Y3.0287 
G01 X3.1141 Y3.0287 
G01 X3.1141 Y3.0362 
G01 X3.0821 Y3.0682 
G01 X3.0762 Y3.0741 
G01 X3.0316 Y3.0741 
G01 X3.0316 Y3.0786 
G01 X3.0286 Y3.0816 
G01 X2.9714 Y3.0816 
G01 X2.9684 Y3.0786 
G01 X2.9684 Y3.0661 
G01 X2.6566 Y3.0661 
G01 X2.6566 Y3.0786 
G01 X2.6536 Y3.0816 
G01 X2.5964 Y3.0816 
G01 X2.5934 Y3.0786 
G01 X2.5934 Y3.0661 
G01 X2.2816 Y3.0661 
G01 X2.2816 Y3.0786 
G01 X2.2786 Y3.0816 
G01 X2.2214 Y3.0816 
G01 X2.2184 Y3.0786 
G01 X2.2184 Y3.0661 
G01 X1.9066 Y3.0661 
G01 X1.9066 Y3.0786 
G01 X1.9036 Y3.0816 
G01 X1.8464 Y3.0816 
G01 X1.8434 Y3.0786 
G01 X1.8434 Y3.0661 
G01 X1.5316 Y3.0661 
G01 X1.5316 Y3.0786 
G01 X1.5286 Y3.0816 
G01 X1.4714 Y3.0816 
G01 X1.4684 Y3.0786 
G01 X1.4684 Y3.0661 
G01 X1.1566 Y3.0661 
G01 X1.1566 Y3.0786 
G01 X1.1536 Y3.0816 
G01 X1.0964 Y3.0816 
G01 X1.0934 Y3.0786 
G01 X1.0934 Y3.0661 
G01 X0.7816 Y3.0661 
G01 X0.7816 Y3.0786 
G01 X0.7786 Y3.0816 
G01 X0.7214 Y3.0816 
G01 X0.7184 Y3.0786 
G01 X0.7184 Y3.0661 
G01 X0.4066 Y3.0661 
G01 X0.4066 Y3.0786 
G01 X0.4036 Y3.0816 
G01 X0.3464 Y3.0816 
G01 X0.3434 Y3.0786 
G01 X0.3434 Y3.0217 
G01 X0.0819 Y2.7602 
G01 X0.0817 Y2.7601 
G01 X0.0730 Y2.7601 
G01 X0.0601 Y2.7547 
G01 X0.0502 Y2.7449 
G01 X0.0449 Y2.7320 
G01 X0.0449 Y2.7180 
G01 X0.0502 Y2.7051 
G01 X0.0601 Y2.6952 
G01 X0.0730 Y2.6899 
G01 X0.0870 Y2.6899 
G01 X0.0999 Y2.6952 
G01 X0.1097 Y2.7051 
G01 X0.1151 Y2.7180 
G01 X0.1151 Y2.7320 
G01 X0.1097 Y2.7449 
G01 X0.1024 Y2.7522 
G01 X0.3652 Y3.0150 
G01 X0.3667 Y3.0153 
G01 X0.3681 Y3.0178 
G01 X0.3687 Y3.0184 
G01 X0.4036 Y3.0184 
G01 X0.4066 Y3.0214 
G01 X0.4066 Y3.0459 
G01 X0.7184 Y3.0459 
G01 X0.7184 Y3.0214 
G01 X0.7214 Y3.0184 
G01 X0.7786 Y3.0184 
G01 X0.7816 Y3.0214 
G01 X0.7816 Y3.0459 
G01 X1.0934 Y3.0459 
G01 X1.0934 Y3.0214 
G01 X1.0964 Y3.0184 
G01 X1.1536 Y3.0184 
G01 X1.1566 Y3.0214 
G01 X1.1566 Y3.0459 
G01 X1.4684 Y3.0459 
G01 X1.4684 Y3.0214 
G01 X1.4714 Y3.0184 
G01 X1.5286 Y3.0184 
G01 X1.5316 Y3.0214 
G01 X1.5316 Y3.0459 
G01 X1.8434 Y3.0459 
G01 X1.8434 Y3.0214 
G01 X1.8464 Y3.0184 
G01 X1.9036 Y3.0184 
G01 X1.9066 Y3.0214 
G01 X1.9066 Y3.0459 
G01 X2.2184 Y3.0459 
G01 X2.2184 Y3.0214 
G01 X2.2214 Y3.0184 
G01 X2.2786 Y3.0184 
G01 X2.2816 Y3.0214 
G01 X2.2816 Y3.0459 
G01 X2.5934 Y3.0459 
G01 X2.5934 Y3.0214 
G01 X2.5964 Y3.0184 
G01 X2.6536 Y3.0184 
G01 X2.6566 Y3.0214 
G01 X2.6566 Y3.0459 
G01 X2.9684 Y3.0459 
G01 X2.9684 Y3.0214 
G01 X2.9714 Y3.0184 
G01 X3.0286 Y3.0184 
G01 X3.0316 Y3.0214 
G01 X3.0316 Y3.0539 
G01 X3.0678 Y3.0539 
G01 X3.0752 Y3.0465 
G01 X3.0690 Y3.0491 
G01 X3.0590 Y3.0491 
G01 X3.0498 Y3.0453 
G01 X3.0427 Y3.0382 
G01 X3.0389 Y3.0290 
G01 X3.0389 Y3.0190 
G01 X3.0393 Y3.0181 
G01 X0.6278 Y3.0181 
G01 X0.6219 Y3.0122 
G01 X0.3179 Y2.7082 
G01 X0.3179 Y2.6998 
G01 X0.3179 Y2.6438 
G01 X0.3238 Y2.6379 
G01 X0.3398 Y2.6219 
G01 X0.3482 Y2.6219 
G01 X0.3718 Y2.6219 
G01 X0.3913 Y2.6024 
G01 X0.3813 Y2.6066 
G01 X0.3687 Y2.6066 
G01 X0.3571 Y2.6018 
G01 X0.3528 Y2.5975 
G01 X0.2176 Y2.7326 
G01 X0.2176 Y2.7332 
G01 X0.2148 Y2.7355 
G01 X0.2128 Y2.7374 
G01 X0.2097 Y2.7449 
G01 X0.2004 Y2.7542 
G01 X0.3649 Y2.9187 
G01 X0.3660 Y2.9189 
G01 X0.3663 Y2.9194 
G01 X0.3687 Y2.9184 
G01 X0.3813 Y2.9184 
G01 X0.3929 Y2.9232 
G01 X0.4018 Y2.9321 
G01 X0.4066 Y2.9437 
G00 Z0.0200 
G00 X3.5631 Y2.5431 
G01 Z-0.0100 F10.00 
G01 X3.4986 Y2.5431 
G01 X3.4935 Y2.5448 
G01 X3.4922 Y2.5461 
G01 X3.4896 Y2.5461 
G01 X3.4872 Y2.5469 
G01 X3.4856 Y2.5461 
G01 X3.4390 Y2.5461 
G01 X3.4373 Y2.5502 
G01 X3.4302 Y2.5573 
G01 X3.4210 Y2.5611 
G01 X3.4110 Y2.5611 
G01 X3.4018 Y2.5573 
G01 X3.3947 Y2.5502 
G01 X3.3909 Y2.5410 
G01 X3.3909 Y2.5310 
G01 X3.3947 Y2.5218 
G01 X3.4018 Y2.5147 
G01 X3.4110 Y2.5109 
G01 X3.4210 Y2.5109 
G01 X3.4302 Y2.5147 
G01 X3.4373 Y2.5218 
G01 X3.4390 Y2.5259 
G01 X3.4759 Y2.5259 
G01 X3.4759 Y2.5099 
G01 X3.4789 Y2.5069 
G01 X3.5631 Y2.5069 
G01 X3.5661 Y2.5099 
G01 X3.5661 Y2.5401 
G01 X3.5631 Y2.5431 
G00 Z0.0200 
G00 X3.3211 Y2.5931 
G01 Z-0.0100 F10.00 
G01 X3.2369 Y2.5931 
G01 X3.2339 Y2.5901 
G01 X3.2339 Y2.5769 
G01 X3.2322 Y2.5745 
G01 X3.2301 Y2.5723 
G01 X3.2293 Y2.5742 
G01 X3.2222 Y2.5813 
G01 X3.2130 Y2.5851 
G01 X3.2030 Y2.5851 
G01 X3.1938 Y2.5813 
G01 X3.1867 Y2.5742 
G01 X3.1829 Y2.5650 
G01 X3.1829 Y2.5550 
G01 X3.1867 Y2.5458 
G01 X3.1938 Y2.5387 
G01 X3.2030 Y2.5349 
G01 X3.2130 Y2.5349 
G01 X3.2222 Y2.5387 
G01 X3.2293 Y2.5458 
G01 X3.2310 Y2.5499 
G01 X3.2362 Y2.5499 
G01 X3.2432 Y2.5569 
G01 X3.3211 Y2.5569 
G01 X3.3241 Y2.5599 
G01 X3.3241 Y2.5901 
G01 X3.3211 Y2.5931 
G00 Z0.0200 
G00 X3.5631 Y2.7431 
G01 Z-0.0100 F10.00 
G01 X3.4789 Y2.7431 
G01 X3.4759 Y2.7401 
G01 X3.4759 Y2.7222 
G01 X3.4571 Y2.7034 
G01 X3.4530 Y2.7051 
G01 X3.4430 Y2.7051 
G01 X3.4338 Y2.7013 
G01 X3.4267 Y2.6942 
G01 X3.4229 Y2.6850 
G01 X3.4229 Y2.6750 
G01 X3.4267 Y2.6658 
G01 X3.4338 Y2.6587 
G01 X3.4430 Y2.6549 
G01 X3.4530 Y2.6549 
G01 X3.4622 Y2.6587 
G01 X3.4693 Y2.6658 
G01 X3.4731 Y2.6750 
G01 X3.4731 Y2.6850 
G01 X3.4714 Y2.6891 
G01 X3.4892 Y2.7069 
G01 X3.5631 Y2.7069 
G01 X3.5661 Y2.7099 
G01 X3.5661 Y2.7401 
G01 X3.5631 Y2.7431 
G00 Z0.0200 
G00 X3.5631 Y2.7931 
G01 Z-0.0100 F10.00 
G01 X3.5383 Y2.7931 
G01 X3.5422 Y2.7947 
G01 X3.5493 Y2.8018 
G01 X3.5531 Y2.8110 
G01 X3.5531 Y2.8210 
G01 X3.5493 Y2.8302 
G01 X3.5422 Y2.8373 
G01 X3.5330 Y2.8411 
G01 X3.5230 Y2.8411 
G01 X3.5138 Y2.8373 
G01 X3.5067 Y2.8302 
G01 X3.5029 Y2.8210 
G01 X3.5029 Y2.8110 
G01 X3.5067 Y2.8018 
G01 X3.5138 Y2.7947 
G01 X3.5177 Y2.7931 
G01 X3.4789 Y2.7931 
G01 X3.4759 Y2.7901 
G01 X3.4759 Y2.7599 
G01 X3.4789 Y2.7569 
G01 X3.5631 Y2.7569 
G01 X3.5661 Y2.7599 
G01 X3.5661 Y2.7901 
G01 X3.5631 Y2.7931 
G00 Z0.0200 
G00 X3.3211 Y2.7931 
G01 Z-0.0100 F10.00 
G01 X3.2823 Y2.7931 
G01 X3.2862 Y2.7947 
G01 X3.2933 Y2.8018 
G01 X3.2971 Y2.8110 
G01 X3.2971 Y2.8210 
G01 X3.2945 Y2.8272 
G01 X3.3259 Y2.7958 
G01 X3.3259 Y2.7082 
G01 X3.3108 Y2.6931 
G01 X3.2369 Y2.6931 
G01 X3.2339 Y2.6901 
G01 X3.2339 Y2.6599 
G01 X3.2369 Y2.6569 
G01 X3.3211 Y2.6569 
G01 X3.3241 Y2.6599 
G01 X3.3241 Y2.6778 
G01 X3.3461 Y2.6998 
G01 X3.3461 Y2.7082 
G01 X3.3461 Y2.8042 
G01 X3.3402 Y2.8101 
G01 X3.2842 Y2.8661 
G01 X3.2758 Y2.8661 
G01 X3.2598 Y2.8661 
G01 X3.2539 Y2.8602 
G01 X3.2331 Y2.8394 
G01 X3.2290 Y2.8411 
G01 X3.2190 Y2.8411 
G01 X3.2098 Y2.8373 
G01 X3.2027 Y2.8302 
G01 X3.1989 Y2.8210 
G01 X3.1989 Y2.8110 
G01 X3.2027 Y2.8018 
G01 X3.2098 Y2.7947 
G01 X3.2190 Y2.7909 
G01 X3.2290 Y2.7909 
G01 X3.2382 Y2.7947 
G01 X3.2453 Y2.8018 
G01 X3.2480 Y2.8084 
G01 X3.2507 Y2.8018 
G01 X3.2578 Y2.7947 
G01 X3.2617 Y2.7931 
G01 X3.2369 Y2.7931 
G01 X3.2339 Y2.7901 
G01 X3.2339 Y2.7599 
G01 X3.2369 Y2.7569 
G01 X3.3211 Y2.7569 
G01 X3.3241 Y2.7599 
G01 X3.3241 Y2.7901 
G01 X3.3211 Y2.7931 
G00 Z0.0200 
G00 X3.5631 Y1.8681 
G01 Z-0.0100 F10.00 
G01 X3.4789 Y1.8681 
G01 X3.4759 Y1.8651 
G01 X3.4759 Y1.8349 
G01 X3.4782 Y1.8326 
G01 X3.4770 Y1.8331 
G01 X3.4670 Y1.8331 
G01 X3.4578 Y1.8293 
G01 X3.4507 Y1.8222 
G01 X3.4469 Y1.8130 
G01 X3.4469 Y1.8030 
G01 X3.4507 Y1.7938 
G01 X3.4578 Y1.7867 
G01 X3.4619 Y1.7850 
G01 X3.4619 Y1.7461 
G01 X3.4287 Y1.7461 
G01 X3.4287 Y1.7533 
G01 X3.4257 Y1.7563 
G01 X3.3743 Y1.7563 
G01 X3.3713 Y1.7533 
G01 X3.3713 Y1.7176 
G01 X3.3743 Y1.7146 
G01 X3.4257 Y1.7146 
G01 X3.4287 Y1.7176 
G01 X3.4287 Y1.7259 
G01 X3.4762 Y1.7259 
G01 X3.5078 Y1.7259 
G01 X3.5152 Y1.7185 
G01 X3.5090 Y1.7211 
G01 X3.4990 Y1.7211 
G01 X3.4898 Y1.7173 
G01 X3.4827 Y1.7102 
G01 X3.4789 Y1.7010 
G01 X3.4789 Y1.6910 
G01 X3.4793 Y1.6901 
G01 X3.4160 Y1.6901 
G01 X3.4120 Y1.6902 
G01 X3.4119 Y1.6901 
G01 X3.4118 Y1.6901 
G01 X3.4088 Y1.6871 
G01 X3.4071 Y1.6854 
G01 X3.3743 Y1.6854 
G01 X3.3713 Y1.6824 
G01 X3.3713 Y1.6467 
G01 X3.3739 Y1.6441 
G01 X3.3739 Y1.5451 
G01 X3.3710 Y1.5451 
G01 X3.3618 Y1.5413 
G01 X3.3547 Y1.5342 
G01 X3.3509 Y1.5250 
G01 X3.3509 Y1.5150 
G01 X3.3526 Y1.5109 
G01 X3.3318 Y1.4901 
G01 X3.3259 Y1.4842 
G01 X3.3098 Y1.4681 
G01 X3.2369 Y1.4681 
G01 X3.2339 Y1.4651 
G01 X3.2339 Y1.4349 
G01 X3.2369 Y1.4319 
G01 X3.3211 Y1.4319 
G01 X3.3241 Y1.4349 
G01 X3.3241 Y1.4538 
G01 X3.3259 Y1.4556 
G01 X3.3259 Y1.3882 
G01 X3.3259 Y1.3322 
G01 X3.3158 Y1.3221 
G01 X3.3142 Y1.3221 
G01 X3.3125 Y1.3229 
G01 X3.3102 Y1.3221 
G01 X3.3078 Y1.3221 
G01 X3.3064 Y1.3207 
G01 X3.2992 Y1.3181 
G01 X3.2369 Y1.3181 
G01 X3.2339 Y1.3151 
G01 X3.2339 Y1.2849 
G01 X3.2369 Y1.2819 
G01 X3.3211 Y1.2819 
G01 X3.3241 Y1.2849 
G01 X3.3241 Y1.3019 
G01 X3.3242 Y1.3019 
G01 X3.3402 Y1.3179 
G01 X3.3461 Y1.3238 
G01 X3.3461 Y1.3626 
G01 X3.3550 Y1.3589 
G01 X3.3650 Y1.3589 
G01 X3.3742 Y1.3627 
G01 X3.3813 Y1.3698 
G01 X3.3851 Y1.3790 
G01 X3.3851 Y1.3890 
G01 X3.3813 Y1.3982 
G01 X3.3742 Y1.4053 
G01 X3.3650 Y1.4091 
G01 X3.3550 Y1.4091 
G01 X3.3461 Y1.4054 
G01 X3.3461 Y1.4758 
G01 X3.3669 Y1.4966 
G01 X3.3710 Y1.4949 
G01 X3.3810 Y1.4949 
G01 X3.3902 Y1.4987 
G01 X3.3973 Y1.5058 
G01 X3.4011 Y1.5150 
G01 X3.4011 Y1.5250 
G01 X3.3973 Y1.5342 
G01 X3.3941 Y1.5374 
G01 X3.3941 Y1.6437 
G01 X3.4257 Y1.6437 
G01 X3.4287 Y1.6467 
G01 X3.4287 Y1.6699 
G01 X3.4838 Y1.6699 
G01 X3.4922 Y1.6699 
G01 X3.4949 Y1.6726 
G01 X3.4990 Y1.6709 
G01 X3.5090 Y1.6709 
G01 X3.5182 Y1.6747 
G01 X3.5253 Y1.6818 
G01 X3.5291 Y1.6910 
G01 X3.5291 Y1.7010 
G01 X3.5265 Y1.7072 
G01 X3.5339 Y1.6998 
G01 X3.5339 Y1.6167 
G01 X3.5330 Y1.6171 
G01 X3.5230 Y1.6171 
G01 X3.5138 Y1.6133 
G01 X3.5067 Y1.6062 
G01 X3.5029 Y1.5970 
G01 X3.5029 Y1.5870 
G01 X3.5067 Y1.5778 
G01 X3.5138 Y1.5707 
G01 X3.5201 Y1.5681 
G01 X3.4789 Y1.5681 
G01 X3.4759 Y1.5651 
G01 X3.4759 Y1.5349 
G01 X3.4789 Y1.5319 
G01 X3.5631 Y1.5319 
G01 X3.5661 Y1.5349 
G01 X3.5661 Y1.5651 
G01 X3.5631 Y1.5681 
G01 X3.5541 Y1.5681 
G01 X3.5541 Y1.5878 
G01 X3.5541 Y1.7082 
G01 X3.5482 Y1.7141 
G01 X3.5162 Y1.7461 
G01 X3.5078 Y1.7461 
G01 X3.4821 Y1.7461 
G01 X3.4821 Y1.7850 
G01 X3.4862 Y1.7867 
G01 X3.4933 Y1.7938 
G01 X3.4960 Y1.8004 
G01 X3.4987 Y1.7938 
G01 X3.5058 Y1.7867 
G01 X3.5150 Y1.7829 
G01 X3.5250 Y1.7829 
G01 X3.5342 Y1.7867 
G01 X3.5413 Y1.7938 
G01 X3.5451 Y1.8030 
G01 X3.5451 Y1.8130 
G01 X3.5413 Y1.8222 
G01 X3.5342 Y1.8293 
G01 X3.5301 Y1.8310 
G01 X3.5301 Y1.8319 
G01 X3.5631 Y1.8319 
G01 X3.5661 Y1.8349 
G01 X3.5661 Y1.8651 
G01 X3.5631 Y1.8681 
G00 Z0.0200 
G00 X3.5631 Y2.0181 
G01 Z-0.0100 F10.00 
G01 X3.4789 Y2.0181 
G01 X3.4759 Y2.0151 
G01 X3.4759 Y2.0101 
G01 X3.4550 Y2.0101 
G01 X3.4533 Y2.0142 
G01 X3.4462 Y2.0213 
G01 X3.4370 Y2.0251 
G01 X3.4270 Y2.0251 
G01 X3.4178 Y2.0213 
G01 X3.4107 Y2.0142 
G01 X3.4069 Y2.0050 
G01 X3.4069 Y1.9950 
G01 X3.4107 Y1.9858 
G01 X3.4178 Y1.9787 
G01 X3.4270 Y1.9749 
G01 X3.4370 Y1.9749 
G01 X3.4462 Y1.9787 
G01 X3.4533 Y1.9858 
G01 X3.4550 Y1.9899 
G01 X3.4759 Y1.9899 
G01 X3.4759 Y1.9849 
G01 X3.4789 Y1.9819 
G01 X3.5631 Y1.9819 
G01 X3.5661 Y1.9849 
G01 X3.5661 Y2.0151 
G01 X3.5631 Y2.0181 
G00 Z0.0200 
G00 X3.5631 Y2.1181 
G01 Z-0.0100 F10.00 
G01 X3.4789 Y2.1181 
G01 X3.4759 Y2.1151 
G01 X3.4759 Y2.0981 
G01 X3.4710 Y2.0981 
G01 X3.4693 Y2.1022 
G01 X3.4622 Y2.1093 
G01 X3.4530 Y2.1131 
G01 X3.4430 Y2.1131 
G01 X3.4338 Y2.1093 
G01 X3.4267 Y2.1022 
G01 X3.4229 Y2.0930 
G01 X3.4229 Y2.0830 
G01 X3.4267 Y2.0738 
G01 X3.4338 Y2.0667 
G01 X3.4430 Y2.0629 
G01 X3.4530 Y2.0629 
G01 X3.4622 Y2.0667 
G01 X3.4693 Y2.0738 
G01 X3.4710 Y2.0779 
G01 X3.4858 Y2.0779 
G01 X3.4875 Y2.0771 
G01 X3.4898 Y2.0779 
G01 X3.4922 Y2.0779 
G01 X3.4936 Y2.0793 
G01 X3.5008 Y2.0819 
G01 X3.5631 Y2.0819 
G01 X3.5661 Y2.0849 
G01 X3.5661 Y2.1151 
G01 X3.5631 Y2.1181 
G00 Z0.0200 
G00 X3.2369 Y2.1681 
G01 Z-0.0100 F10.00 
G01 X3.2339 Y2.1651 
G01 X3.2339 Y2.1349 
G01 X3.2369 Y2.1319 
G01 X3.3211 Y2.1319 
G01 X3.3241 Y2.1349 
G01 X3.3241 Y2.1499 
G01 X3.3322 Y2.1499 
G01 X3.3935 Y2.2112 
G01 X3.3909 Y2.2050 
G01 X3.3909 Y2.1950 
G01 X3.3926 Y2.1909 
G01 X3.3238 Y2.1221 
G01 X3.3142 Y2.1221 
G01 X3.3125 Y2.1229 
G01 X3.3102 Y2.1221 
G01 X3.3078 Y2.1221 
G01 X3.3064 Y2.1207 
G01 X3.2992 Y2.1181 
G01 X3.2369 Y2.1181 
G01 X3.2339 Y2.1151 
G01 X3.2339 Y2.0849 
G01 X3.2369 Y2.0819 
G01 X3.3211 Y2.0819 
G01 X3.3241 Y2.0849 
G01 X3.3241 Y2.1019 
G01 X3.3322 Y2.1019 
G01 X3.4069 Y2.1766 
G01 X3.4110 Y2.1749 
G01 X3.4210 Y2.1749 
G01 X3.4302 Y2.1787 
G01 X3.4373 Y2.1858 
G01 X3.4411 Y2.1950 
G01 X3.4411 Y2.2050 
G01 X3.4373 Y2.2142 
G01 X3.4302 Y2.2213 
G01 X3.4210 Y2.2251 
G01 X3.4110 Y2.2251 
G01 X3.4048 Y2.2225 
G01 X3.4442 Y2.2619 
G01 X3.4501 Y2.2678 
G01 X3.4501 Y2.2970 
G01 X3.4542 Y2.2987 
G01 X3.4613 Y2.3058 
G01 X3.4651 Y2.3150 
G01 X3.4651 Y2.3250 
G01 X3.4625 Y2.3312 
G01 X3.4779 Y2.3158 
G01 X3.4779 Y2.2202 
G01 X3.4779 Y2.2118 
G01 X3.4806 Y2.2091 
G01 X3.4789 Y2.2050 
G01 X3.4789 Y2.1950 
G01 X3.4827 Y2.1858 
G01 X3.4898 Y2.1787 
G01 X3.4990 Y2.1749 
G01 X3.5090 Y2.1749 
G01 X3.5182 Y2.1787 
G01 X3.5253 Y2.1858 
G01 X3.5291 Y2.1950 
G01 X3.5291 Y2.2050 
G01 X3.5265 Y2.2112 
G01 X3.5339 Y2.2038 
G01 X3.5339 Y2.1681 
G01 X3.4789 Y2.1681 
G01 X3.4759 Y2.1651 
G01 X3.4759 Y2.1541 
G01 X3.4710 Y2.1541 
G01 X3.4693 Y2.1582 
G01 X3.4622 Y2.1653 
G01 X3.4530 Y2.1691 
G01 X3.4430 Y2.1691 
G01 X3.4338 Y2.1653 
G01 X3.4267 Y2.1582 
G01 X3.4229 Y2.1490 
G01 X3.4229 Y2.1390 
G01 X3.4267 Y2.1298 
G01 X3.4338 Y2.1227 
G01 X3.4430 Y2.1189 
G01 X3.4530 Y2.1189 
G01 X3.4622 Y2.1227 
G01 X3.4693 Y2.1298 
G01 X3.4710 Y2.1339 
G01 X3.4769 Y2.1339 
G01 X3.4789 Y2.1319 
G01 X3.5631 Y2.1319 
G01 X3.5661 Y2.1349 
G01 X3.5661 Y2.1651 
G01 X3.5631 Y2.1681 
G01 X3.5541 Y2.1681 
G01 X3.5541 Y2.2122 
G01 X3.5482 Y2.2181 
G01 X3.5403 Y2.2259 
G01 X3.5422 Y2.2267 
G01 X3.5493 Y2.2338 
G01 X3.5531 Y2.2430 
G01 X3.5531 Y2.2530 
G01 X3.5493 Y2.2622 
G01 X3.5422 Y2.2693 
G01 X3.5330 Y2.2731 
G01 X3.5230 Y2.2731 
G01 X3.5138 Y2.2693 
G01 X3.5067 Y2.2622 
G01 X3.5029 Y2.2530 
G01 X3.5029 Y2.2430 
G01 X3.5067 Y2.2338 
G01 X3.5138 Y2.2267 
G01 X3.5179 Y2.2250 
G01 X3.5179 Y2.2214 
G01 X3.5090 Y2.2251 
G01 X3.4990 Y2.2251 
G01 X3.4981 Y2.2247 
G01 X3.4981 Y2.3242 
G01 X3.4922 Y2.3301 
G01 X3.4634 Y2.3589 
G01 X3.4651 Y2.3630 
G01 X3.4651 Y2.3730 
G01 X3.4613 Y2.3822 
G01 X3.4542 Y2.3893 
G01 X3.4450 Y2.3931 
G01 X3.4350 Y2.3931 
G01 X3.4288 Y2.3905 
G01 X3.4759 Y2.4376 
G01 X3.4759 Y2.4099 
G01 X3.4789 Y2.4069 
G01 X3.5097 Y2.4069 
G01 X3.5058 Y2.4053 
G01 X3.4987 Y2.3982 
G01 X3.4949 Y2.3890 
G01 X3.4949 Y2.3790 
G01 X3.4987 Y2.3698 
G01 X3.5058 Y2.3627 
G01 X3.5150 Y2.3589 
G01 X3.5250 Y2.3589 
G01 X3.5342 Y2.3627 
G01 X3.5413 Y2.3698 
G01 X3.5451 Y2.3790 
G01 X3.5451 Y2.3890 
G01 X3.5413 Y2.3982 
G01 X3.5342 Y2.4053 
G01 X3.5303 Y2.4069 
G01 X3.5631 Y2.4069 
G01 X3.5661 Y2.4099 
G01 X3.5661 Y2.4401 
G01 X3.5631 Y2.4431 
G01 X3.4814 Y2.4431 
G01 X3.4935 Y2.4552 
G01 X3.4986 Y2.4569 
G01 X3.5631 Y2.4569 
G01 X3.5661 Y2.4599 
G01 X3.5661 Y2.4901 
G01 X3.5631 Y2.4931 
G01 X3.4789 Y2.4931 
G01 X3.4759 Y2.4901 
G01 X3.4759 Y2.4662 
G01 X3.3718 Y2.3621 
G01 X3.3659 Y2.3562 
G01 X3.3659 Y2.3110 
G01 X3.3618 Y2.3093 
G01 X3.3547 Y2.3022 
G01 X3.3509 Y2.2930 
G01 X3.3509 Y2.2830 
G01 X3.3535 Y2.2768 
G01 X3.3461 Y2.2842 
G01 X3.3461 Y2.4038 
G01 X3.3589 Y2.4166 
G01 X3.3630 Y2.4149 
G01 X3.3730 Y2.4149 
G01 X3.3822 Y2.4187 
G01 X3.3893 Y2.4258 
G01 X3.3931 Y2.4350 
G01 X3.3931 Y2.4450 
G01 X3.3893 Y2.4542 
G01 X3.3822 Y2.4613 
G01 X3.3730 Y2.4651 
G01 X3.3630 Y2.4651 
G01 X3.3538 Y2.4613 
G01 X3.3467 Y2.4542 
G01 X3.3461 Y2.4527 
G01 X3.3461 Y2.4602 
G01 X3.3461 Y2.5078 
G01 X3.4255 Y2.5872 
G01 X3.4229 Y2.5810 
G01 X3.4229 Y2.5710 
G01 X3.4267 Y2.5618 
G01 X3.4338 Y2.5547 
G01 X3.4430 Y2.5509 
G01 X3.4530 Y2.5509 
G01 X3.4622 Y2.5547 
G01 X3.4693 Y2.5618 
G01 X3.4710 Y2.5659 
G01 X3.4759 Y2.5659 
G01 X3.4759 Y2.5599 
G01 X3.4789 Y2.5569 
G01 X3.5631 Y2.5569 
G01 X3.5661 Y2.5599 
G01 X3.5661 Y2.5901 
G01 X3.5631 Y2.5931 
G01 X3.5381 Y2.5931 
G01 X3.5381 Y2.6069 
G01 X3.5631 Y2.6069 
G01 X3.5661 Y2.6099 
G01 X3.5661 Y2.6401 
G01 X3.5631 Y2.6431 
G01 X3.4814 Y2.6431 
G01 X3.4935 Y2.6552 
G01 X3.4986 Y2.6569 
G01 X3.5631 Y2.6569 
G01 X3.5661 Y2.6599 
G01 X3.5661 Y2.6901 
G01 X3.5631 Y2.6931 
G01 X3.4789 Y2.6931 
G01 X3.4759 Y2.6901 
G01 X3.4759 Y2.6662 
G01 X3.3318 Y2.5221 
G01 X3.3259 Y2.5162 
G01 X3.3259 Y2.4602 
G01 X3.3088 Y2.4431 
G01 X3.2369 Y2.4431 
G01 X3.2339 Y2.4401 
G01 X3.2339 Y2.4101 
G01 X3.1670 Y2.4101 
G01 X3.1653 Y2.4142 
G01 X3.1582 Y2.4213 
G01 X3.1490 Y2.4251 
G01 X3.1390 Y2.4251 
G01 X3.1328 Y2.4225 
G01 X3.1802 Y2.4699 
G01 X3.2339 Y2.4699 
G01 X3.2339 Y2.4599 
G01 X3.2369 Y2.4569 
G01 X3.3211 Y2.4569 
G01 X3.3241 Y2.4599 
G01 X3.3241 Y2.4901 
G01 X3.3211 Y2.4931 
G01 X3.2369 Y2.4931 
G01 X3.2339 Y2.4901 
G01 X3.2339 Y2.4901 
G01 X3.1718 Y2.4901 
G01 X3.1659 Y2.4842 
G01 X3.1181 Y2.4363 
G01 X3.1173 Y2.4382 
G01 X3.1102 Y2.4453 
G01 X3.1010 Y2.4491 
G01 X3.0910 Y2.4491 
G01 X3.0848 Y2.4465 
G01 X3.1482 Y2.5099 
G01 X3.2339 Y2.5099 
G01 X3.2339 Y2.5099 
G01 X3.2369 Y2.5069 
G01 X3.3211 Y2.5069 
G01 X3.3241 Y2.5099 
G01 X3.3241 Y2.5401 
G01 X3.3211 Y2.5431 
G01 X3.2369 Y2.5431 
G01 X3.2339 Y2.5401 
G01 X3.2339 Y2.5301 
G01 X3.1398 Y2.5301 
G01 X3.1339 Y2.5242 
G01 X3.0198 Y2.4101 
G01 X2.8950 Y2.4101 
G01 X2.8933 Y2.4142 
G01 X2.8862 Y2.4213 
G01 X2.8770 Y2.4251 
G01 X2.8670 Y2.4251 
G01 X2.8578 Y2.4213 
G01 X2.8507 Y2.4142 
G01 X2.8469 Y2.4050 
G01 X2.8469 Y2.3950 
G01 X2.8507 Y2.3858 
G01 X2.8578 Y2.3787 
G01 X2.8670 Y2.3749 
G01 X2.8770 Y2.3749 
G01 X2.8862 Y2.3787 
G01 X2.8933 Y2.3858 
G01 X2.8950 Y2.3899 
G01 X3.0198 Y2.3899 
G01 X3.0282 Y2.3899 
G01 X3.0735 Y2.4352 
G01 X3.0709 Y2.4290 
G01 X3.0709 Y2.4190 
G01 X3.0747 Y2.4098 
G01 X3.0818 Y2.4027 
G01 X3.0910 Y2.3989 
G01 X3.1010 Y2.3989 
G01 X3.1102 Y2.4027 
G01 X3.1173 Y2.4098 
G01 X3.1190 Y2.4139 
G01 X3.1226 Y2.4139 
G01 X3.1189 Y2.4050 
G01 X3.1189 Y2.3950 
G01 X3.1227 Y2.3858 
G01 X3.1298 Y2.3787 
G01 X3.1390 Y2.3749 
G01 X3.1490 Y2.3749 
G01 X3.1582 Y2.3787 
G01 X3.1653 Y2.3858 
G01 X3.1670 Y2.3899 
G01 X3.2539 Y2.3899 
G01 X3.2539 Y2.3482 
G01 X3.2465 Y2.3408 
G01 X3.2491 Y2.3470 
G01 X3.2491 Y2.3570 
G01 X3.2453 Y2.3662 
G01 X3.2382 Y2.3733 
G01 X3.2290 Y2.3771 
G01 X3.2190 Y2.3771 
G01 X3.2098 Y2.3733 
G01 X3.2027 Y2.3662 
G01 X3.1989 Y2.3570 
G01 X3.1989 Y2.3470 
G01 X3.2006 Y2.3429 
G01 X3.1419 Y2.2842 
G01 X3.1419 Y2.2758 
G01 X3.1419 Y2.2682 
G01 X3.1354 Y2.2617 
G01 X3.1354 Y2.2648 
G01 X3.1360 Y2.2657 
G01 X3.1381 Y2.2678 
G01 X3.1381 Y2.2692 
G01 X3.1388 Y2.2703 
G01 X3.1381 Y2.2732 
G01 X3.1381 Y2.2838 
G01 X3.1402 Y2.2859 
G01 X3.1402 Y2.2859 
G01 X3.1461 Y2.2918 
G01 X3.1461 Y2.3078 
G01 X3.1461 Y2.3162 
G01 X3.1141 Y2.3482 
G01 X3.1082 Y2.3541 
G01 X3.0522 Y2.3541 
G01 X3.0438 Y2.3541 
G01 X3.0385 Y2.3488 
G01 X3.0411 Y2.3550 
G01 X3.0411 Y2.3650 
G01 X3.0373 Y2.3742 
G01 X3.0302 Y2.3813 
G01 X3.0210 Y2.3851 
G01 X3.0110 Y2.3851 
G01 X3.0018 Y2.3813 
G01 X2.9947 Y2.3742 
G01 X2.9930 Y2.3701 
G01 X2.1002 Y2.3701 
G01 X1.9781 Y2.4922 
G01 X1.9781 Y2.4922 
G01 X1.9722 Y2.4981 
G01 X1.9722 Y2.4981 
G01 X1.9054 Y2.5648 
G01 X1.9053 Y2.5656 
G01 X1.9066 Y2.5687 
G01 X1.9066 Y2.5813 
G01 X1.9018 Y2.5929 
G01 X1.8929 Y2.6018 
G01 X1.8813 Y2.6066 
G01 X1.8687 Y2.6066 
G01 X1.8571 Y2.6018 
G01 X1.8482 Y2.5929 
G01 X1.8434 Y2.5813 
G01 X1.8434 Y2.5687 
G01 X1.8482 Y2.5571 
G01 X1.8571 Y2.5482 
G01 X1.8687 Y2.5434 
G01 X1.8813 Y2.5434 
G01 X1.8929 Y2.5482 
G01 X1.8932 Y2.5485 
G01 X1.9436 Y2.4981 
G01 X0.3830 Y2.4981 
G01 X0.3813 Y2.5022 
G01 X0.3742 Y2.5093 
G01 X0.3650 Y2.5131 
G01 X0.3550 Y2.5131 
G01 X0.3458 Y2.5093 
G01 X0.3387 Y2.5022 
G01 X0.3349 Y2.4930 
G01 X0.3349 Y2.4830 
G01 X0.3387 Y2.4738 
G01 X0.3458 Y2.4667 
G01 X0.3550 Y2.4629 
G01 X0.3650 Y2.4629 
G01 X0.3742 Y2.4667 
G01 X0.3813 Y2.4738 
G01 X0.3830 Y2.4779 
G01 X1.9638 Y2.4779 
G01 X2.0918 Y2.3499 
G01 X2.1002 Y2.3499 
G01 X2.9930 Y2.3499 
G01 X2.9947 Y2.3458 
G01 X3.0018 Y2.3387 
G01 X3.0110 Y2.3349 
G01 X3.0210 Y2.3349 
G01 X3.0272 Y2.3375 
G01 X3.0213 Y2.3316 
G01 X2.9714 Y2.3316 
G01 X2.9684 Y2.3286 
G01 X2.9684 Y2.3141 
G01 X2.6566 Y2.3141 
G01 X2.6566 Y2.3286 
G01 X2.6536 Y2.3316 
G01 X2.5964 Y2.3316 
G01 X2.5934 Y2.3286 
G01 X2.5934 Y2.3141 
G01 X2.2816 Y2.3141 
G01 X2.2816 Y2.3286 
G01 X2.2786 Y2.3316 
G01 X2.2214 Y2.3316 
G01 X2.2184 Y2.3286 
G01 X2.2184 Y2.3141 
G01 X1.9066 Y2.3141 
G01 X1.9066 Y2.3286 
G01 X1.9036 Y2.3316 
G01 X1.8464 Y2.3316 
G01 X1.8434 Y2.3286 
G01 X1.8434 Y2.3141 
G01 X1.5316 Y2.3141 
G01 X1.5316 Y2.3286 
G01 X1.5286 Y2.3316 
G01 X1.4714 Y2.3316 
G01 X1.4684 Y2.3286 
G01 X1.4684 Y2.3141 
G01 X1.1566 Y2.3141 
G01 X1.1566 Y2.3286 
G01 X1.1536 Y2.3316 
G01 X1.0964 Y2.3316 
G01 X1.0934 Y2.3286 
G01 X1.0934 Y2.3141 
G01 X0.7816 Y2.3141 
G01 X0.7816 Y2.3286 
G01 X0.7786 Y2.3316 
G01 X0.7214 Y2.3316 
G01 X0.7184 Y2.3286 
G01 X0.7184 Y2.3141 
G01 X0.4066 Y2.3141 
G01 X0.4066 Y2.3286 
G01 X0.4036 Y2.3316 
G01 X0.3547 Y2.3316 
G01 X0.2042 Y2.4821 
G01 X0.1958 Y2.4821 
G01 X0.1722 Y2.4821 
G01 X0.1322 Y2.5221 
G01 X0.1238 Y2.5221 
G01 X0.1151 Y2.5221 
G01 X0.1151 Y2.5320 
G01 X0.1097 Y2.5449 
G01 X0.0999 Y2.5547 
G01 X0.0870 Y2.5601 
G01 X0.0730 Y2.5601 
G01 X0.0601 Y2.5547 
G01 X0.0502 Y2.5449 
G01 X0.0449 Y2.5320 
G01 X0.0449 Y2.5180 
G01 X0.0502 Y2.5051 
G01 X0.0601 Y2.4952 
G01 X0.0730 Y2.4899 
G01 X0.0870 Y2.4899 
G01 X0.0999 Y2.4952 
G01 X0.1065 Y2.5019 
G01 X0.1238 Y2.5019 
G01 X0.1579 Y2.4678 
G01 X0.1638 Y2.4619 
G01 X0.1958 Y2.4619 
G01 X0.3422 Y2.3155 
G01 X0.3422 Y2.3151 
G01 X0.3434 Y2.3141 
G01 X0.3434 Y2.2714 
G01 X0.3464 Y2.2684 
G01 X0.4036 Y2.2684 
G01 X0.4066 Y2.2714 
G01 X0.4066 Y2.2939 
G01 X0.7184 Y2.2939 
G01 X0.7184 Y2.2714 
G01 X0.7214 Y2.2684 
G01 X0.7786 Y2.2684 
G01 X0.7816 Y2.2714 
G01 X0.7816 Y2.2939 
G01 X1.0934 Y2.2939 
G01 X1.0934 Y2.2714 
G01 X1.0964 Y2.2684 
G01 X1.1536 Y2.2684 
G01 X1.1566 Y2.2714 
G01 X1.1566 Y2.2939 
G01 X1.4684 Y2.2939 
G01 X1.4684 Y2.2714 
G01 X1.4714 Y2.2684 
G01 X1.5286 Y2.2684 
G01 X1.5316 Y2.2714 
G01 X1.5316 Y2.2939 
G01 X1.8434 Y2.2939 
G01 X1.8434 Y2.2714 
G01 X1.8464 Y2.2684 
G01 X1.9036 Y2.2684 
G01 X1.9066 Y2.2714 
G01 X1.9066 Y2.2939 
G01 X2.2184 Y2.2939 
G01 X2.2184 Y2.2714 
G01 X2.2214 Y2.2684 
G01 X2.2786 Y2.2684 
G01 X2.2816 Y2.2714 
G01 X2.2816 Y2.2939 
G01 X2.5934 Y2.2939 
G01 X2.5934 Y2.2714 
G01 X2.5964 Y2.2684 
G01 X2.6536 Y2.2684 
G01 X2.6566 Y2.2714 
G01 X2.6566 Y2.2939 
G01 X2.9684 Y2.2939 
G01 X2.9684 Y2.2714 
G01 X2.9714 Y2.2684 
G01 X3.0286 Y2.2684 
G01 X3.0316 Y2.2714 
G01 X3.0316 Y2.3132 
G01 X3.0337 Y2.3149 
G01 X3.0337 Y2.3154 
G01 X3.0522 Y2.3339 
G01 X3.0998 Y2.3339 
G01 X3.1072 Y2.3265 
G01 X3.1010 Y2.3291 
G01 X3.0910 Y2.3291 
G01 X3.0818 Y2.3253 
G01 X3.0747 Y2.3182 
G01 X3.0709 Y2.3090 
G01 X3.0709 Y2.2990 
G01 X3.0726 Y2.2949 
G01 X3.0358 Y2.2581 
G01 X3.0299 Y2.2522 
G01 X3.0299 Y2.2103 
G01 X3.0268 Y2.2179 
G01 X3.0179 Y2.2268 
G01 X3.0063 Y2.2316 
G01 X2.9937 Y2.2316 
G01 X2.9821 Y2.2268 
G01 X2.9732 Y2.2179 
G01 X2.9684 Y2.2063 
G01 X2.9684 Y2.1937 
G01 X2.9732 Y2.1821 
G01 X2.9821 Y2.1732 
G01 X2.9937 Y2.1684 
G01 X3.0063 Y2.1684 
G01 X3.0129 Y2.1711 
G01 X2.6539 Y1.8121 
G01 X2.6566 Y1.8187 
G01 X2.6566 Y1.8313 
G01 X2.6518 Y1.8429 
G01 X2.6465 Y1.8482 
G01 X2.6762 Y1.8779 
G01 X2.6821 Y1.8838 
G01 X2.6821 Y1.9558 
G01 X2.6821 Y1.9642 
G01 X2.5343 Y2.1120 
G01 X2.6013 Y2.1790 
G01 X2.6071 Y2.1732 
G01 X2.6187 Y2.1684 
G01 X2.6313 Y2.1684 
G01 X2.6429 Y2.1732 
G01 X2.6518 Y2.1821 
G01 X2.6566 Y2.1937 
G01 X2.6566 Y2.2063 
G01 X2.6518 Y2.2179 
G01 X2.6429 Y2.2268 
G01 X2.6313 Y2.2316 
G01 X2.6187 Y2.2316 
G01 X2.6071 Y2.2268 
G01 X2.5982 Y2.2179 
G01 X2.5934 Y2.2063 
G01 X2.5934 Y2.2005 
G01 X2.5929 Y2.2003 
G01 X2.5917 Y2.1980 
G01 X2.5158 Y2.1221 
G01 X2.5158 Y2.1221 
G01 X2.5099 Y2.1162 
G01 X2.4998 Y2.1061 
G01 X0.3882 Y2.1061 
G01 X0.3770 Y2.1173 
G01 X0.3733 Y2.1262 
G01 X0.3662 Y2.1333 
G01 X0.3570 Y2.1371 
G01 X0.3470 Y2.1371 
G01 X0.3378 Y2.1333 
G01 X0.3307 Y2.1262 
G01 X0.3269 Y2.1170 
G01 X0.3269 Y2.1070 
G01 X0.3307 Y2.0978 
G01 X0.3378 Y2.0907 
G01 X0.3470 Y2.0869 
G01 X0.3570 Y2.0869 
G01 X0.3662 Y2.0907 
G01 X0.3706 Y2.0951 
G01 X0.3739 Y2.0918 
G01 X0.3798 Y2.0859 
G01 X2.4998 Y2.0859 
G01 X2.5082 Y2.0859 
G01 X2.5200 Y2.0977 
G01 X2.6619 Y1.9558 
G01 X2.6619 Y1.8922 
G01 X2.6263 Y1.8566 
G01 X2.6187 Y1.8566 
G01 X2.6071 Y1.8518 
G01 X2.5982 Y1.8429 
G01 X2.5934 Y1.8313 
G01 X2.5934 Y1.8261 
G01 X2.5398 Y1.8261 
G01 X2.5339 Y1.8202 
G01 X2.4379 Y1.7242 
G01 X2.4379 Y1.7158 
G01 X2.4379 Y1.6998 
G01 X2.4438 Y1.6939 
G01 X2.4438 Y1.6939 
G01 X2.4758 Y1.6619 
G01 X2.4842 Y1.6619 
G01 X2.5638 Y1.6619 
G01 X2.5722 Y1.6619 
G01 X2.6202 Y1.7099 
G01 X2.9290 Y1.7099 
G01 X2.9307 Y1.7058 
G01 X2.9378 Y1.6987 
G01 X2.9470 Y1.6949 
G01 X2.9570 Y1.6949 
G01 X2.9632 Y1.6975 
G01 X2.9558 Y1.6901 
G01 X2.8842 Y1.6901 
G01 X2.8821 Y1.6922 
G01 X2.8762 Y1.6981 
G01 X2.6202 Y1.6981 
G01 X2.6118 Y1.6981 
G01 X2.5718 Y1.6581 
G01 X2.4762 Y1.6581 
G01 X2.3461 Y1.7882 
G01 X2.3402 Y1.7941 
G01 X2.2579 Y1.7941 
G01 X2.2679 Y1.7982 
G01 X2.2768 Y1.8071 
G01 X2.2816 Y1.8187 
G01 X2.2816 Y1.8313 
G01 X2.2768 Y1.8429 
G01 X2.2679 Y1.8518 
G01 X2.2563 Y1.8566 
G01 X2.2437 Y1.8566 
G01 X2.2321 Y1.8518 
G01 X2.2232 Y1.8429 
G01 X2.2184 Y1.8313 
G01 X2.2184 Y1.8187 
G01 X2.2232 Y1.8071 
G01 X2.2321 Y1.7982 
G01 X2.2421 Y1.7941 
G01 X1.8829 Y1.7941 
G01 X1.8929 Y1.7982 
G01 X1.9018 Y1.8071 
G01 X1.9066 Y1.8187 
G01 X1.9066 Y1.8313 
G01 X1.9018 Y1.8429 
G01 X1.8929 Y1.8518 
G01 X1.8813 Y1.8566 
G01 X1.8687 Y1.8566 
G01 X1.8571 Y1.8518 
G01 X1.8482 Y1.8429 
G01 X1.8434 Y1.8313 
G01 X1.8434 Y1.8187 
G01 X1.8482 Y1.8071 
G01 X1.8571 Y1.7982 
G01 X1.8671 Y1.7941 
G01 X1.5482 Y1.7941 
G01 X1.5298 Y1.8125 
G01 X1.5297 Y1.8130 
G01 X1.5293 Y1.8133 
G01 X1.5316 Y1.8187 
G01 X1.5316 Y1.8313 
G01 X1.5268 Y1.8429 
G01 X1.5179 Y1.8518 
G01 X1.5063 Y1.8566 
G01 X1.4937 Y1.8566 
G01 X1.4821 Y1.8518 
G01 X1.4732 Y1.8429 
G01 X1.4684 Y1.8313 
G01 X1.4684 Y1.8187 
G01 X1.4732 Y1.8071 
G01 X1.4821 Y1.7982 
G01 X1.4937 Y1.7934 
G01 X1.5063 Y1.7934 
G01 X1.5162 Y1.7975 
G01 X1.5398 Y1.7739 
G01 X1.5482 Y1.7739 
G01 X2.3318 Y1.7739 
G01 X2.4678 Y1.6379 
G01 X2.4762 Y1.6379 
G01 X2.5802 Y1.6379 
G01 X2.5861 Y1.6438 
G01 X2.6202 Y1.6779 
G01 X2.8678 Y1.6779 
G01 X2.8752 Y1.6705 
G01 X2.8690 Y1.6731 
G01 X2.8590 Y1.6731 
G01 X2.8498 Y1.6693 
G01 X2.8427 Y1.6622 
G01 X2.8389 Y1.6530 
G01 X2.8389 Y1.6430 
G01 X2.8427 Y1.6338 
G01 X2.8498 Y1.6267 
G01 X2.8590 Y1.6229 
G01 X2.8690 Y1.6229 
G01 X2.8782 Y1.6267 
G01 X2.8853 Y1.6338 
G01 X2.8870 Y1.6379 
G01 X3.0250 Y1.6379 
G01 X3.0267 Y1.6338 
G01 X3.0338 Y1.6267 
G01 X3.0430 Y1.6229 
G01 X3.0530 Y1.6229 
G01 X3.0622 Y1.6267 
G01 X3.0693 Y1.6338 
G01 X3.0731 Y1.6430 
G01 X3.0731 Y1.6530 
G01 X3.0693 Y1.6622 
G01 X3.0622 Y1.6693 
G01 X3.0530 Y1.6731 
G01 X3.0430 Y1.6731 
G01 X3.0338 Y1.6693 
G01 X3.0267 Y1.6622 
G01 X3.0250 Y1.6581 
G01 X2.8870 Y1.6581 
G01 X2.8853 Y1.6622 
G01 X2.8782 Y1.6693 
G01 X2.8767 Y1.6699 
G01 X2.8842 Y1.6699 
G01 X2.9642 Y1.6699 
G01 X2.9701 Y1.6758 
G01 X2.9802 Y1.6859 
G01 X3.0730 Y1.6859 
G01 X3.0747 Y1.6818 
G01 X3.0818 Y1.6747 
G01 X3.0910 Y1.6709 
G01 X3.1010 Y1.6709 
G01 X3.1102 Y1.6747 
G01 X3.1173 Y1.6818 
G01 X3.1211 Y1.6910 
G01 X3.1211 Y1.6937 
G01 X3.1227 Y1.6898 
G01 X3.1298 Y1.6827 
G01 X3.1390 Y1.6789 
G01 X3.1490 Y1.6789 
G01 X3.1582 Y1.6827 
G01 X3.1653 Y1.6898 
G01 X3.1691 Y1.6990 
G01 X3.1691 Y1.7090 
G01 X3.1653 Y1.7182 
G01 X3.1582 Y1.7253 
G01 X3.1541 Y1.7270 
G01 X3.1541 Y2.2518 
G01 X3.1562 Y2.2539 
G01 X3.1621 Y2.2598 
G01 X3.1621 Y2.2758 
G01 X3.2149 Y2.3286 
G01 X3.2190 Y2.3269 
G01 X3.2290 Y2.3269 
G01 X3.2352 Y2.3295 
G01 X3.2278 Y2.3221 
G01 X3.2198 Y2.3221 
G01 X3.2139 Y2.3162 
G01 X3.2139 Y2.3162 
G01 X3.1819 Y2.2842 
G01 X3.1819 Y2.2787 
G01 X3.1676 Y2.2787 
G01 X3.1646 Y2.2757 
G01 X3.1646 Y2.2243 
G01 X3.1659 Y2.2229 
G01 X3.1659 Y2.0282 
G01 X3.1638 Y2.0261 
G01 X3.1579 Y2.0202 
G01 X3.1579 Y1.9082 
G01 X3.1579 Y1.8998 
G01 X3.1646 Y1.8931 
G01 X3.1646 Y1.8493 
G01 X3.1676 Y1.8463 
G01 X3.1819 Y1.8463 
G01 X3.1819 Y1.5287 
G01 X3.1676 Y1.5287 
G01 X3.1646 Y1.5257 
G01 X3.1646 Y1.4989 
G01 X3.0118 Y1.3461 
G01 X2.9190 Y1.3461 
G01 X2.9173 Y1.3502 
G01 X2.9102 Y1.3573 
G01 X2.9010 Y1.3611 
G01 X2.8910 Y1.3611 
G01 X2.8818 Y1.3573 
G01 X2.8747 Y1.3502 
G01 X2.8730 Y1.3461 
G01 X0.7402 Y1.3461 
G01 X0.4202 Y1.6661 
G01 X0.4118 Y1.6661 
G01 X0.2746 Y1.6661 
G01 X0.2746 Y1.7125 
G01 X0.2716 Y1.7155 
G01 X0.2661 Y1.7155 
G01 X0.2661 Y1.8362 
G01 X0.2602 Y1.8421 
G01 X0.2341 Y1.8682 
G01 X0.2341 Y1.8790 
G01 X0.2347 Y1.8822 
G01 X0.2341 Y1.8831 
G01 X0.2341 Y1.8842 
G01 X0.2318 Y1.8865 
G01 X0.2313 Y1.8873 
G01 X0.2313 Y1.9257 
G01 X0.2283 Y1.9287 
G01 X0.1926 Y1.9287 
G01 X0.1896 Y1.9257 
G01 X0.1896 Y1.8743 
G01 X0.1926 Y1.8713 
G01 X0.2139 Y1.8713 
G01 X0.2139 Y1.8682 
G01 X0.2139 Y1.8598 
G01 X0.2459 Y1.8278 
G01 X0.2459 Y1.7155 
G01 X0.2123 Y1.7155 
G01 X0.2093 Y1.7125 
G01 X0.2093 Y1.6375 
G01 X0.2123 Y1.6345 
G01 X0.2716 Y1.6345 
G01 X0.2746 Y1.6375 
G01 X0.2746 Y1.6459 
G01 X0.4118 Y1.6459 
G01 X0.7259 Y1.3318 
G01 X0.7318 Y1.3259 
G01 X2.8730 Y1.3259 
G01 X2.8747 Y1.3218 
G01 X2.8818 Y1.3147 
G01 X2.8910 Y1.3109 
G01 X2.9010 Y1.3109 
G01 X2.9102 Y1.3147 
G01 X2.9173 Y1.3218 
G01 X2.9190 Y1.3259 
G01 X3.0118 Y1.3259 
G01 X3.0202 Y1.3259 
G01 X3.1666 Y1.4723 
G01 X3.1676 Y1.4713 
G01 X3.2033 Y1.4713 
G01 X3.2063 Y1.4743 
G01 X3.2063 Y1.5257 
G01 X3.2033 Y1.5287 
G01 X3.2021 Y1.5287 
G01 X3.2021 Y1.8455 
G01 X3.2028 Y1.8454 
G01 X3.2034 Y1.8459 
G01 X3.2339 Y1.8459 
G01 X3.2339 Y1.8349 
G01 X3.2357 Y1.8331 
G01 X3.2270 Y1.8331 
G01 X3.2178 Y1.8293 
G01 X3.2107 Y1.8222 
G01 X3.2069 Y1.8130 
G01 X3.2069 Y1.8030 
G01 X3.2107 Y1.7938 
G01 X3.2178 Y1.7867 
G01 X3.2270 Y1.7829 
G01 X3.2370 Y1.7829 
G01 X3.2462 Y1.7867 
G01 X3.2533 Y1.7938 
G01 X3.2550 Y1.7979 
G01 X3.3162 Y1.7979 
G01 X3.3221 Y1.8038 
G01 X3.3461 Y1.8278 
G01 X3.3461 Y1.8362 
G01 X3.3461 Y1.8518 
G01 X3.4095 Y1.9152 
G01 X3.4069 Y1.9090 
G01 X3.4069 Y1.8990 
G01 X3.4107 Y1.8898 
G01 X3.4178 Y1.8827 
G01 X3.4270 Y1.8789 
G01 X3.4370 Y1.8789 
G01 X3.4462 Y1.8827 
G01 X3.4533 Y1.8898 
G01 X3.4550 Y1.8939 
G01 X3.4759 Y1.8939 
G01 X3.4759 Y1.8849 
G01 X3.4789 Y1.8819 
G01 X3.5631 Y1.8819 
G01 X3.5661 Y1.8849 
G01 X3.5661 Y1.9151 
G01 X3.5631 Y1.9181 
G01 X3.4789 Y1.9181 
G01 X3.4759 Y1.9151 
G01 X3.4759 Y1.9141 
G01 X3.4550 Y1.9141 
G01 X3.4533 Y1.9182 
G01 X3.4462 Y1.9253 
G01 X3.4370 Y1.9291 
G01 X3.4270 Y1.9291 
G01 X3.4208 Y1.9265 
G01 X3.4282 Y1.9339 
G01 X3.4769 Y1.9339 
G01 X3.4789 Y1.9319 
G01 X3.5631 Y1.9319 
G01 X3.5661 Y1.9349 
G01 X3.5661 Y1.9651 
G01 X3.5631 Y1.9681 
G01 X3.4789 Y1.9681 
G01 X3.4759 Y1.9651 
G01 X3.4759 Y1.9541 
