( This gcode generated by /opt/eagle-5.6.0/ulp/pcb-gcode.ulp )
( Copyright 2005 by John Johnson. See readme.txt for licensing terms. )

( This file generated from the board /home/alex/untitled.brd )
( This file generated 4 Apr 2010 08:23:51 )

G20

G90
G00 Z0.5000 
G00 X0 Y0
M03
G04 P3.000000
G00 Z0.0200 
G00 X0.2811 Y0.4371 
G01 Z-0.0100 F10.00 
G01 X0.2811 Y0.4629 
G01 X0.2629 Y0.4811 
G01 X0.2371 Y0.4811 
G01 X0.2189 Y0.4629 
G01 X0.2189 Y0.4371 
G01 X0.2371 Y0.4189 
G01 X0.2629 Y0.4189 
G01 X0.2648 Y0.4209 
G01 X0.4058 Y0.2799 
G01 X0.4142 Y0.2799 
G01 X0.4240 Y0.2799 
G01 X0.4240 Y0.2656 
G01 X0.4270 Y0.2626 
G01 X0.4864 Y0.2626 
G01 X0.4893 Y0.2656 
G01 X0.4893 Y0.3092 
G01 X0.4864 Y0.3122 
G01 X0.4270 Y0.3122 
G01 X0.4240 Y0.3092 
G01 X0.4240 Y0.3001 
G01 X0.4142 Y0.3001 
G01 X0.2791 Y0.4351 
G01 X0.2811 Y0.4371 
G00 Z0.0200 
G00 X0.7811 Y0.4371 
G01 Z-0.0100 F10.00 
G01 X0.7811 Y0.4629 
G01 X0.7629 Y0.4811 
G01 X0.7371 Y0.4811 
G01 X0.7189 Y0.4629 
G01 X0.7189 Y0.4371 
G01 X0.7369 Y0.4191 
G01 X0.7369 Y0.2631 
G01 X0.5760 Y0.2631 
G01 X0.5760 Y0.2718 
G01 X0.5730 Y0.2748 
G01 X0.5136 Y0.2748 
G01 X0.5107 Y0.2718 
G01 X0.5107 Y0.2282 
G01 X0.5136 Y0.2252 
G01 X0.5730 Y0.2252 
G01 X0.5760 Y0.2282 
G01 X0.5760 Y0.2369 
G01 X0.7446 Y0.2369 
G01 X0.7554 Y0.2369 
G01 X0.7631 Y0.2446 
G01 X0.7631 Y0.4191 
G01 X0.7811 Y0.4371 
G00 Z0.0200 
G00 X0.4270 Y0.1878 
G01 Z-0.0100 F10.00 
G01 X0.4499 Y0.1878 
G01 X0.4499 Y0.1442 
G01 X0.4499 Y0.1358 
G01 X0.4681 Y0.1177 
G01 X0.4649 Y0.1145 
G01 X0.4649 Y0.0855 
G01 X0.4855 Y0.0649 
G01 X0.5145 Y0.0649 
G01 X0.5351 Y0.0855 
G01 X0.5351 Y0.1145 
G01 X0.5145 Y0.1351 
G01 X0.4855 Y0.1351 
G01 X0.4823 Y0.1319 
G01 X0.4701 Y0.1442 
G01 X0.4701 Y0.1878 
G01 X0.4864 Y0.1878 
G01 X0.4893 Y0.1908 
G01 X0.4893 Y0.2344 
G01 X0.4864 Y0.2374 
G01 X0.4270 Y0.2374 
G01 X0.4240 Y0.2344 
G01 X0.4240 Y0.1908 
G01 X0.4270 Y0.1878 
G00 Z0.0200 
G00 X0.2861 Y0.4649 
G01 Z-0.0100 F10.00 
G01 X0.2649 Y0.4861 
G01 X0.2350 Y0.4861 
G01 X0.2139 Y0.4649 
G01 X0.2139 Y0.4350 
G01 X0.2350 Y0.4139 
G01 X0.2647 Y0.4139 
G01 X0.4037 Y0.2749 
G01 X0.4163 Y0.2749 
G01 X0.4190 Y0.2749 
G01 X0.4190 Y0.2635 
G01 X0.4249 Y0.2576 
G01 X0.4884 Y0.2576 
G01 X0.4943 Y0.2635 
G01 X0.4943 Y0.3113 
G01 X0.4884 Y0.3172 
G01 X0.4249 Y0.3172 
G01 X0.4190 Y0.3113 
G01 X0.4190 Y0.3051 
G01 X0.4163 Y0.3051 
G01 X0.2861 Y0.4353 
G01 X0.2861 Y0.4649 
G00 Z0.0200 
G00 X0.7861 Y0.4350 
G01 Z-0.0100 F10.00 
G01 X0.7861 Y0.4649 
G01 X0.7649 Y0.4861 
G01 X0.7350 Y0.4861 
G01 X0.7139 Y0.4649 
G01 X0.7139 Y0.4350 
G01 X0.7319 Y0.4171 
G01 X0.7319 Y0.2681 
G01 X0.5810 Y0.2681 
G01 X0.5810 Y0.2739 
G01 X0.5750 Y0.2798 
G01 X0.5116 Y0.2798 
G01 X0.5057 Y0.2739 
G01 X0.5057 Y0.2261 
G01 X0.5116 Y0.2202 
G01 X0.5750 Y0.2202 
G01 X0.5810 Y0.2261 
G01 X0.5810 Y0.2319 
G01 X0.7425 Y0.2319 
G01 X0.7575 Y0.2319 
G01 X0.7681 Y0.2425 
G01 X0.7681 Y0.4171 
G01 X0.7861 Y0.4350 
G00 Z0.0200 
G00 X0.4249 Y0.1828 
G01 Z-0.0100 F10.00 
G01 X0.4449 Y0.1828 
G01 X0.4449 Y0.1463 
G01 X0.4449 Y0.1337 
G01 X0.4610 Y0.1177 
G01 X0.4599 Y0.1166 
G01 X0.4599 Y0.0834 
G01 X0.4834 Y0.0599 
G01 X0.5166 Y0.0599 
G01 X0.5401 Y0.0834 
G01 X0.5401 Y0.1166 
G01 X0.5166 Y0.1401 
G01 X0.4834 Y0.1401 
G01 X0.4823 Y0.1390 
G01 X0.4751 Y0.1463 
G01 X0.4751 Y0.1828 
G01 X0.4884 Y0.1828 
G01 X0.4943 Y0.1887 
G01 X0.4943 Y0.2365 
G01 X0.4884 Y0.2424 
G01 X0.4249 Y0.2424 
G01 X0.4190 Y0.2365 
G01 X0.4190 Y0.1887 
G01 X0.4249 Y0.1828 
G00 Z0.0200 
G00 X0.2911 Y0.4670 
G01 Z-0.0100 F10.00 
G01 X0.2670 Y0.4911 
G01 X0.2330 Y0.4911 
G01 X0.2089 Y0.4670 
G01 X0.2089 Y0.4330 
G01 X0.2330 Y0.4089 
G01 X0.2627 Y0.4089 
G01 X0.4017 Y0.2699 
G01 X0.4140 Y0.2699 
G01 X0.4140 Y0.2615 
G01 X0.4229 Y0.2526 
G01 X0.4905 Y0.2526 
G01 X0.4993 Y0.2615 
G01 X0.4993 Y0.3133 
G01 X0.4905 Y0.3222 
G01 X0.4229 Y0.3222 
G01 X0.4146 Y0.3139 
G01 X0.2911 Y0.4373 
G01 X0.2911 Y0.4670 
G00 Z0.0200 
G00 X0.7911 Y0.4330 
G01 Z-0.0100 F10.00 
G01 X0.7911 Y0.4670 
G01 X0.7670 Y0.4911 
G01 X0.7330 Y0.4911 
G01 X0.7089 Y0.4670 
G01 X0.7089 Y0.4330 
G01 X0.7269 Y0.4150 
G01 X0.7269 Y0.2731 
G01 X0.5860 Y0.2731 
G01 X0.5860 Y0.2759 
G01 X0.5771 Y0.2848 
G01 X0.5095 Y0.2848 
G01 X0.5007 Y0.2759 
G01 X0.5007 Y0.2241 
G01 X0.5095 Y0.2152 
G01 X0.5771 Y0.2152 
G01 X0.5860 Y0.2241 
G01 X0.5860 Y0.2269 
G01 X0.7404 Y0.2269 
G01 X0.7596 Y0.2269 
G01 X0.7731 Y0.2404 
G01 X0.7731 Y0.4150 
G01 X0.7911 Y0.4330 
G00 Z0.0200 
G00 X0.5451 Y0.0813 
G01 Z-0.0100 F10.00 
G01 X0.5451 Y0.1187 
G01 X0.5187 Y0.1451 
G01 X0.4833 Y0.1451 
G01 X0.4801 Y0.1483 
G01 X0.4801 Y0.1778 
G01 X0.4905 Y0.1778 
G01 X0.4993 Y0.1867 
G01 X0.4993 Y0.2385 
G01 X0.4905 Y0.2474 
G01 X0.4229 Y0.2474 
G01 X0.4140 Y0.2385 
G01 X0.4140 Y0.1867 
G01 X0.4229 Y0.1778 
G01 X0.4399 Y0.1778 
G01 X0.4399 Y0.1483 
G01 X0.4399 Y0.1317 
G01 X0.4549 Y0.1167 
G01 X0.4549 Y0.0813 
G01 X0.4813 Y0.0549 
G01 X0.5187 Y0.0549 
G01 X0.5451 Y0.0813 
G00 Z0.0200 
G00 X0.4957 Y0.2493 
G01 Z-0.0100 F10.00 
G01 X0.4949 Y0.2500 
G01 X0.4957 Y0.2507 
G01 X0.4957 Y0.2493 
G00 Z0.0200 
G00 X0.5501 Y0.0792 
G01 Z-0.0100 F10.00 
G01 X0.5501 Y0.1207 
G01 X0.5207 Y0.1501 
G01 X0.4854 Y0.1501 
G01 X0.4851 Y0.1504 
G01 X0.4851 Y0.1728 
G01 X0.4926 Y0.1728 
G01 X0.5043 Y0.1846 
G01 X0.5043 Y0.2133 
G01 X0.5074 Y0.2102 
G01 X0.5792 Y0.2102 
G01 X0.5909 Y0.2219 
G01 X0.7444 Y0.2219 
G01 X0.7556 Y0.2219 
G01 X0.7659 Y0.2262 
G01 X0.7738 Y0.2341 
G01 X0.7781 Y0.2444 
G01 X0.7781 Y0.4129 
G01 X0.7961 Y0.4309 
G01 X0.7961 Y0.4691 
G01 X0.7691 Y0.4961 
G01 X0.7309 Y0.4961 
G01 X0.7039 Y0.4691 
G01 X0.7039 Y0.4309 
G01 X0.7219 Y0.4129 
G01 X0.7219 Y0.2781 
G01 X0.5909 Y0.2781 
G01 X0.5792 Y0.2898 
G01 X0.5074 Y0.2898 
G01 X0.5043 Y0.2867 
G01 X0.5043 Y0.3154 
G01 X0.4926 Y0.3272 
G01 X0.4208 Y0.3272 
G01 X0.4146 Y0.3209 
G01 X0.2961 Y0.4394 
G01 X0.2961 Y0.4691 
G01 X0.2691 Y0.4961 
G01 X0.2309 Y0.4961 
G01 X0.2039 Y0.4691 
G01 X0.2039 Y0.4309 
G01 X0.2309 Y0.4039 
G01 X0.2606 Y0.4039 
G01 X0.3958 Y0.2687 
G01 X0.4050 Y0.2649 
G01 X0.4090 Y0.2649 
G01 X0.4090 Y0.2594 
G01 X0.4184 Y0.2500 
G01 X0.4090 Y0.2406 
G01 X0.4090 Y0.1846 
G01 X0.4208 Y0.1728 
G01 X0.4349 Y0.1728 
G01 X0.4349 Y0.1450 
G01 X0.4349 Y0.1350 
G01 X0.4387 Y0.1258 
G01 X0.4499 Y0.1146 
G01 X0.4499 Y0.0792 
G01 X0.4792 Y0.0499 
G01 X0.5207 Y0.0499 
G01 X0.5501 Y0.0792 
G00 Z0.0200 
G00 X0.5551 Y0.0772 
G01 Z-0.0100 F10.00 
G01 X0.5551 Y0.1228 
G01 X0.5228 Y0.1551 
G01 X0.4901 Y0.1551 
G01 X0.4901 Y0.1682 
G01 X0.4985 Y0.1716 
G01 X0.5055 Y0.1787 
G01 X0.5093 Y0.1879 
G01 X0.5093 Y0.2058 
G01 X0.5108 Y0.2052 
G01 X0.5759 Y0.2052 
G01 X0.5851 Y0.2090 
G01 X0.5921 Y0.2161 
G01 X0.5925 Y0.2169 
G01 X0.7434 Y0.2169 
G01 X0.7566 Y0.2169 
G01 X0.7687 Y0.2219 
G01 X0.7781 Y0.2313 
G01 X0.7831 Y0.2434 
G01 X0.7831 Y0.4108 
G01 X0.8011 Y0.4288 
G01 X0.8011 Y0.4712 
G01 X0.7712 Y0.5011 
G01 X0.7288 Y0.5011 
G01 X0.6989 Y0.4712 
G01 X0.6989 Y0.4288 
G01 X0.7169 Y0.4108 
G01 X0.7169 Y0.2831 
G01 X0.5925 Y0.2831 
G01 X0.5921 Y0.2839 
G01 X0.5851 Y0.2910 
G01 X0.5759 Y0.2948 
G01 X0.5108 Y0.2948 
G01 X0.5093 Y0.2942 
G01 X0.5093 Y0.3121 
G01 X0.5055 Y0.3213 
G01 X0.4985 Y0.3284 
G01 X0.4892 Y0.3322 
G01 X0.4241 Y0.3322 
G01 X0.4149 Y0.3284 
G01 X0.4146 Y0.3280 
G01 X0.3011 Y0.4415 
G01 X0.3011 Y0.4712 
G01 X0.2712 Y0.5011 
G01 X0.2288 Y0.5011 
G01 X0.1989 Y0.4712 
G01 X0.1989 Y0.4288 
G01 X0.2288 Y0.3989 
G01 X0.2585 Y0.3989 
G01 X0.3930 Y0.2645 
G01 X0.4040 Y0.2599 
G01 X0.4052 Y0.2599 
G01 X0.4079 Y0.2535 
G01 X0.4114 Y0.2500 
G01 X0.4079 Y0.2465 
G01 X0.4040 Y0.2373 
G01 X0.4040 Y0.1879 
G01 X0.4079 Y0.1787 
G01 X0.4149 Y0.1716 
G01 X0.4241 Y0.1678 
G01 X0.4299 Y0.1678 
G01 X0.4299 Y0.1460 
G01 X0.4299 Y0.1340 
G01 X0.4345 Y0.1230 
G01 X0.4449 Y0.1125 
G01 X0.4449 Y0.0772 
G01 X0.4772 Y0.0449 
G01 X0.5228 Y0.0449 
G01 X0.5551 Y0.0772 
G00 Z0.0200 
G00 X0.5601 Y0.0751 
G01 Z-0.0100 F10.00 
G01 X0.5601 Y0.1249 
G01 X0.5249 Y0.1601 
G01 X0.4951 Y0.1601 
G01 X0.4951 Y0.1648 
G01 X0.5013 Y0.1674 
G01 X0.5098 Y0.1759 
G01 X0.5143 Y0.1869 
G01 X0.5143 Y0.2002 
G01 X0.5769 Y0.2002 
G01 X0.5879 Y0.2048 
G01 X0.5950 Y0.2119 
G01 X0.7424 Y0.2119 
G01 X0.7576 Y0.2119 
G01 X0.7716 Y0.2177 
G01 X0.7823 Y0.2284 
G01 X0.7881 Y0.2424 
G01 X0.7881 Y0.4088 
G01 X0.8061 Y0.4268 
G01 X0.8061 Y0.4732 
G01 X0.7732 Y0.5061 
G01 X0.7268 Y0.5061 
G01 X0.6939 Y0.4732 
G01 X0.6939 Y0.4268 
G01 X0.7119 Y0.4088 
G01 X0.7119 Y0.2881 
G01 X0.5950 Y0.2881 
G01 X0.5879 Y0.2952 
G01 X0.5769 Y0.2998 
G01 X0.5143 Y0.2998 
G01 X0.5143 Y0.3131 
G01 X0.5098 Y0.3241 
G01 X0.5013 Y0.3326 
G01 X0.4902 Y0.3372 
G01 X0.4231 Y0.3372 
G01 X0.4156 Y0.3340 
G01 X0.3061 Y0.4435 
G01 X0.3061 Y0.4732 
G01 X0.2732 Y0.5061 
G01 X0.2268 Y0.5061 
G01 X0.1939 Y0.4732 
G01 X0.1939 Y0.4268 
G01 X0.2268 Y0.3939 
G01 X0.2565 Y0.3939 
G01 X0.3901 Y0.2602 
G01 X0.4016 Y0.2555 
G01 X0.4036 Y0.2507 
G01 X0.4043 Y0.2500 
G01 X0.4036 Y0.2493 
G01 X0.3990 Y0.2383 
G01 X0.3990 Y0.1869 
G01 X0.4036 Y0.1759 
G01 X0.4121 Y0.1674 
G01 X0.4231 Y0.1628 
G01 X0.4249 Y0.1628 
G01 X0.4249 Y0.1470 
G01 X0.4249 Y0.1330 
G01 X0.4302 Y0.1201 
G01 X0.4399 Y0.1105 
G01 X0.4399 Y0.0751 
G01 X0.4751 Y0.0399 
G01 X0.5249 Y0.0399 
G01 X0.5601 Y0.0751 
(File Footer)
G00 Z0.0200 
G00 Z0.5000 
M05
M02
